( pcb2gcode 1.1.4 )

G94     ( Inches per minute feed rate. )
G20     ( Units == INCHES.             )
G90     ( Absolute coordinates.        )
S10000  ( RPM spindle speed.           )
M3      ( Spindle on clockwise.        )

G64 P0.00500 ( set maximum deviation from commanded toolpath )

G04 P0 ( dwell for no time -- G64 should not smooth over this point )
G00 Z0.19685 ( retract )

G00 X1.06300 Y0.62800 ( rapid move to begin. )
G01 Z-0.01969 F1.96850 ( plunge. )
G04 P0 ( dwell for no time -- G64 should not smooth over this point )
X1.06300 Y0.62800
X1.06300 Y0.56300
X1.13900 Y0.56300
X1.13900 Y0.63900
X1.06300 Y0.63900
X1.06300 Y0.62800
G04 P0 ( dwell for no time -- G64 should not smooth over this point )
G00 Z0.19685 ( retract )

G00 X0.81000 Y0.58100 ( rapid move to begin. )
G01 Z-0.01969 F1.96850 ( plunge. )
G04 P0 ( dwell for no time -- G64 should not smooth over this point )
X0.81000 Y0.58100
X0.81000 Y0.51100
X0.89100 Y0.51100
X0.89100 Y0.59200
X0.81000 Y0.59200
X0.81000 Y0.58100
G04 P0 ( dwell for no time -- G64 should not smooth over this point )
G00 Z0.19685 ( retract )

G00 X0.43500 Y0.58100 ( rapid move to begin. )
G01 Z-0.01969 F1.96850 ( plunge. )
G04 P0 ( dwell for no time -- G64 should not smooth over this point )
X0.43500 Y0.58100
X0.43500 Y0.51100
X0.51600 Y0.51100
X0.51600 Y0.59200
X0.43500 Y0.59200
X0.43500 Y0.58100
G04 P0 ( dwell for no time -- G64 should not smooth over this point )
G00 Z0.19685 ( retract )

G00 X1.86800 Y0.52800 ( rapid move to begin. )
G01 Z-0.01969 F1.96850 ( plunge. )
G04 P0 ( dwell for no time -- G64 should not smooth over this point )
X1.86800 Y0.52800
X1.86700 Y0.52800
X1.86700 Y0.52600
X1.86600 Y0.52600
X1.86600 Y0.52500
X1.86500 Y0.52500
X1.86500 Y0.52200
X1.86400 Y0.52200
X1.86400 Y0.51700
X1.86300 Y0.51700
X1.86300 Y0.48600
X1.86400 Y0.48600
X1.86400 Y0.48100
X1.86500 Y0.48100
X1.86500 Y0.47800
X1.86600 Y0.47800
X1.86600 Y0.47700
X1.86700 Y0.47700
X1.86700 Y0.47500
X1.86800 Y0.47500
X1.86800 Y0.47400
X1.86900 Y0.47400
X1.86900 Y0.47300
X1.87000 Y0.47300
X1.87000 Y0.47100
X1.87100 Y0.47100
X1.87100 Y0.47000
X1.87300 Y0.47000
X1.87300 Y0.46900
X1.87400 Y0.46900
X1.87400 Y0.46800
X1.87600 Y0.46800
X1.87600 Y0.46700
X1.87800 Y0.46700
X1.87800 Y0.46600
X1.87900 Y0.46600
X1.87900 Y0.46500
X1.88400 Y0.46500
X1.88400 Y0.46400
X1.91700 Y0.46400
X1.91700 Y0.46500
X1.92200 Y0.46500
X1.92200 Y0.46600
X1.92300 Y0.46600
X1.92300 Y0.46700
X1.92500 Y0.46700
X1.92500 Y0.46800
X1.92700 Y0.46800
X1.92700 Y0.46900
X1.92800 Y0.46900
X1.92800 Y0.47000
X1.93000 Y0.47000
X1.93000 Y0.47100
X1.93100 Y0.47100
X1.93100 Y0.47300
X1.93200 Y0.47300
X1.93200 Y0.47400
X1.93300 Y0.47400
X1.93300 Y0.47500
X1.93400 Y0.47500
X1.93400 Y0.47700
X1.93500 Y0.47700
X1.93500 Y0.47800
X1.93600 Y0.47800
X1.93600 Y0.48100
X1.93700 Y0.48100
X1.93700 Y0.48600
X1.93800 Y0.48600
X1.93800 Y0.51700
X1.93700 Y0.51700
X1.93700 Y0.52200
X1.93600 Y0.52200
X1.93600 Y0.52500
X1.93500 Y0.52500
X1.93500 Y0.52600
X1.93400 Y0.52600
X1.93400 Y0.52800
X1.93300 Y0.52800
X1.93300 Y0.52900
X1.93200 Y0.52900
X1.93200 Y0.53000
X1.93100 Y0.53000
X1.93100 Y0.53200
X1.93000 Y0.53200
X1.93000 Y0.53300
X1.92800 Y0.53300
X1.92800 Y0.53400
X1.92700 Y0.53400
X1.92700 Y0.53500
X1.92500 Y0.53500
X1.92500 Y0.53600
X1.92300 Y0.53600
X1.92300 Y0.53700
X1.92200 Y0.53700
X1.92200 Y0.53800
X1.91700 Y0.53800
X1.91700 Y0.53900
X1.88400 Y0.53900
X1.88400 Y0.53800
X1.87900 Y0.53800
X1.87900 Y0.53700
X1.87800 Y0.53700
X1.87800 Y0.53600
X1.87600 Y0.53600
X1.87600 Y0.53500
X1.87400 Y0.53500
X1.87400 Y0.53400
X1.87300 Y0.53400
X1.87300 Y0.53300
X1.87100 Y0.53300
X1.87100 Y0.53200
X1.87000 Y0.53200
X1.87000 Y0.53000
X1.86900 Y0.53000
X1.86900 Y0.52900
X1.86800 Y0.52900
X1.86800 Y0.52800
G04 P0 ( dwell for no time -- G64 should not smooth over this point )
G00 Z0.19685 ( retract )

G00 X0.96800 Y0.52800 ( rapid move to begin. )
G01 Z-0.01969 F1.96850 ( plunge. )
G04 P0 ( dwell for no time -- G64 should not smooth over this point )
X0.96800 Y0.52800
X0.96700 Y0.52800
X0.96700 Y0.52600
X0.96600 Y0.52600
X0.96600 Y0.52500
X0.96500 Y0.52500
X0.96500 Y0.52200
X0.96400 Y0.52200
X0.96400 Y0.51700
X0.96300 Y0.51700
X0.96300 Y0.48600
X0.96400 Y0.48600
X0.96400 Y0.48100
X0.96500 Y0.48100
X0.96500 Y0.47800
X0.96600 Y0.47800
X0.96600 Y0.47700
X0.96700 Y0.47700
X0.96700 Y0.47500
X0.96800 Y0.47500
X0.96800 Y0.47400
X0.96900 Y0.47400
X0.96900 Y0.47300
X0.97000 Y0.47300
X0.97000 Y0.47100
X0.97100 Y0.47100
X0.97100 Y0.47000
X0.97300 Y0.47000
X0.97300 Y0.46900
X0.97400 Y0.46900
X0.97400 Y0.46800
X0.97600 Y0.46800
X0.97600 Y0.46700
X0.97800 Y0.46700
X0.97800 Y0.46600
X0.97900 Y0.46600
X0.97900 Y0.46500
X0.98400 Y0.46500
X0.98400 Y0.46400
X1.01700 Y0.46400
X1.01700 Y0.46500
X1.02200 Y0.46500
X1.02200 Y0.46600
X1.02300 Y0.46600
X1.02300 Y0.46700
X1.02500 Y0.46700
X1.02500 Y0.46800
X1.02700 Y0.46800
X1.02700 Y0.46900
X1.02800 Y0.46900
X1.02800 Y0.47000
X1.03000 Y0.47000
X1.03000 Y0.47100
X1.03100 Y0.47100
X1.03100 Y0.47300
X1.03200 Y0.47300
X1.03200 Y0.47400
X1.03300 Y0.47400
X1.03300 Y0.47500
X1.03400 Y0.47500
X1.03400 Y0.47700
X1.03500 Y0.47700
X1.03500 Y0.47800
X1.03600 Y0.47800
X1.03600 Y0.48100
X1.03700 Y0.48100
X1.03700 Y0.48600
X1.03800 Y0.48600
X1.03800 Y0.51700
X1.03700 Y0.51700
X1.03700 Y0.52200
X1.03600 Y0.52200
X1.03600 Y0.52500
X1.03500 Y0.52500
X1.03500 Y0.52600
X1.03400 Y0.52600
X1.03400 Y0.52800
X1.03300 Y0.52800
X1.03300 Y0.52900
X1.03200 Y0.52900
X1.03200 Y0.53000
X1.03100 Y0.53000
X1.03100 Y0.53200
X1.03000 Y0.53200
X1.03000 Y0.53300
X1.02800 Y0.53300
X1.02800 Y0.53400
X1.02700 Y0.53400
X1.02700 Y0.53500
X1.02500 Y0.53500
X1.02500 Y0.53600
X1.02300 Y0.53600
X1.02300 Y0.53700
X1.02200 Y0.53700
X1.02200 Y0.53800
X1.01700 Y0.53800
X1.01700 Y0.53900
X0.98400 Y0.53900
X0.98400 Y0.53800
X0.97900 Y0.53800
X0.97900 Y0.53700
X0.97800 Y0.53700
X0.97800 Y0.53600
X0.97600 Y0.53600
X0.97600 Y0.53500
X0.97400 Y0.53500
X0.97400 Y0.53400
X0.97300 Y0.53400
X0.97300 Y0.53300
X0.97100 Y0.53300
X0.97100 Y0.53200
X0.97000 Y0.53200
X0.97000 Y0.53000
X0.96900 Y0.53000
X0.96900 Y0.52900
X0.96800 Y0.52900
X0.96800 Y0.52800
G04 P0 ( dwell for no time -- G64 should not smooth over this point )
G00 Z0.19685 ( retract )

G00 X1.76500 Y0.52600 ( rapid move to begin. )
G01 Z-0.01969 F1.96850 ( plunge. )
G04 P0 ( dwell for no time -- G64 should not smooth over this point )
X1.76500 Y0.52600
X1.76500 Y0.46600
X1.83600 Y0.46600
X1.83600 Y0.53700
X1.76500 Y0.53700
X1.76500 Y0.52600
G04 P0 ( dwell for no time -- G64 should not smooth over this point )
G00 Z0.19685 ( retract )

G00 X0.81700 Y0.48100 ( rapid move to begin. )
G01 Z-0.01969 F1.96850 ( plunge. )
G04 P0 ( dwell for no time -- G64 should not smooth over this point )
X0.81700 Y0.48100
X0.81600 Y0.48100
X0.81600 Y0.47900
X0.81500 Y0.47900
X0.81500 Y0.47800
X0.81400 Y0.47800
X0.81400 Y0.47600
X0.81300 Y0.47600
X0.81300 Y0.47500
X0.81200 Y0.47500
X0.81200 Y0.47000
X0.81100 Y0.47000
X0.81100 Y0.46500
X0.81000 Y0.46500
X0.81000 Y0.43800
X0.81100 Y0.43800
X0.81100 Y0.43300
X0.81200 Y0.43300
X0.81200 Y0.42800
X0.81300 Y0.42800
X0.81300 Y0.42700
X0.81400 Y0.42700
X0.81400 Y0.42500
X0.81500 Y0.42500
X0.81500 Y0.42400
X0.81600 Y0.42400
X0.81600 Y0.42200
X0.81700 Y0.42200
X0.81700 Y0.42100
X0.81800 Y0.42100
X0.81800 Y0.42000
X0.81900 Y0.42000
X0.81900 Y0.41800
X0.82100 Y0.41800
X0.82100 Y0.41700
X0.82300 Y0.41700
X0.82300 Y0.41600
X0.82400 Y0.41600
X0.82400 Y0.41500
X0.82600 Y0.41500
X0.82600 Y0.41400
X0.82800 Y0.41400
X0.82800 Y0.41300
X0.83100 Y0.41300
X0.83100 Y0.41200
X0.83700 Y0.41200
X0.83700 Y0.41100
X0.86400 Y0.41100
X0.86400 Y0.41200
X0.87000 Y0.41200
X0.87000 Y0.41300
X0.87300 Y0.41300
X0.87300 Y0.41400
X0.87500 Y0.41400
X0.87500 Y0.41500
X0.87700 Y0.41500
X0.87700 Y0.41600
X0.87800 Y0.41600
X0.87800 Y0.41700
X0.88000 Y0.41700
X0.88000 Y0.41800
X0.88200 Y0.41800
X0.88200 Y0.42000
X0.88300 Y0.42000
X0.88300 Y0.42100
X0.88400 Y0.42100
X0.88400 Y0.42200
X0.88500 Y0.42200
X0.88500 Y0.42400
X0.88600 Y0.42400
X0.88600 Y0.42500
X0.88700 Y0.42500
X0.88700 Y0.42700
X0.88800 Y0.42700
X0.88800 Y0.42800
X0.88900 Y0.42800
X0.88900 Y0.43300
X0.89000 Y0.43300
X0.89000 Y0.43800
X0.89100 Y0.43800
X0.89100 Y0.46500
X0.89000 Y0.46500
X0.89000 Y0.47000
X0.88900 Y0.47000
X0.88900 Y0.47500
X0.88800 Y0.47500
X0.88800 Y0.47600
X0.88700 Y0.47600
X0.88700 Y0.47800
X0.88600 Y0.47800
X0.88600 Y0.47900
X0.88500 Y0.47900
X0.88500 Y0.48100
X0.88400 Y0.48100
X0.88400 Y0.48200
X0.88300 Y0.48200
X0.88300 Y0.48300
X0.88200 Y0.48300
X0.88200 Y0.48500
X0.88000 Y0.48500
X0.88000 Y0.48600
X0.87800 Y0.48600
X0.87800 Y0.48700
X0.87600 Y0.48700
X0.87600 Y0.48800
X0.87500 Y0.48800
X0.87500 Y0.48900
X0.87300 Y0.48900
X0.87300 Y0.49000
X0.87000 Y0.49000
X0.87000 Y0.49100
X0.86400 Y0.49100
X0.86400 Y0.49200
X0.83700 Y0.49200
X0.83700 Y0.49100
X0.83100 Y0.49100
X0.83100 Y0.49000
X0.82800 Y0.49000
X0.82800 Y0.48900
X0.82600 Y0.48900
X0.82600 Y0.48800
X0.82500 Y0.48800
X0.82500 Y0.48700
X0.82300 Y0.48700
X0.82300 Y0.48600
X0.82100 Y0.48600
X0.82100 Y0.48500
X0.81900 Y0.48500
X0.81900 Y0.48300
X0.81800 Y0.48300
X0.81800 Y0.48200
X0.81700 Y0.48200
X0.81700 Y0.48100
G04 P0 ( dwell for no time -- G64 should not smooth over this point )
G00 Z0.19685 ( retract )

G00 X0.44200 Y0.48100 ( rapid move to begin. )
G01 Z-0.01969 F1.96850 ( plunge. )
G04 P0 ( dwell for no time -- G64 should not smooth over this point )
X0.44200 Y0.48100
X0.44100 Y0.48100
X0.44100 Y0.47900
X0.44000 Y0.47900
X0.44000 Y0.47800
X0.43900 Y0.47800
X0.43900 Y0.47600
X0.43800 Y0.47600
X0.43800 Y0.47500
X0.43700 Y0.47500
X0.43700 Y0.47000
X0.43600 Y0.47000
X0.43600 Y0.46500
X0.43500 Y0.46500
X0.43500 Y0.43800
X0.43600 Y0.43800
X0.43600 Y0.43300
X0.43700 Y0.43300
X0.43700 Y0.42800
X0.43800 Y0.42800
X0.43800 Y0.42700
X0.43900 Y0.42700
X0.43900 Y0.42500
X0.44000 Y0.42500
X0.44000 Y0.42400
X0.44100 Y0.42400
X0.44100 Y0.42200
X0.44200 Y0.42200
X0.44200 Y0.42100
X0.44300 Y0.42100
X0.44300 Y0.42000
X0.44400 Y0.42000
X0.44400 Y0.41800
X0.44600 Y0.41800
X0.44600 Y0.41700
X0.44800 Y0.41700
X0.44800 Y0.41600
X0.44900 Y0.41600
X0.44900 Y0.41500
X0.45100 Y0.41500
X0.45100 Y0.41400
X0.45300 Y0.41400
X0.45300 Y0.41300
X0.45600 Y0.41300
X0.45600 Y0.41200
X0.46200 Y0.41200
X0.46200 Y0.41100
X0.48900 Y0.41100
X0.48900 Y0.41200
X0.49500 Y0.41200
X0.49500 Y0.41300
X0.49800 Y0.41300
X0.49800 Y0.41400
X0.50000 Y0.41400
X0.50000 Y0.41500
X0.50200 Y0.41500
X0.50200 Y0.41600
X0.50300 Y0.41600
X0.50300 Y0.41700
X0.50500 Y0.41700
X0.50500 Y0.41800
X0.50700 Y0.41800
X0.50700 Y0.42000
X0.50800 Y0.42000
X0.50800 Y0.42100
X0.50900 Y0.42100
X0.50900 Y0.42200
X0.51000 Y0.42200
X0.51000 Y0.42400
X0.51100 Y0.42400
X0.51100 Y0.42500
X0.51200 Y0.42500
X0.51200 Y0.42700
X0.51300 Y0.42700
X0.51300 Y0.42800
X0.51400 Y0.42800
X0.51400 Y0.43300
X0.51500 Y0.43300
X0.51500 Y0.43800
X0.51600 Y0.43800
X0.51600 Y0.46500
X0.51500 Y0.46500
X0.51500 Y0.47000
X0.51400 Y0.47000
X0.51400 Y0.47500
X0.51300 Y0.47500
X0.51300 Y0.47600
X0.51200 Y0.47600
X0.51200 Y0.47800
X0.51100 Y0.47800
X0.51100 Y0.47900
X0.51000 Y0.47900
X0.51000 Y0.48100
X0.50900 Y0.48100
X0.50900 Y0.48200
X0.50800 Y0.48200
X0.50800 Y0.48300
X0.50700 Y0.48300
X0.50700 Y0.48500
X0.50500 Y0.48500
X0.50500 Y0.48600
X0.50300 Y0.48600
X0.50300 Y0.48700
X0.50100 Y0.48700
X0.50100 Y0.48800
X0.50000 Y0.48800
X0.50000 Y0.48900
X0.49800 Y0.48900
X0.49800 Y0.49000
X0.49500 Y0.49000
X0.49500 Y0.49100
X0.48900 Y0.49100
X0.48900 Y0.49200
X0.46200 Y0.49200
X0.46200 Y0.49100
X0.45600 Y0.49100
X0.45600 Y0.49000
X0.45300 Y0.49000
X0.45300 Y0.48900
X0.45100 Y0.48900
X0.45100 Y0.48800
X0.45000 Y0.48800
X0.45000 Y0.48700
X0.44800 Y0.48700
X0.44800 Y0.48600
X0.44600 Y0.48600
X0.44600 Y0.48500
X0.44400 Y0.48500
X0.44400 Y0.48300
X0.44300 Y0.48300
X0.44300 Y0.48200
X0.44200 Y0.48200
X0.44200 Y0.48100
G04 P0 ( dwell for no time -- G64 should not smooth over this point )
G00 Z0.19685 ( retract )

G00 X0.61400 Y0.43700 ( rapid move to begin. )
G01 Z-0.01969 F1.96850 ( plunge. )
G04 P0 ( dwell for no time -- G64 should not smooth over this point )
X0.61400 Y0.43700
X0.61300 Y0.43700
X0.61300 Y0.43600
X0.61200 Y0.43600
X0.61200 Y0.43500
X0.61100 Y0.43500
X0.61100 Y0.43400
X0.61000 Y0.43400
X0.61000 Y0.43200
X0.60900 Y0.43200
X0.60900 Y0.43000
X0.60800 Y0.43000
X0.60800 Y0.42800
X0.60700 Y0.42800
X0.60700 Y0.42600
X0.60600 Y0.42600
X0.60600 Y0.42300
X0.60500 Y0.42300
X0.60500 Y0.41700
X0.60400 Y0.41700
X0.60400 Y0.38600
X0.60500 Y0.38600
X0.60500 Y0.38000
X0.60600 Y0.38000
X0.60600 Y0.37700
X0.60700 Y0.37700
X0.60700 Y0.37500
X0.60800 Y0.37500
X0.60800 Y0.37300
X0.60900 Y0.37300
X0.60900 Y0.37100
X0.61000 Y0.37100
X0.61000 Y0.36900
X0.61100 Y0.36900
X0.61100 Y0.36800
X0.61200 Y0.36800
X0.61200 Y0.36700
X0.61300 Y0.36700
X0.61300 Y0.36600
X0.61400 Y0.36600
X0.61400 Y0.36500
X0.61500 Y0.36500
X0.61500 Y0.36400
X0.61600 Y0.36400
X0.61600 Y0.36300
X0.61800 Y0.36300
X0.61800 Y0.36200
X0.62000 Y0.36200
X0.62000 Y0.36100
X0.62100 Y0.36100
X0.62100 Y0.36000
X0.62300 Y0.36000
X0.62300 Y0.35900
X0.62500 Y0.35900
X0.62500 Y0.35800
X0.62600 Y0.35800
X0.62600 Y0.35700
X0.63100 Y0.35700
X0.63100 Y0.35600
X0.63700 Y0.35600
X0.63700 Y0.35500
X0.66400 Y0.35500
X0.66400 Y0.35600
X0.67000 Y0.35600
X0.67000 Y0.35700
X0.67500 Y0.35700
X0.67500 Y0.35800
X0.67600 Y0.35800
X0.67600 Y0.35900
X0.67800 Y0.35900
X0.67800 Y0.36000
X0.68000 Y0.36000
X0.68000 Y0.36100
X0.68100 Y0.36100
X0.68100 Y0.36200
X0.68300 Y0.36200
X0.68300 Y0.36300
X0.68500 Y0.36300
X0.68500 Y0.36400
X0.68600 Y0.36400
X0.68600 Y0.36500
X0.68700 Y0.36500
X0.68700 Y0.36600
X0.68800 Y0.36600
X0.68800 Y0.36700
X0.68900 Y0.36700
X0.68900 Y0.36800
X0.69000 Y0.36800
X0.69000 Y0.36900
X0.69100 Y0.36900
X0.69100 Y0.37100
X0.69200 Y0.37100
X0.69200 Y0.37300
X0.69300 Y0.37300
X0.69300 Y0.37500
X0.69400 Y0.37500
X0.69400 Y0.37700
X0.69500 Y0.37700
X0.69500 Y0.38000
X0.69600 Y0.38000
X0.69600 Y0.38600
X0.69700 Y0.38600
X0.69700 Y0.41700
X0.69600 Y0.41700
X0.69600 Y0.42300
X0.69500 Y0.42300
X0.69500 Y0.42600
X0.69400 Y0.42600
X0.69400 Y0.42800
X0.69300 Y0.42800
X0.69300 Y0.43000
X0.69200 Y0.43000
X0.69200 Y0.43200
X0.69100 Y0.43200
X0.69100 Y0.43400
X0.69000 Y0.43400
X0.69000 Y0.43500
X0.68900 Y0.43500
X0.68900 Y0.43600
X0.68800 Y0.43600
X0.68800 Y0.43700
X0.68700 Y0.43700
X0.68700 Y0.43800
X0.68600 Y0.43800
X0.68600 Y0.43900
X0.68500 Y0.43900
X0.68500 Y0.44000
X0.68300 Y0.44000
X0.68300 Y0.44100
X0.68100 Y0.44100
X0.68100 Y0.44200
X0.68000 Y0.44200
X0.68000 Y0.44300
X0.67800 Y0.44300
X0.67800 Y0.44400
X0.67600 Y0.44400
X0.67600 Y0.44500
X0.67500 Y0.44500
X0.67500 Y0.44600
X0.67000 Y0.44600
X0.67000 Y0.44700
X0.66400 Y0.44700
X0.66400 Y0.44800
X0.63700 Y0.44800
X0.63700 Y0.44700
X0.63100 Y0.44700
X0.63100 Y0.44600
X0.62600 Y0.44600
X0.62600 Y0.44500
X0.62500 Y0.44500
X0.62500 Y0.44400
X0.62300 Y0.44400
X0.62300 Y0.44300
X0.62100 Y0.44300
X0.62100 Y0.44200
X0.62000 Y0.44200
X0.62000 Y0.44100
X0.61800 Y0.44100
X0.61800 Y0.44000
X0.61600 Y0.44000
X0.61600 Y0.43900
X0.61500 Y0.43900
X0.61500 Y0.43800
X0.61400 Y0.43800
X0.61400 Y0.43700
G04 P0 ( dwell for no time -- G64 should not smooth over this point )
G00 Z0.19685 ( retract )

G00 X2.56700 Y0.43100 ( rapid move to begin. )
G01 Z-0.01969 F1.96850 ( plunge. )
G04 P0 ( dwell for no time -- G64 should not smooth over this point )
X2.56700 Y0.43100
X2.56600 Y0.43100
X2.56600 Y0.42900
X2.56500 Y0.42900
X2.56500 Y0.42800
X2.56400 Y0.42800
X2.56400 Y0.42600
X2.56300 Y0.42600
X2.56300 Y0.42500
X2.56200 Y0.42500
X2.56200 Y0.42000
X2.56100 Y0.42000
X2.56100 Y0.41500
X2.56000 Y0.41500
X2.56000 Y0.38800
X2.56100 Y0.38800
X2.56100 Y0.38300
X2.56200 Y0.38300
X2.56200 Y0.37800
X2.56300 Y0.37800
X2.56300 Y0.37700
X2.56400 Y0.37700
X2.56400 Y0.37500
X2.56500 Y0.37500
X2.56500 Y0.37400
X2.56600 Y0.37400
X2.56600 Y0.37200
X2.56700 Y0.37200
X2.56700 Y0.37100
X2.56800 Y0.37100
X2.56800 Y0.37000
X2.56900 Y0.37000
X2.56900 Y0.36800
X2.57100 Y0.36800
X2.57100 Y0.36700
X2.57300 Y0.36700
X2.57300 Y0.36600
X2.57400 Y0.36600
X2.57400 Y0.36500
X2.57600 Y0.36500
X2.57600 Y0.36400
X2.57800 Y0.36400
X2.57800 Y0.36300
X2.58100 Y0.36300
X2.58100 Y0.36200
X2.58700 Y0.36200
X2.58700 Y0.36100
X2.61400 Y0.36100
X2.61400 Y0.36200
X2.62000 Y0.36200
X2.62000 Y0.36300
X2.62300 Y0.36300
X2.62300 Y0.36400
X2.62500 Y0.36400
X2.62500 Y0.36500
X2.62700 Y0.36500
X2.62700 Y0.36600
X2.62800 Y0.36600
X2.62800 Y0.36700
X2.63000 Y0.36700
X2.63000 Y0.36800
X2.63200 Y0.36800
X2.63200 Y0.37000
X2.63300 Y0.37000
X2.63300 Y0.37100
X2.63400 Y0.37100
X2.63400 Y0.37200
X2.63500 Y0.37200
X2.63500 Y0.37400
X2.63600 Y0.37400
X2.63600 Y0.37500
X2.63700 Y0.37500
X2.63700 Y0.37700
X2.63800 Y0.37700
X2.63800 Y0.37800
X2.63900 Y0.37800
X2.63900 Y0.38300
X2.64000 Y0.38300
X2.64000 Y0.38800
X2.64100 Y0.38800
X2.64100 Y0.41500
X2.64000 Y0.41500
X2.64000 Y0.42000
X2.63900 Y0.42000
X2.63900 Y0.42500
X2.63800 Y0.42500
X2.63800 Y0.42600
X2.63700 Y0.42600
X2.63700 Y0.42800
X2.63600 Y0.42800
X2.63600 Y0.42900
X2.63500 Y0.42900
X2.63500 Y0.43100
X2.63400 Y0.43100
X2.63400 Y0.43200
X2.63300 Y0.43200
X2.63300 Y0.43300
X2.63200 Y0.43300
X2.63200 Y0.43500
X2.63000 Y0.43500
X2.63000 Y0.43600
X2.62800 Y0.43600
X2.62800 Y0.43700
X2.62600 Y0.43700
X2.62600 Y0.43800
X2.62500 Y0.43800
X2.62500 Y0.43900
X2.62300 Y0.43900
X2.62300 Y0.44000
X2.62000 Y0.44000
X2.62000 Y0.44100
X2.61400 Y0.44100
X2.61400 Y0.44200
X2.58700 Y0.44200
X2.58700 Y0.44100
X2.58100 Y0.44100
X2.58100 Y0.44000
X2.57800 Y0.44000
X2.57800 Y0.43900
X2.57600 Y0.43900
X2.57600 Y0.43800
X2.57500 Y0.43800
X2.57500 Y0.43700
X2.57300 Y0.43700
X2.57300 Y0.43600
X2.57100 Y0.43600
X2.57100 Y0.43500
X2.56900 Y0.43500
X2.56900 Y0.43300
X2.56800 Y0.43300
X2.56800 Y0.43200
X2.56700 Y0.43200
X2.56700 Y0.43100
G04 P0 ( dwell for no time -- G64 should not smooth over this point )
G00 Z0.19685 ( retract )

G00 X2.06700 Y0.43100 ( rapid move to begin. )
G01 Z-0.01969 F1.96850 ( plunge. )
G04 P0 ( dwell for no time -- G64 should not smooth over this point )
X2.06700 Y0.43100
X2.06600 Y0.43100
X2.06600 Y0.42900
X2.06500 Y0.42900
X2.06500 Y0.42800
X2.06400 Y0.42800
X2.06400 Y0.42600
X2.06300 Y0.42600
X2.06300 Y0.42500
X2.06200 Y0.42500
X2.06200 Y0.42000
X2.06100 Y0.42000
X2.06100 Y0.41500
X2.06000 Y0.41500
X2.06000 Y0.38800
X2.06100 Y0.38800
X2.06100 Y0.38300
X2.06200 Y0.38300
X2.06200 Y0.37800
X2.06300 Y0.37800
X2.06300 Y0.37700
X2.06400 Y0.37700
X2.06400 Y0.37500
X2.06500 Y0.37500
X2.06500 Y0.37400
X2.06600 Y0.37400
X2.06600 Y0.37200
X2.06700 Y0.37200
X2.06700 Y0.37100
X2.06800 Y0.37100
X2.06800 Y0.37000
X2.06900 Y0.37000
X2.06900 Y0.36800
X2.07100 Y0.36800
X2.07100 Y0.36700
X2.07300 Y0.36700
X2.07300 Y0.36600
X2.07400 Y0.36600
X2.07400 Y0.36500
X2.07600 Y0.36500
X2.07600 Y0.36400
X2.07800 Y0.36400
X2.07800 Y0.36300
X2.08100 Y0.36300
X2.08100 Y0.36200
X2.08700 Y0.36200
X2.08700 Y0.36100
X2.11400 Y0.36100
X2.11400 Y0.36200
X2.12000 Y0.36200
X2.12000 Y0.36300
X2.12300 Y0.36300
X2.12300 Y0.36400
X2.12500 Y0.36400
X2.12500 Y0.36500
X2.12700 Y0.36500
X2.12700 Y0.36600
X2.12800 Y0.36600
X2.12800 Y0.36700
X2.13000 Y0.36700
X2.13000 Y0.36800
X2.13200 Y0.36800
X2.13200 Y0.37000
X2.13300 Y0.37000
X2.13300 Y0.37100
X2.13400 Y0.37100
X2.13400 Y0.37200
X2.13500 Y0.37200
X2.13500 Y0.37400
X2.13600 Y0.37400
X2.13600 Y0.37500
X2.13700 Y0.37500
X2.13700 Y0.37700
X2.13800 Y0.37700
X2.13800 Y0.37800
X2.13900 Y0.37800
X2.13900 Y0.38300
X2.14000 Y0.38300
X2.14000 Y0.38800
X2.14100 Y0.38800
X2.14100 Y0.41500
X2.14000 Y0.41500
X2.14000 Y0.42000
X2.13900 Y0.42000
X2.13900 Y0.42500
X2.13800 Y0.42500
X2.13800 Y0.42600
X2.13700 Y0.42600
X2.13700 Y0.42800
X2.13600 Y0.42800
X2.13600 Y0.42900
X2.13500 Y0.42900
X2.13500 Y0.43100
X2.13400 Y0.43100
X2.13400 Y0.43200
X2.13300 Y0.43200
X2.13300 Y0.43300
X2.13200 Y0.43300
X2.13200 Y0.43500
X2.13000 Y0.43500
X2.13000 Y0.43600
X2.12800 Y0.43600
X2.12800 Y0.43700
X2.12600 Y0.43700
X2.12600 Y0.43800
X2.12500 Y0.43800
X2.12500 Y0.43900
X2.12300 Y0.43900
X2.12300 Y0.44000
X2.12000 Y0.44000
X2.12000 Y0.44100
X2.11400 Y0.44100
X2.11400 Y0.44200
X2.08700 Y0.44200
X2.08700 Y0.44100
X2.08100 Y0.44100
X2.08100 Y0.44000
X2.07800 Y0.44000
X2.07800 Y0.43900
X2.07600 Y0.43900
X2.07600 Y0.43800
X2.07500 Y0.43800
X2.07500 Y0.43700
X2.07300 Y0.43700
X2.07300 Y0.43600
X2.07100 Y0.43600
X2.07100 Y0.43500
X2.06900 Y0.43500
X2.06900 Y0.43300
X2.06800 Y0.43300
X2.06800 Y0.43200
X2.06700 Y0.43200
X2.06700 Y0.43100
G04 P0 ( dwell for no time -- G64 should not smooth over this point )
G00 Z0.19685 ( retract )

G00 X0.26700 Y0.43100 ( rapid move to begin. )
G01 Z-0.01969 F1.96850 ( plunge. )
G04 P0 ( dwell for no time -- G64 should not smooth over this point )
X0.26700 Y0.43100
X0.26600 Y0.43100
X0.26600 Y0.42900
X0.26500 Y0.42900
X0.26500 Y0.42800
X0.26400 Y0.42800
X0.26400 Y0.42600
X0.26300 Y0.42600
X0.26300 Y0.42500
X0.26200 Y0.42500
X0.26200 Y0.42000
X0.26100 Y0.42000
X0.26100 Y0.41500
X0.26000 Y0.41500
X0.26000 Y0.38800
X0.26100 Y0.38800
X0.26100 Y0.38300
X0.26200 Y0.38300
X0.26200 Y0.37800
X0.26300 Y0.37800
X0.26300 Y0.37700
X0.26400 Y0.37700
X0.26400 Y0.37500
X0.26500 Y0.37500
X0.26500 Y0.37400
X0.26600 Y0.37400
X0.26600 Y0.37200
X0.26700 Y0.37200
X0.26700 Y0.37100
X0.26800 Y0.37100
X0.26800 Y0.37000
X0.26900 Y0.37000
X0.26900 Y0.36800
X0.27100 Y0.36800
X0.27100 Y0.36700
X0.27300 Y0.36700
X0.27300 Y0.36600
X0.27400 Y0.36600
X0.27400 Y0.36500
X0.27600 Y0.36500
X0.27600 Y0.36400
X0.27800 Y0.36400
X0.27800 Y0.36300
X0.28100 Y0.36300
X0.28100 Y0.36200
X0.28700 Y0.36200
X0.28700 Y0.36100
X0.31400 Y0.36100
X0.31400 Y0.36200
X0.32000 Y0.36200
X0.32000 Y0.36300
X0.32300 Y0.36300
X0.32300 Y0.36400
X0.32500 Y0.36400
X0.32500 Y0.36500
X0.32700 Y0.36500
X0.32700 Y0.36600
X0.32800 Y0.36600
X0.32800 Y0.36700
X0.33000 Y0.36700
X0.33000 Y0.36800
X0.33200 Y0.36800
X0.33200 Y0.37000
X0.33300 Y0.37000
X0.33300 Y0.37100
X0.33400 Y0.37100
X0.33400 Y0.37200
X0.33500 Y0.37200
X0.33500 Y0.37400
X0.33600 Y0.37400
X0.33600 Y0.37500
X0.33700 Y0.37500
X0.33700 Y0.37700
X0.33800 Y0.37700
X0.33800 Y0.37800
X0.33900 Y0.37800
X0.33900 Y0.38300
X0.34000 Y0.38300
X0.34000 Y0.38800
X0.34100 Y0.38800
X0.34100 Y0.41500
X0.34000 Y0.41500
X0.34000 Y0.42000
X0.33900 Y0.42000
X0.33900 Y0.42500
X0.33800 Y0.42500
X0.33800 Y0.42600
X0.33700 Y0.42600
X0.33700 Y0.42800
X0.33600 Y0.42800
X0.33600 Y0.42900
X0.33500 Y0.42900
X0.33500 Y0.43100
X0.33400 Y0.43100
X0.33400 Y0.43200
X0.33300 Y0.43200
X0.33300 Y0.43300
X0.33200 Y0.43300
X0.33200 Y0.43500
X0.33000 Y0.43500
X0.33000 Y0.43600
X0.32800 Y0.43600
X0.32800 Y0.43700
X0.32600 Y0.43700
X0.32600 Y0.43800
X0.32500 Y0.43800
X0.32500 Y0.43900
X0.32300 Y0.43900
X0.32300 Y0.44000
X0.32000 Y0.44000
X0.32000 Y0.44100
X0.31400 Y0.44100
X0.31400 Y0.44200
X0.28700 Y0.44200
X0.28700 Y0.44100
X0.28100 Y0.44100
X0.28100 Y0.44000
X0.27800 Y0.44000
X0.27800 Y0.43900
X0.27600 Y0.43900
X0.27600 Y0.43800
X0.27500 Y0.43800
X0.27500 Y0.43700
X0.27300 Y0.43700
X0.27300 Y0.43600
X0.27100 Y0.43600
X0.27100 Y0.43500
X0.26900 Y0.43500
X0.26900 Y0.43300
X0.26800 Y0.43300
X0.26800 Y0.43200
X0.26700 Y0.43200
X0.26700 Y0.43100
G04 P0 ( dwell for no time -- G64 should not smooth over this point )
G00 Z0.19685 ( retract )

G00 X1.66300 Y0.42800 ( rapid move to begin. )
G01 Z-0.01969 F1.96850 ( plunge. )
G04 P0 ( dwell for no time -- G64 should not smooth over this point )
X1.66300 Y0.42800
X1.66300 Y0.36300
X1.73900 Y0.36300
X1.73900 Y0.43900
X1.66300 Y0.43900
X1.66300 Y0.42800
G04 P0 ( dwell for no time -- G64 should not smooth over this point )
G00 Z0.19685 ( retract )

G00 X1.26800 Y0.42800 ( rapid move to begin. )
G01 Z-0.01969 F1.96850 ( plunge. )
G04 P0 ( dwell for no time -- G64 should not smooth over this point )
X1.26800 Y0.42800
X1.26700 Y0.42800
X1.26700 Y0.42600
X1.26600 Y0.42600
X1.26600 Y0.42500
X1.26500 Y0.42500
X1.26500 Y0.42200
X1.26400 Y0.42200
X1.26400 Y0.41700
X1.26300 Y0.41700
X1.26300 Y0.38600
X1.26400 Y0.38600
X1.26400 Y0.38100
X1.26500 Y0.38100
X1.26500 Y0.37800
X1.26600 Y0.37800
X1.26600 Y0.37700
X1.26700 Y0.37700
X1.26700 Y0.37500
X1.26800 Y0.37500
X1.26800 Y0.37400
X1.26900 Y0.37400
X1.26900 Y0.37300
X1.27000 Y0.37300
X1.27000 Y0.37100
X1.27100 Y0.37100
X1.27100 Y0.37000
X1.27300 Y0.37000
X1.27300 Y0.36900
X1.27400 Y0.36900
X1.27400 Y0.36800
X1.27600 Y0.36800
X1.27600 Y0.36700
X1.27800 Y0.36700
X1.27800 Y0.36600
X1.27900 Y0.36600
X1.27900 Y0.36500
X1.28400 Y0.36500
X1.28400 Y0.36400
X1.31700 Y0.36400
X1.31700 Y0.36500
X1.32200 Y0.36500
X1.32200 Y0.36600
X1.32300 Y0.36600
X1.32300 Y0.36700
X1.32500 Y0.36700
X1.32500 Y0.36800
X1.32700 Y0.36800
X1.32700 Y0.36900
X1.32800 Y0.36900
X1.32800 Y0.37000
X1.33000 Y0.37000
X1.33000 Y0.37100
X1.33100 Y0.37100
X1.33100 Y0.37300
X1.33200 Y0.37300
X1.33200 Y0.37400
X1.33300 Y0.37400
X1.33300 Y0.37500
X1.33400 Y0.37500
X1.33400 Y0.37700
X1.33500 Y0.37700
X1.33500 Y0.37800
X1.33600 Y0.37800
X1.33600 Y0.38100
X1.33700 Y0.38100
X1.33700 Y0.38600
X1.33800 Y0.38600
X1.33800 Y0.41700
X1.33700 Y0.41700
X1.33700 Y0.42200
X1.33600 Y0.42200
X1.33600 Y0.42500
X1.33500 Y0.42500
X1.33500 Y0.42600
X1.33400 Y0.42600
X1.33400 Y0.42800
X1.33300 Y0.42800
X1.33300 Y0.42900
X1.33200 Y0.42900
X1.33200 Y0.43000
X1.33100 Y0.43000
X1.33100 Y0.43200
X1.33000 Y0.43200
X1.33000 Y0.43300
X1.32800 Y0.43300
X1.32800 Y0.43400
X1.32700 Y0.43400
X1.32700 Y0.43500
X1.32500 Y0.43500
X1.32500 Y0.43600
X1.32300 Y0.43600
X1.32300 Y0.43700
X1.32200 Y0.43700
X1.32200 Y0.43800
X1.31700 Y0.43800
X1.31700 Y0.43900
X1.28400 Y0.43900
X1.28400 Y0.43800
X1.27900 Y0.43800
X1.27900 Y0.43700
X1.27800 Y0.43700
X1.27800 Y0.43600
X1.27600 Y0.43600
X1.27600 Y0.43500
X1.27400 Y0.43500
X1.27400 Y0.43400
X1.27300 Y0.43400
X1.27300 Y0.43300
X1.27100 Y0.43300
X1.27100 Y0.43200
X1.27000 Y0.43200
X1.27000 Y0.43000
X1.26900 Y0.43000
X1.26900 Y0.42900
X1.26800 Y0.42900
X1.26800 Y0.42800
G04 P0 ( dwell for no time -- G64 should not smooth over this point )
G00 Z0.19685 ( retract )

G00 X0.61400 Y0.33700 ( rapid move to begin. )
G01 Z-0.01969 F1.96850 ( plunge. )
G04 P0 ( dwell for no time -- G64 should not smooth over this point )
X0.61400 Y0.33700
X0.61300 Y0.33700
X0.61300 Y0.33600
X0.61200 Y0.33600
X0.61200 Y0.33500
X0.61100 Y0.33500
X0.61100 Y0.33400
X0.61000 Y0.33400
X0.61000 Y0.33200
X0.60900 Y0.33200
X0.60900 Y0.33000
X0.60800 Y0.33000
X0.60800 Y0.32800
X0.60700 Y0.32800
X0.60700 Y0.32600
X0.60600 Y0.32600
X0.60600 Y0.32300
X0.60500 Y0.32300
X0.60500 Y0.31700
X0.60400 Y0.31700
X0.60400 Y0.28600
X0.60500 Y0.28600
X0.60500 Y0.28000
X0.60600 Y0.28000
X0.60600 Y0.27700
X0.60700 Y0.27700
X0.60700 Y0.27500
X0.60800 Y0.27500
X0.60800 Y0.27300
X0.60900 Y0.27300
X0.60900 Y0.27100
X0.61000 Y0.27100
X0.61000 Y0.26900
X0.61100 Y0.26900
X0.61100 Y0.26800
X0.61200 Y0.26800
X0.61200 Y0.26700
X0.61300 Y0.26700
X0.61300 Y0.26600
X0.61400 Y0.26600
X0.61400 Y0.26500
X0.61500 Y0.26500
X0.61500 Y0.26400
X0.61600 Y0.26400
X0.61600 Y0.26300
X0.61800 Y0.26300
X0.61800 Y0.26200
X0.62000 Y0.26200
X0.62000 Y0.26100
X0.62100 Y0.26100
X0.62100 Y0.26000
X0.62300 Y0.26000
X0.62300 Y0.25900
X0.62500 Y0.25900
X0.62500 Y0.25800
X0.62600 Y0.25800
X0.62600 Y0.25700
X0.63100 Y0.25700
X0.63100 Y0.25600
X0.63700 Y0.25600
X0.63700 Y0.25500
X0.66400 Y0.25500
X0.66400 Y0.25600
X0.67000 Y0.25600
X0.67000 Y0.25700
X0.67500 Y0.25700
X0.67500 Y0.25800
X0.67600 Y0.25800
X0.67600 Y0.25900
X0.67800 Y0.25900
X0.67800 Y0.26000
X0.68000 Y0.26000
X0.68000 Y0.26100
X0.68100 Y0.26100
X0.68100 Y0.26200
X0.68300 Y0.26200
X0.68300 Y0.26300
X0.68500 Y0.26300
X0.68500 Y0.26400
X0.68600 Y0.26400
X0.68600 Y0.26500
X0.68700 Y0.26500
X0.68700 Y0.26600
X0.68800 Y0.26600
X0.68800 Y0.26700
X0.68900 Y0.26700
X0.68900 Y0.26800
X0.69000 Y0.26800
X0.69000 Y0.26900
X0.69100 Y0.26900
X0.69100 Y0.27100
X0.69200 Y0.27100
X0.69200 Y0.27300
X0.69300 Y0.27300
X0.69300 Y0.27500
X0.69400 Y0.27500
X0.69400 Y0.27700
X0.69500 Y0.27700
X0.69500 Y0.28000
X0.69600 Y0.28000
X0.69600 Y0.28600
X0.69700 Y0.28600
X0.69700 Y0.31700
X0.69600 Y0.31700
X0.69600 Y0.32300
X0.69500 Y0.32300
X0.69500 Y0.32600
X0.69400 Y0.32600
X0.69400 Y0.32800
X0.69300 Y0.32800
X0.69300 Y0.33000
X0.69200 Y0.33000
X0.69200 Y0.33200
X0.69100 Y0.33200
X0.69100 Y0.33400
X0.69000 Y0.33400
X0.69000 Y0.33500
X0.68900 Y0.33500
X0.68900 Y0.33600
X0.68800 Y0.33600
X0.68800 Y0.33700
X0.68700 Y0.33700
X0.68700 Y0.33800
X0.68600 Y0.33800
X0.68600 Y0.33900
X0.68500 Y0.33900
X0.68500 Y0.34000
X0.68300 Y0.34000
X0.68300 Y0.34100
X0.68100 Y0.34100
X0.68100 Y0.34200
X0.68000 Y0.34200
X0.68000 Y0.34300
X0.67800 Y0.34300
X0.67800 Y0.34400
X0.67600 Y0.34400
X0.67600 Y0.34500
X0.67500 Y0.34500
X0.67500 Y0.34600
X0.67000 Y0.34600
X0.67000 Y0.34700
X0.66400 Y0.34700
X0.66400 Y0.34800
X0.63700 Y0.34800
X0.63700 Y0.34700
X0.63100 Y0.34700
X0.63100 Y0.34600
X0.62600 Y0.34600
X0.62600 Y0.34500
X0.62500 Y0.34500
X0.62500 Y0.34400
X0.62300 Y0.34400
X0.62300 Y0.34300
X0.62100 Y0.34300
X0.62100 Y0.34200
X0.62000 Y0.34200
X0.62000 Y0.34100
X0.61800 Y0.34100
X0.61800 Y0.34000
X0.61600 Y0.34000
X0.61600 Y0.33900
X0.61500 Y0.33900
X0.61500 Y0.33800
X0.61400 Y0.33800
X0.61400 Y0.33700
G04 P0 ( dwell for no time -- G64 should not smooth over this point )
G00 Z0.19685 ( retract )

G00 X2.56000 Y0.33100 ( rapid move to begin. )
G01 Z-0.01969 F1.96850 ( plunge. )
G04 P0 ( dwell for no time -- G64 should not smooth over this point )
X2.56000 Y0.33100
X2.56000 Y0.26100
X2.64100 Y0.26100
X2.64100 Y0.34200
X2.56000 Y0.34200
X2.56000 Y0.33100
G04 P0 ( dwell for no time -- G64 should not smooth over this point )
G00 Z0.19685 ( retract )

G00 X2.06000 Y0.33100 ( rapid move to begin. )
G01 Z-0.01969 F1.96850 ( plunge. )
G04 P0 ( dwell for no time -- G64 should not smooth over this point )
X2.06000 Y0.33100
X2.06000 Y0.26100
X2.14100 Y0.26100
X2.14100 Y0.34200
X2.06000 Y0.34200
X2.06000 Y0.33100
G04 P0 ( dwell for no time -- G64 should not smooth over this point )
G00 Z0.19685 ( retract )

G00 X0.26000 Y0.33100 ( rapid move to begin. )
G01 Z-0.01969 F1.96850 ( plunge. )
G04 P0 ( dwell for no time -- G64 should not smooth over this point )
X0.26000 Y0.33100
X0.26000 Y0.26100
X0.34100 Y0.26100
X0.34100 Y0.34200
X0.26000 Y0.34200
X0.26000 Y0.33100
G04 P0 ( dwell for no time -- G64 should not smooth over this point )
G00 Z0.19685 ( retract )

G00 X1.67000 Y0.32600 ( rapid move to begin. )
G01 Z-0.01969 F1.96850 ( plunge. )
G04 P0 ( dwell for no time -- G64 should not smooth over this point )
X1.67000 Y0.32600
X1.66900 Y0.32600
X1.66900 Y0.32500
X1.66800 Y0.32500
X1.66800 Y0.32300
X1.66700 Y0.32300
X1.66700 Y0.32000
X1.66600 Y0.32000
X1.66600 Y0.31500
X1.66500 Y0.31500
X1.66500 Y0.28800
X1.66600 Y0.28800
X1.66600 Y0.28300
X1.66700 Y0.28300
X1.66700 Y0.28000
X1.66800 Y0.28000
X1.66800 Y0.27800
X1.66900 Y0.27800
X1.66900 Y0.27700
X1.67000 Y0.27700
X1.67000 Y0.27500
X1.67100 Y0.27500
X1.67100 Y0.27400
X1.67200 Y0.27400
X1.67200 Y0.27300
X1.67300 Y0.27300
X1.67300 Y0.27200
X1.67400 Y0.27200
X1.67400 Y0.27100
X1.67600 Y0.27100
X1.67600 Y0.27000
X1.67800 Y0.27000
X1.67800 Y0.26900
X1.67900 Y0.26900
X1.67900 Y0.26800
X1.68100 Y0.26800
X1.68100 Y0.26700
X1.68700 Y0.26700
X1.68700 Y0.26600
X1.71400 Y0.26600
X1.71400 Y0.26700
X1.72000 Y0.26700
X1.72000 Y0.26800
X1.72200 Y0.26800
X1.72200 Y0.26900
X1.72300 Y0.26900
X1.72300 Y0.27000
X1.72500 Y0.27000
X1.72500 Y0.27100
X1.72700 Y0.27100
X1.72700 Y0.27200
X1.72800 Y0.27200
X1.72800 Y0.27300
X1.72900 Y0.27300
X1.72900 Y0.27400
X1.73000 Y0.27400
X1.73000 Y0.27500
X1.73100 Y0.27500
X1.73100 Y0.27700
X1.73200 Y0.27700
X1.73200 Y0.27800
X1.73300 Y0.27800
X1.73300 Y0.28000
X1.73400 Y0.28000
X1.73400 Y0.28300
X1.73500 Y0.28300
X1.73500 Y0.28800
X1.73600 Y0.28800
X1.73600 Y0.31500
X1.73500 Y0.31500
X1.73500 Y0.32000
X1.73400 Y0.32000
X1.73400 Y0.32300
X1.73300 Y0.32300
X1.73300 Y0.32500
X1.73200 Y0.32500
X1.73200 Y0.32600
X1.73100 Y0.32600
X1.73100 Y0.32800
X1.73000 Y0.32800
X1.73000 Y0.32900
X1.72900 Y0.32900
X1.72900 Y0.33000
X1.72800 Y0.33000
X1.72800 Y0.33100
X1.72700 Y0.33100
X1.72700 Y0.33200
X1.72500 Y0.33200
X1.72500 Y0.33300
X1.72300 Y0.33300
X1.72300 Y0.33400
X1.72200 Y0.33400
X1.72200 Y0.33500
X1.72000 Y0.33500
X1.72000 Y0.33600
X1.71400 Y0.33600
X1.71400 Y0.33700
X1.68700 Y0.33700
X1.68700 Y0.33600
X1.68100 Y0.33600
X1.68100 Y0.33500
X1.67900 Y0.33500
X1.67900 Y0.33400
X1.67800 Y0.33400
X1.67800 Y0.33300
X1.67600 Y0.33300
X1.67600 Y0.33200
X1.67400 Y0.33200
X1.67400 Y0.33100
X1.67300 Y0.33100
X1.67300 Y0.33000
X1.67200 Y0.33000
X1.67200 Y0.32900
X1.67100 Y0.32900
X1.67100 Y0.32800
X1.67000 Y0.32800
X1.67000 Y0.32600
G04 P0 ( dwell for no time -- G64 should not smooth over this point )
G00 Z0.19685 ( retract )

G00 X1.36500 Y0.32600 ( rapid move to begin. )
G01 Z-0.01969 F1.96850 ( plunge. )
G04 P0 ( dwell for no time -- G64 should not smooth over this point )
X1.36500 Y0.32600
X1.36500 Y0.26600
X1.43600 Y0.26600
X1.43600 Y0.33700
X1.36500 Y0.33700
X1.36500 Y0.32600
G04 P0 ( dwell for no time -- G64 should not smooth over this point )
G00 Z0.19685 ( retract )

G00 X0.60400 Y0.23700 ( rapid move to begin. )
G01 Z-0.01969 F1.96850 ( plunge. )
G04 P0 ( dwell for no time -- G64 should not smooth over this point )
X0.60400 Y0.23700
X0.60400 Y0.15500
X0.69700 Y0.15500
X0.69700 Y0.24800
X0.60400 Y0.24800
X0.60400 Y0.23700
G04 P0 ( dwell for no time -- G64 should not smooth over this point )
G00 Z0.19685 ( retract )

G00 X1.86300 Y0.22800 ( rapid move to begin. )
G01 Z-0.01969 F1.96850 ( plunge. )
G04 P0 ( dwell for no time -- G64 should not smooth over this point )
X1.86300 Y0.22800
X1.86300 Y0.16300
X1.93900 Y0.16300
X1.93900 Y0.23900
X1.86300 Y0.23900
X1.86300 Y0.22800
G04 P0 ( dwell for no time -- G64 should not smooth over this point )
G00 Z0.19685 ( retract )

G00 X1.06800 Y0.22800 ( rapid move to begin. )
G01 Z-0.01969 F1.96850 ( plunge. )
G04 P0 ( dwell for no time -- G64 should not smooth over this point )
X1.06800 Y0.22800
X1.06700 Y0.22800
X1.06700 Y0.22600
X1.06600 Y0.22600
X1.06600 Y0.22500
X1.06500 Y0.22500
X1.06500 Y0.22200
X1.06400 Y0.22200
X1.06400 Y0.21700
X1.06300 Y0.21700
X1.06300 Y0.18600
X1.06400 Y0.18600
X1.06400 Y0.18100
X1.06500 Y0.18100
X1.06500 Y0.17800
X1.06600 Y0.17800
X1.06600 Y0.17700
X1.06700 Y0.17700
X1.06700 Y0.17500
X1.06800 Y0.17500
X1.06800 Y0.17400
X1.06900 Y0.17400
X1.06900 Y0.17300
X1.07000 Y0.17300
X1.07000 Y0.17100
X1.07100 Y0.17100
X1.07100 Y0.17000
X1.07300 Y0.17000
X1.07300 Y0.16900
X1.07400 Y0.16900
X1.07400 Y0.16800
X1.07600 Y0.16800
X1.07600 Y0.16700
X1.07800 Y0.16700
X1.07800 Y0.16600
X1.07900 Y0.16600
X1.07900 Y0.16500
X1.08400 Y0.16500
X1.08400 Y0.16400
X1.11700 Y0.16400
X1.11700 Y0.16500
X1.12200 Y0.16500
X1.12200 Y0.16600
X1.12300 Y0.16600
X1.12300 Y0.16700
X1.12500 Y0.16700
X1.12500 Y0.16800
X1.12700 Y0.16800
X1.12700 Y0.16900
X1.12800 Y0.16900
X1.12800 Y0.17000
X1.13000 Y0.17000
X1.13000 Y0.17100
X1.13100 Y0.17100
X1.13100 Y0.17300
X1.13200 Y0.17300
X1.13200 Y0.17400
X1.13300 Y0.17400
X1.13300 Y0.17500
X1.13400 Y0.17500
X1.13400 Y0.17700
X1.13500 Y0.17700
X1.13500 Y0.17800
X1.13600 Y0.17800
X1.13600 Y0.18100
X1.13700 Y0.18100
X1.13700 Y0.18600
X1.13800 Y0.18600
X1.13800 Y0.21700
X1.13700 Y0.21700
X1.13700 Y0.22200
X1.13600 Y0.22200
X1.13600 Y0.22500
X1.13500 Y0.22500
X1.13500 Y0.22600
X1.13400 Y0.22600
X1.13400 Y0.22800
X1.13300 Y0.22800
X1.13300 Y0.22900
X1.13200 Y0.22900
X1.13200 Y0.23000
X1.13100 Y0.23000
X1.13100 Y0.23200
X1.13000 Y0.23200
X1.13000 Y0.23300
X1.12800 Y0.23300
X1.12800 Y0.23400
X1.12700 Y0.23400
X1.12700 Y0.23500
X1.12500 Y0.23500
X1.12500 Y0.23600
X1.12300 Y0.23600
X1.12300 Y0.23700
X1.12200 Y0.23700
X1.12200 Y0.23800
X1.11700 Y0.23800
X1.11700 Y0.23900
X1.08400 Y0.23900
X1.08400 Y0.23800
X1.07900 Y0.23800
X1.07900 Y0.23700
X1.07800 Y0.23700
X1.07800 Y0.23600
X1.07600 Y0.23600
X1.07600 Y0.23500
X1.07400 Y0.23500
X1.07400 Y0.23400
X1.07300 Y0.23400
X1.07300 Y0.23300
X1.07100 Y0.23300
X1.07100 Y0.23200
X1.07000 Y0.23200
X1.07000 Y0.23000
X1.06900 Y0.23000
X1.06900 Y0.22900
X1.06800 Y0.22900
X1.06800 Y0.22800
G04 P0 ( dwell for no time -- G64 should not smooth over this point )
G00 Z0.19685 ( retract )

G00 X0.96300 Y0.22800 ( rapid move to begin. )
G01 Z-0.01969 F1.96850 ( plunge. )
G04 P0 ( dwell for no time -- G64 should not smooth over this point )
X0.96300 Y0.22800
X0.96300 Y0.16300
X1.03900 Y0.16300
X1.03900 Y0.23900
X0.96300 Y0.23900
X0.96300 Y0.22800
G04 P0 ( dwell for no time -- G64 should not smooth over this point )
G00 Z0.19685 ( retract )

G00 X1.77000 Y0.22600 ( rapid move to begin. )
G01 Z-0.01969 F1.96850 ( plunge. )
G04 P0 ( dwell for no time -- G64 should not smooth over this point )
X1.77000 Y0.22600
X1.76900 Y0.22600
X1.76900 Y0.22500
X1.76800 Y0.22500
X1.76800 Y0.22300
X1.76700 Y0.22300
X1.76700 Y0.22000
X1.76600 Y0.22000
X1.76600 Y0.21500
X1.76500 Y0.21500
X1.76500 Y0.18800
X1.76600 Y0.18800
X1.76600 Y0.18300
X1.76700 Y0.18300
X1.76700 Y0.18000
X1.76800 Y0.18000
X1.76800 Y0.17800
X1.76900 Y0.17800
X1.76900 Y0.17700
X1.77000 Y0.17700
X1.77000 Y0.17500
X1.77100 Y0.17500
X1.77100 Y0.17400
X1.77200 Y0.17400
X1.77200 Y0.17300
X1.77300 Y0.17300
X1.77300 Y0.17200
X1.77400 Y0.17200
X1.77400 Y0.17100
X1.77600 Y0.17100
X1.77600 Y0.17000
X1.77800 Y0.17000
X1.77800 Y0.16900
X1.77900 Y0.16900
X1.77900 Y0.16800
X1.78100 Y0.16800
X1.78100 Y0.16700
X1.78700 Y0.16700
X1.78700 Y0.16600
X1.81400 Y0.16600
X1.81400 Y0.16700
X1.82000 Y0.16700
X1.82000 Y0.16800
X1.82200 Y0.16800
X1.82200 Y0.16900
X1.82300 Y0.16900
X1.82300 Y0.17000
X1.82500 Y0.17000
X1.82500 Y0.17100
X1.82700 Y0.17100
X1.82700 Y0.17200
X1.82800 Y0.17200
X1.82800 Y0.17300
X1.82900 Y0.17300
X1.82900 Y0.17400
X1.83000 Y0.17400
X1.83000 Y0.17500
X1.83100 Y0.17500
X1.83100 Y0.17700
X1.83200 Y0.17700
X1.83200 Y0.17800
X1.83300 Y0.17800
X1.83300 Y0.18000
X1.83400 Y0.18000
X1.83400 Y0.18300
X1.83500 Y0.18300
X1.83500 Y0.18800
X1.83600 Y0.18800
X1.83600 Y0.21500
X1.83500 Y0.21500
X1.83500 Y0.22000
X1.83400 Y0.22000
X1.83400 Y0.22300
X1.83300 Y0.22300
X1.83300 Y0.22500
X1.83200 Y0.22500
X1.83200 Y0.22600
X1.83100 Y0.22600
X1.83100 Y0.22800
X1.83000 Y0.22800
X1.83000 Y0.22900
X1.82900 Y0.22900
X1.82900 Y0.23000
X1.82800 Y0.23000
X1.82800 Y0.23100
X1.82700 Y0.23100
X1.82700 Y0.23200
X1.82500 Y0.23200
X1.82500 Y0.23300
X1.82300 Y0.23300
X1.82300 Y0.23400
X1.82200 Y0.23400
X1.82200 Y0.23500
X1.82000 Y0.23500
X1.82000 Y0.23600
X1.81400 Y0.23600
X1.81400 Y0.23700
X1.78700 Y0.23700
X1.78700 Y0.23600
X1.78100 Y0.23600
X1.78100 Y0.23500
X1.77900 Y0.23500
X1.77900 Y0.23400
X1.77800 Y0.23400
X1.77800 Y0.23300
X1.77600 Y0.23300
X1.77600 Y0.23200
X1.77400 Y0.23200
X1.77400 Y0.23100
X1.77300 Y0.23100
X1.77300 Y0.23000
X1.77200 Y0.23000
X1.77200 Y0.22900
X1.77100 Y0.22900
X1.77100 Y0.22800
X1.77000 Y0.22800
X1.77000 Y0.22600

G04 P0 ( dwell for no time -- G64 should not smooth over this point )
G00 Z0.19685 ( retract )

M9 ( Coolant off. )
M2 ( Program end. )

