( pcb2gcode 1.1.4 )

G94     ( Inches per minute feed rate. )
G20     ( Units == INCHES.             )
G90     ( Absolute coordinates.        )
S10000  ( RPM spindle speed.           )
M3      ( Spindle on clockwise.        )

G64 P0.00500 ( set maximum deviation from commanded toolpath )

G04 P0 ( dwell for no time -- G64 should not smooth over this point )
G00 Z0.19685 ( retract )

G00 X1.03000 Y0.62800 ( rapid move to begin. )
G01 Z0.04921 F2.95276 ( plunge. )
G04 P0 ( dwell for no time -- G64 should not smooth over this point )
X1.03000 Y0.62800
X1.03000 Y0.55300
X1.03100 Y0.55300
X1.03100 Y0.54800
X1.03200 Y0.54800
X1.03200 Y0.54500
X1.03300 Y0.54500
X1.03300 Y0.54400
X1.03400 Y0.54400
X1.03400 Y0.54200
X1.03500 Y0.54200
X1.03500 Y0.54100
X1.03600 Y0.54100
X1.03600 Y0.54000
X1.03700 Y0.54000
X1.03700 Y0.53800
X1.03800 Y0.53800
X1.03800 Y0.53700
X1.04000 Y0.53700
X1.04000 Y0.53600
X1.04100 Y0.53600
X1.04100 Y0.53500
X1.04300 Y0.53500
X1.04300 Y0.53400
X1.04500 Y0.53400
X1.04500 Y0.53300
X1.04600 Y0.53300
X1.04600 Y0.53200
X1.05100 Y0.53200
X1.05100 Y0.53100
X1.13300 Y0.53100
X1.13300 Y0.53200
X1.13400 Y0.53200
X1.13400 Y0.53300
X1.13500 Y0.53300
X1.13500 Y0.53400
X1.13600 Y0.53400
X1.13600 Y0.53500
X1.13700 Y0.53500
X1.13700 Y0.53600
X1.13800 Y0.53600
X1.13800 Y0.53700
X1.13900 Y0.53700
X1.13900 Y0.53800
X1.14000 Y0.53800
X1.14000 Y0.53900
X1.14100 Y0.53900
X1.14100 Y0.54100
X1.14200 Y0.54100
X1.14200 Y0.54200
X1.14300 Y0.54200
X1.14300 Y0.54300
X1.14400 Y0.54300
X1.14400 Y0.54600
X1.14500 Y0.54600
X1.14500 Y0.54800
X1.14600 Y0.54800
X1.14600 Y0.55000
X1.14700 Y0.55000
X1.14700 Y0.55200
X1.14800 Y0.55200
X1.14800 Y0.55400
X1.14900 Y0.55400
X1.14900 Y0.55500
X1.15200 Y0.55500
X1.15200 Y0.55600
X1.15400 Y0.55600
X1.15400 Y0.55700
X1.15700 Y0.55700
X1.15700 Y0.55800
X1.15800 Y0.55800
X1.15800 Y0.55900
X1.16000 Y0.55900
X1.16000 Y0.56000
X1.16100 Y0.56000
X1.16100 Y0.56100
X1.16300 Y0.56100
X1.16300 Y0.56200
X1.16400 Y0.56200
X1.16400 Y0.56300
X1.16500 Y0.56300
X1.16500 Y0.56400
X1.16600 Y0.56400
X1.16600 Y0.56500
X1.16700 Y0.56500
X1.16700 Y0.56600
X1.16800 Y0.56600
X1.16800 Y0.56700
X1.16900 Y0.56700
X1.16900 Y0.56800
X1.17000 Y0.56800
X1.17000 Y0.56900
X1.17100 Y0.56900
X1.17100 Y0.65000
X1.17000 Y0.65000
X1.17000 Y0.65500
X1.16900 Y0.65500
X1.16900 Y0.65800
X1.16800 Y0.65800
X1.16800 Y0.65900
X1.16700 Y0.65900
X1.16700 Y0.66100
X1.16600 Y0.66100
X1.16600 Y0.66200
X1.16500 Y0.66200
X1.16500 Y0.66300
X1.16400 Y0.66300
X1.16400 Y0.66500
X1.16300 Y0.66500
X1.16300 Y0.66600
X1.16100 Y0.66600
X1.16100 Y0.66700
X1.16000 Y0.66700
X1.16000 Y0.66800
X1.15800 Y0.66800
X1.15800 Y0.66900
X1.15600 Y0.66900
X1.15600 Y0.67000
X1.15500 Y0.67000
X1.15500 Y0.67100
X1.15000 Y0.67100
X1.15000 Y0.67200
X1.05100 Y0.67200
X1.05100 Y0.67100
X1.04600 Y0.67100
X1.04600 Y0.67000
X1.04500 Y0.67000
X1.04500 Y0.66900
X1.04300 Y0.66900
X1.04300 Y0.66800
X1.04100 Y0.66800
X1.04100 Y0.66700
X1.04000 Y0.66700
X1.04000 Y0.66600
X1.03800 Y0.66600
X1.03800 Y0.66500
X1.03700 Y0.66500
X1.03700 Y0.66300
X1.03600 Y0.66300
X1.03600 Y0.66200
X1.03500 Y0.66200
X1.03500 Y0.66100
X1.03400 Y0.66100
X1.03400 Y0.65900
X1.03300 Y0.65900
X1.03300 Y0.65800
X1.03200 Y0.65800
X1.03200 Y0.65500
X1.03100 Y0.65500
X1.03100 Y0.65000
X1.03000 Y0.65000
X1.03000 Y0.62800
G04 P0 ( dwell for no time -- G64 should not smooth over this point )
G00 Z0.19685 ( retract )

G00 X0.83000 Y0.62800 ( rapid move to begin. )
G01 Z0.04921 F2.95276 ( plunge. )
G04 P0 ( dwell for no time -- G64 should not smooth over this point )
X0.83000 Y0.62800
X0.83000 Y0.55300
X0.83100 Y0.55300
X0.83100 Y0.54800
X0.83200 Y0.54800
X0.83200 Y0.54500
X0.83300 Y0.54500
X0.83300 Y0.54400
X0.83400 Y0.54400
X0.83400 Y0.54200
X0.83500 Y0.54200
X0.83500 Y0.54100
X0.83600 Y0.54100
X0.83600 Y0.54000
X0.83700 Y0.54000
X0.83700 Y0.53800
X0.83800 Y0.53800
X0.83800 Y0.53700
X0.84000 Y0.53700
X0.84000 Y0.53600
X0.84100 Y0.53600
X0.84100 Y0.53500
X0.84300 Y0.53500
X0.84300 Y0.53400
X0.84500 Y0.53400
X0.84500 Y0.53300
X0.84600 Y0.53300
X0.84600 Y0.53200
X0.85100 Y0.53200
X0.85100 Y0.53100
X0.95000 Y0.53100
X0.95000 Y0.53200
X0.95500 Y0.53200
X0.95500 Y0.53300
X0.95600 Y0.53300
X0.95600 Y0.53400
X0.95800 Y0.53400
X0.95800 Y0.53500
X0.96000 Y0.53500
X0.96000 Y0.53600
X0.96100 Y0.53600
X0.96100 Y0.53700
X0.96300 Y0.53700
X0.96300 Y0.53800
X0.96400 Y0.53800
X0.96400 Y0.54000
X0.96500 Y0.54000
X0.96500 Y0.54100
X0.96600 Y0.54100
X0.96600 Y0.54200
X0.96700 Y0.54200
X0.96700 Y0.54400
X0.96800 Y0.54400
X0.96800 Y0.54500
X0.96900 Y0.54500
X0.96900 Y0.54800
X0.97000 Y0.54800
X0.97000 Y0.55300
X0.97100 Y0.55300
X0.97100 Y0.65000
X0.97000 Y0.65000
X0.97000 Y0.65500
X0.96900 Y0.65500
X0.96900 Y0.65800
X0.96800 Y0.65800
X0.96800 Y0.65900
X0.96700 Y0.65900
X0.96700 Y0.66100
X0.96600 Y0.66100
X0.96600 Y0.66200
X0.96500 Y0.66200
X0.96500 Y0.66300
X0.96400 Y0.66300
X0.96400 Y0.66500
X0.96300 Y0.66500
X0.96300 Y0.66600
X0.96100 Y0.66600
X0.96100 Y0.66700
X0.96000 Y0.66700
X0.96000 Y0.66800
X0.95800 Y0.66800
X0.95800 Y0.66900
X0.95600 Y0.66900
X0.95600 Y0.67000
X0.95500 Y0.67000
X0.95500 Y0.67100
X0.95000 Y0.67100
X0.95000 Y0.67200
X0.85100 Y0.67200
X0.85100 Y0.67100
X0.84600 Y0.67100
X0.84600 Y0.67000
X0.84500 Y0.67000
X0.84500 Y0.66900
X0.84300 Y0.66900
X0.84300 Y0.66800
X0.84100 Y0.66800
X0.84100 Y0.66700
X0.84000 Y0.66700
X0.84000 Y0.66600
X0.83800 Y0.66600
X0.83800 Y0.66500
X0.83700 Y0.66500
X0.83700 Y0.66300
X0.83600 Y0.66300
X0.83600 Y0.66200
X0.83500 Y0.66200
X0.83500 Y0.66100
X0.83400 Y0.66100
X0.83400 Y0.65900
X0.83300 Y0.65900
X0.83300 Y0.65800
X0.83200 Y0.65800
X0.83200 Y0.65500
X0.83100 Y0.65500
X0.83100 Y0.65000
X0.83000 Y0.65000
X0.83000 Y0.62800
G04 P0 ( dwell for no time -- G64 should not smooth over this point )
G00 Z0.19685 ( retract )

G00 X0.43000 Y0.62800 ( rapid move to begin. )
G01 Z0.04921 F2.95276 ( plunge. )
G04 P0 ( dwell for no time -- G64 should not smooth over this point )
X0.43000 Y0.62800
X0.43000 Y0.55300
X0.43100 Y0.55300
X0.43100 Y0.54800
X0.43200 Y0.54800
X0.43200 Y0.54500
X0.43300 Y0.54500
X0.43300 Y0.54400
X0.43400 Y0.54400
X0.43400 Y0.54200
X0.43500 Y0.54200
X0.43500 Y0.54100
X0.43600 Y0.54100
X0.43600 Y0.54000
X0.43700 Y0.54000
X0.43700 Y0.53800
X0.43800 Y0.53800
X0.43800 Y0.53700
X0.44000 Y0.53700
X0.44000 Y0.53600
X0.44100 Y0.53600
X0.44100 Y0.53500
X0.44300 Y0.53500
X0.44300 Y0.53400
X0.44500 Y0.53400
X0.44500 Y0.53300
X0.44600 Y0.53300
X0.44600 Y0.53200
X0.45100 Y0.53200
X0.45100 Y0.53100
X0.55000 Y0.53100
X0.55000 Y0.53200
X0.55500 Y0.53200
X0.55500 Y0.53300
X0.55600 Y0.53300
X0.55600 Y0.53400
X0.55800 Y0.53400
X0.55800 Y0.53500
X0.56000 Y0.53500
X0.56000 Y0.53600
X0.56100 Y0.53600
X0.56100 Y0.53700
X0.56300 Y0.53700
X0.56300 Y0.53800
X0.56400 Y0.53800
X0.56400 Y0.54000
X0.56500 Y0.54000
X0.56500 Y0.54100
X0.56600 Y0.54100
X0.56600 Y0.54200
X0.56700 Y0.54200
X0.56700 Y0.54400
X0.56800 Y0.54400
X0.56800 Y0.54500
X0.56900 Y0.54500
X0.56900 Y0.54800
X0.57000 Y0.54800
X0.57000 Y0.55300
X0.57100 Y0.55300
X0.57100 Y0.65000
X0.57000 Y0.65000
X0.57000 Y0.65500
X0.56900 Y0.65500
X0.56900 Y0.65800
X0.56800 Y0.65800
X0.56800 Y0.65900
X0.56700 Y0.65900
X0.56700 Y0.66100
X0.56600 Y0.66100
X0.56600 Y0.66200
X0.56500 Y0.66200
X0.56500 Y0.66300
X0.56400 Y0.66300
X0.56400 Y0.66500
X0.56300 Y0.66500
X0.56300 Y0.66600
X0.56100 Y0.66600
X0.56100 Y0.66700
X0.56000 Y0.66700
X0.56000 Y0.66800
X0.55800 Y0.66800
X0.55800 Y0.66900
X0.55600 Y0.66900
X0.55600 Y0.67000
X0.55500 Y0.67000
X0.55500 Y0.67100
X0.55000 Y0.67100
X0.55000 Y0.67200
X0.45100 Y0.67200
X0.45100 Y0.67100
X0.44600 Y0.67100
X0.44600 Y0.67000
X0.44500 Y0.67000
X0.44500 Y0.66900
X0.44300 Y0.66900
X0.44300 Y0.66800
X0.44100 Y0.66800
X0.44100 Y0.66700
X0.44000 Y0.66700
X0.44000 Y0.66600
X0.43800 Y0.66600
X0.43800 Y0.66500
X0.43700 Y0.66500
X0.43700 Y0.66300
X0.43600 Y0.66300
X0.43600 Y0.66200
X0.43500 Y0.66200
X0.43500 Y0.66100
X0.43400 Y0.66100
X0.43400 Y0.65900
X0.43300 Y0.65900
X0.43300 Y0.65800
X0.43200 Y0.65800
X0.43200 Y0.65500
X0.43100 Y0.65500
X0.43100 Y0.65000
X0.43000 Y0.65000
X0.43000 Y0.62800
G04 P0 ( dwell for no time -- G64 should not smooth over this point )
G00 Z0.19685 ( retract )

G00 X1.53200 Y0.52600 ( rapid move to begin. )
G01 Z0.04921 F2.95276 ( plunge. )
G04 P0 ( dwell for no time -- G64 should not smooth over this point )
X1.53200 Y0.52600
X1.53200 Y0.45500
X1.53300 Y0.45500
X1.53300 Y0.45000
X1.53400 Y0.45000
X1.53400 Y0.44700
X1.53500 Y0.44700
X1.53500 Y0.44500
X1.53600 Y0.44500
X1.53600 Y0.44400
X1.53700 Y0.44400
X1.53700 Y0.44200
X1.53800 Y0.44200
X1.53800 Y0.44100
X1.53900 Y0.44100
X1.53900 Y0.44000
X1.54000 Y0.44000
X1.54000 Y0.43900
X1.54100 Y0.43900
X1.54100 Y0.43800
X1.54300 Y0.43800
X1.54300 Y0.43700
X1.54500 Y0.43700
X1.54500 Y0.43600
X1.54600 Y0.43600
X1.54600 Y0.43500
X1.54800 Y0.43500
X1.54800 Y0.43400
X1.55400 Y0.43400
X1.55400 Y0.43300
X1.64700 Y0.43300
X1.64700 Y0.43400
X1.65300 Y0.43400
X1.65300 Y0.43500
X1.65500 Y0.43500
X1.65500 Y0.43600
X1.65600 Y0.43600
X1.65600 Y0.43700
X1.65800 Y0.43700
X1.65800 Y0.43800
X1.66000 Y0.43800
X1.66000 Y0.43900
X1.66100 Y0.43900
X1.66100 Y0.44000
X1.66200 Y0.44000
X1.66200 Y0.44100
X1.66300 Y0.44100
X1.66300 Y0.44200
X1.66400 Y0.44200
X1.66400 Y0.44400
X1.66500 Y0.44400
X1.66500 Y0.44500
X1.66600 Y0.44500
X1.66600 Y0.44700
X1.66700 Y0.44700
X1.66700 Y0.45000
X1.66800 Y0.45000
X1.66800 Y0.45500
X1.66900 Y0.45500
X1.66900 Y0.54800
X1.66800 Y0.54800
X1.66800 Y0.55300
X1.66700 Y0.55300
X1.66700 Y0.55600
X1.66600 Y0.55600
X1.66600 Y0.55800
X1.66500 Y0.55800
X1.66500 Y0.55900
X1.66400 Y0.55900
X1.66400 Y0.56100
X1.66300 Y0.56100
X1.66300 Y0.56200
X1.66200 Y0.56200
X1.66200 Y0.56300
X1.66100 Y0.56300
X1.66100 Y0.56400
X1.66000 Y0.56400
X1.66000 Y0.56500
X1.65800 Y0.56500
X1.65800 Y0.56600
X1.65600 Y0.56600
X1.65600 Y0.56700
X1.65500 Y0.56700
X1.65500 Y0.56800
X1.65300 Y0.56800
X1.65300 Y0.56900
X1.64700 Y0.56900
X1.64700 Y0.57000
X1.55400 Y0.57000
X1.55400 Y0.56900
X1.54800 Y0.56900
X1.54800 Y0.56800
X1.54600 Y0.56800
X1.54600 Y0.56700
X1.54500 Y0.56700
X1.54500 Y0.56600
X1.54300 Y0.56600
X1.54300 Y0.56500
X1.54100 Y0.56500
X1.54100 Y0.56400
X1.54000 Y0.56400
X1.54000 Y0.56300
X1.53900 Y0.56300
X1.53900 Y0.56200
X1.53800 Y0.56200
X1.53800 Y0.56100
X1.53700 Y0.56100
X1.53700 Y0.55900
X1.53600 Y0.55900
X1.53600 Y0.55800
X1.53500 Y0.55800
X1.53500 Y0.55600
X1.53400 Y0.55600
X1.53400 Y0.55300
X1.53300 Y0.55300
X1.53300 Y0.54800
X1.53200 Y0.54800
X1.53200 Y0.52600
G04 P0 ( dwell for no time -- G64 should not smooth over this point )
G00 Z0.19685 ( retract )

G00 X1.13200 Y0.52600 ( rapid move to begin. )
G01 Z0.04921 F2.95276 ( plunge. )
G04 P0 ( dwell for no time -- G64 should not smooth over this point )
X1.13200 Y0.52600
X1.13200 Y0.43300
X1.26900 Y0.43300
X1.26900 Y0.57000
X1.17100 Y0.57000
X1.17100 Y0.56900
X1.17000 Y0.56900
X1.17000 Y0.56800
X1.16900 Y0.56800
X1.16900 Y0.56700
X1.16800 Y0.56700
X1.16800 Y0.56600
X1.16700 Y0.56600
X1.16700 Y0.56500
X1.16600 Y0.56500
X1.16600 Y0.56400
X1.16500 Y0.56400
X1.16500 Y0.56300
X1.16400 Y0.56300
X1.16400 Y0.56200
X1.16300 Y0.56200
X1.16300 Y0.56100
X1.16100 Y0.56100
X1.16100 Y0.56000
X1.16000 Y0.56000
X1.16000 Y0.55900
X1.15800 Y0.55900
X1.15800 Y0.55800
X1.15700 Y0.55800
X1.15700 Y0.55700
X1.15400 Y0.55700
X1.15400 Y0.55600
X1.15200 Y0.55600
X1.15200 Y0.55500
X1.14900 Y0.55500
X1.14900 Y0.55400
X1.14800 Y0.55400
X1.14800 Y0.55200
X1.14700 Y0.55200
X1.14700 Y0.55000
X1.14600 Y0.55000
X1.14600 Y0.54800
X1.14500 Y0.54800
X1.14500 Y0.54600
X1.14400 Y0.54600
X1.14400 Y0.54300
X1.14300 Y0.54300
X1.14300 Y0.54200
X1.14200 Y0.54200
X1.14200 Y0.54100
X1.14100 Y0.54100
X1.14100 Y0.53900
X1.14000 Y0.53900
X1.14000 Y0.53800
X1.13900 Y0.53800
X1.13900 Y0.53700
X1.13800 Y0.53700
X1.13800 Y0.53600
X1.13700 Y0.53600
X1.13700 Y0.53500
X1.13600 Y0.53500
X1.13600 Y0.53400
X1.13500 Y0.53400
X1.13500 Y0.53300
X1.13400 Y0.53300
X1.13400 Y0.53200
X1.13300 Y0.53200
X1.13300 Y0.53100
X1.13200 Y0.53100
X1.13200 Y0.52600
G04 P0 ( dwell for no time -- G64 should not smooth over this point )
G00 Z0.19685 ( retract )

G00 X0.62100 Y0.43700 ( rapid move to begin. )
G01 Z0.04921 F2.95276 ( plunge. )
G04 P0 ( dwell for no time -- G64 should not smooth over this point )
X0.62100 Y0.43700
X0.62100 Y0.35300
X0.62200 Y0.35300
X0.62200 Y0.35100
X0.77900 Y0.35100
X0.77900 Y0.35300
X0.78000 Y0.35300
X0.78000 Y0.45000
X0.77900 Y0.45000
X0.77900 Y0.45600
X0.77800 Y0.45600
X0.77800 Y0.45900
X0.77700 Y0.45900
X0.77700 Y0.46100
X0.77600 Y0.46100
X0.77600 Y0.46300
X0.77500 Y0.46300
X0.77500 Y0.46500
X0.77400 Y0.46500
X0.77400 Y0.46700
X0.77300 Y0.46700
X0.77300 Y0.46800
X0.77200 Y0.46800
X0.77200 Y0.46900
X0.77100 Y0.46900
X0.77100 Y0.47000
X0.77000 Y0.47000
X0.77000 Y0.47100
X0.76900 Y0.47100
X0.76900 Y0.47200
X0.76800 Y0.47200
X0.76800 Y0.47300
X0.76600 Y0.47300
X0.76600 Y0.47400
X0.76400 Y0.47400
X0.76400 Y0.47500
X0.76300 Y0.47500
X0.76300 Y0.47600
X0.76100 Y0.47600
X0.76100 Y0.47700
X0.75900 Y0.47700
X0.75900 Y0.47800
X0.75800 Y0.47800
X0.75800 Y0.47900
X0.75300 Y0.47900
X0.75300 Y0.48000
X0.74700 Y0.48000
X0.74700 Y0.48100
X0.65400 Y0.48100
X0.65400 Y0.48000
X0.64800 Y0.48000
X0.64800 Y0.47900
X0.64300 Y0.47900
X0.64300 Y0.47800
X0.64200 Y0.47800
X0.64200 Y0.47700
X0.64000 Y0.47700
X0.64000 Y0.47600
X0.63800 Y0.47600
X0.63800 Y0.47500
X0.63700 Y0.47500
X0.63700 Y0.47400
X0.63500 Y0.47400
X0.63500 Y0.47300
X0.63300 Y0.47300
X0.63300 Y0.47200
X0.63200 Y0.47200
X0.63200 Y0.47100
X0.63100 Y0.47100
X0.63100 Y0.47000
X0.63000 Y0.47000
X0.63000 Y0.46900
X0.62900 Y0.46900
X0.62900 Y0.46800
X0.62800 Y0.46800
X0.62800 Y0.46700
X0.62700 Y0.46700
X0.62700 Y0.46500
X0.62600 Y0.46500
X0.62600 Y0.46300
X0.62500 Y0.46300
X0.62500 Y0.46100
X0.62400 Y0.46100
X0.62400 Y0.45900
X0.62300 Y0.45900
X0.62300 Y0.45600
X0.62200 Y0.45600
X0.62200 Y0.45000
X0.62100 Y0.45000
X0.62100 Y0.43700
G04 P0 ( dwell for no time -- G64 should not smooth over this point )
G00 Z0.19685 ( retract )

G00 X2.22700 Y0.43100 ( rapid move to begin. )
G01 Z0.04921 F2.95276 ( plunge. )
G04 P0 ( dwell for no time -- G64 should not smooth over this point )
X2.22700 Y0.43100
X2.22700 Y0.36200
X2.24200 Y0.36200
X2.24200 Y0.36100
X2.24300 Y0.36100
X2.24300 Y0.36000
X2.24500 Y0.36000
X2.24500 Y0.35900
X2.24700 Y0.35900
X2.24700 Y0.35800
X2.25000 Y0.35800
X2.25000 Y0.35700
X2.25200 Y0.35700
X2.25200 Y0.35600
X2.25500 Y0.35600
X2.25500 Y0.35500
X2.25800 Y0.35500
X2.25800 Y0.35400
X2.26300 Y0.35400
X2.26300 Y0.35300
X2.26700 Y0.35300
X2.26700 Y0.35200
X2.27700 Y0.35200
X2.27700 Y0.35100
X2.32400 Y0.35100
X2.32400 Y0.35200
X2.33400 Y0.35200
X2.33400 Y0.35300
X2.33900 Y0.35300
X2.33900 Y0.35400
X2.34300 Y0.35400
X2.34300 Y0.35500
X2.34600 Y0.35500
X2.34600 Y0.35600
X2.34900 Y0.35600
X2.34900 Y0.35700
X2.35100 Y0.35700
X2.35100 Y0.35800
X2.35400 Y0.35800
X2.35400 Y0.35900
X2.35600 Y0.35900
X2.35600 Y0.36000
X2.35800 Y0.36000
X2.35800 Y0.36100
X2.35900 Y0.36100
X2.35900 Y0.36200
X2.37400 Y0.36200
X2.37400 Y0.44800
X2.37300 Y0.44800
X2.37300 Y0.45300
X2.37200 Y0.45300
X2.37200 Y0.45800
X2.37100 Y0.45800
X2.37100 Y0.45900
X2.37000 Y0.45900
X2.37000 Y0.46100
X2.36900 Y0.46100
X2.36900 Y0.46200
X2.36800 Y0.46200
X2.36800 Y0.46400
X2.36700 Y0.46400
X2.36700 Y0.46500
X2.36600 Y0.46500
X2.36600 Y0.46600
X2.36500 Y0.46600
X2.36500 Y0.46800
X2.36300 Y0.46800
X2.36300 Y0.46900
X2.36100 Y0.46900
X2.36100 Y0.47000
X2.36000 Y0.47000
X2.36000 Y0.47100
X2.35800 Y0.47100
X2.35800 Y0.47200
X2.35600 Y0.47200
X2.35600 Y0.47300
X2.35300 Y0.47300
X2.35300 Y0.47400
X2.34700 Y0.47400
X2.34700 Y0.47500
X2.25400 Y0.47500
X2.25400 Y0.47400
X2.24800 Y0.47400
X2.24800 Y0.47300
X2.24500 Y0.47300
X2.24500 Y0.47200
X2.24300 Y0.47200
X2.24300 Y0.47100
X2.24200 Y0.47100
X2.24200 Y0.47000
X2.24000 Y0.47000
X2.24000 Y0.46900
X2.23800 Y0.46900
X2.23800 Y0.46800
X2.23600 Y0.46800
X2.23600 Y0.46600
X2.23500 Y0.46600
X2.23500 Y0.46500
X2.23400 Y0.46500
X2.23400 Y0.46400
X2.23300 Y0.46400
X2.23300 Y0.46200
X2.23200 Y0.46200
X2.23200 Y0.46100
X2.23100 Y0.46100
X2.23100 Y0.45900
X2.23000 Y0.45900
X2.23000 Y0.45800
X2.22900 Y0.45800
X2.22900 Y0.45300
X2.22800 Y0.45300
X2.22800 Y0.44800
X2.22700 Y0.44800
X2.22700 Y0.43100
G04 P0 ( dwell for no time -- G64 should not smooth over this point )
G00 Z0.19685 ( retract )

G00 X1.72700 Y0.43100 ( rapid move to begin. )
G01 Z0.04921 F2.95276 ( plunge. )
G04 P0 ( dwell for no time -- G64 should not smooth over this point )
X1.72700 Y0.43100
X1.72700 Y0.36200
X1.74200 Y0.36200
X1.74200 Y0.36100
X1.74300 Y0.36100
X1.74300 Y0.36000
X1.74500 Y0.36000
X1.74500 Y0.35900
X1.74700 Y0.35900
X1.74700 Y0.35800
X1.75000 Y0.35800
X1.75000 Y0.35700
X1.75200 Y0.35700
X1.75200 Y0.35600
X1.75500 Y0.35600
X1.75500 Y0.35500
X1.75800 Y0.35500
X1.75800 Y0.35400
X1.76300 Y0.35400
X1.76300 Y0.35300
X1.76700 Y0.35300
X1.76700 Y0.35200
X1.77700 Y0.35200
X1.77700 Y0.35100
X1.82400 Y0.35100
X1.82400 Y0.35200
X1.83400 Y0.35200
X1.83400 Y0.35300
X1.83900 Y0.35300
X1.83900 Y0.35400
X1.84300 Y0.35400
X1.84300 Y0.35500
X1.84600 Y0.35500
X1.84600 Y0.35600
X1.84900 Y0.35600
X1.84900 Y0.35700
X1.85100 Y0.35700
X1.85100 Y0.35800
X1.85400 Y0.35800
X1.85400 Y0.35900
X1.85600 Y0.35900
X1.85600 Y0.36000
X1.85800 Y0.36000
X1.85800 Y0.36100
X1.85900 Y0.36100
X1.85900 Y0.36200
X1.87400 Y0.36200
X1.87400 Y0.44800
X1.87300 Y0.44800
X1.87300 Y0.45300
X1.87200 Y0.45300
X1.87200 Y0.45800
X1.87100 Y0.45800
X1.87100 Y0.45900
X1.87000 Y0.45900
X1.87000 Y0.46100
X1.86900 Y0.46100
X1.86900 Y0.46200
X1.86800 Y0.46200
X1.86800 Y0.46400
X1.86700 Y0.46400
X1.86700 Y0.46500
X1.86600 Y0.46500
X1.86600 Y0.46600
X1.86500 Y0.46600
X1.86500 Y0.46800
X1.86300 Y0.46800
X1.86300 Y0.46900
X1.86100 Y0.46900
X1.86100 Y0.47000
X1.86000 Y0.47000
X1.86000 Y0.47100
X1.85800 Y0.47100
X1.85800 Y0.47200
X1.85600 Y0.47200
X1.85600 Y0.47300
X1.85300 Y0.47300
X1.85300 Y0.47400
X1.84700 Y0.47400
X1.84700 Y0.47500
X1.75400 Y0.47500
X1.75400 Y0.47400
X1.74800 Y0.47400
X1.74800 Y0.47300
X1.74500 Y0.47300
X1.74500 Y0.47200
X1.74300 Y0.47200
X1.74300 Y0.47100
X1.74200 Y0.47100
X1.74200 Y0.47000
X1.74000 Y0.47000
X1.74000 Y0.46900
X1.73800 Y0.46900
X1.73800 Y0.46800
X1.73600 Y0.46800
X1.73600 Y0.46600
X1.73500 Y0.46600
X1.73500 Y0.46500
X1.73400 Y0.46500
X1.73400 Y0.46400
X1.73300 Y0.46400
X1.73300 Y0.46200
X1.73200 Y0.46200
X1.73200 Y0.46100
X1.73100 Y0.46100
X1.73100 Y0.45900
X1.73000 Y0.45900
X1.73000 Y0.45800
X1.72900 Y0.45800
X1.72900 Y0.45300
X1.72800 Y0.45300
X1.72800 Y0.44800
X1.72700 Y0.44800
X1.72700 Y0.43100
G04 P0 ( dwell for no time -- G64 should not smooth over this point )
G00 Z0.19685 ( retract )

G00 X0.22700 Y0.43100 ( rapid move to begin. )
G01 Z0.04921 F2.95276 ( plunge. )
G04 P0 ( dwell for no time -- G64 should not smooth over this point )
X0.22700 Y0.43100
X0.22700 Y0.36200
X0.24200 Y0.36200
X0.24200 Y0.36100
X0.24300 Y0.36100
X0.24300 Y0.36000
X0.24500 Y0.36000
X0.24500 Y0.35900
X0.24700 Y0.35900
X0.24700 Y0.35800
X0.25000 Y0.35800
X0.25000 Y0.35700
X0.25200 Y0.35700
X0.25200 Y0.35600
X0.25500 Y0.35600
X0.25500 Y0.35500
X0.25800 Y0.35500
X0.25800 Y0.35400
X0.26300 Y0.35400
X0.26300 Y0.35300
X0.26700 Y0.35300
X0.26700 Y0.35200
X0.27700 Y0.35200
X0.27700 Y0.35100
X0.32400 Y0.35100
X0.32400 Y0.35200
X0.33400 Y0.35200
X0.33400 Y0.35300
X0.33900 Y0.35300
X0.33900 Y0.35400
X0.34300 Y0.35400
X0.34300 Y0.35500
X0.34600 Y0.35500
X0.34600 Y0.35600
X0.34900 Y0.35600
X0.34900 Y0.35700
X0.35100 Y0.35700
X0.35100 Y0.35800
X0.35400 Y0.35800
X0.35400 Y0.35900
X0.35600 Y0.35900
X0.35600 Y0.36000
X0.35800 Y0.36000
X0.35800 Y0.36100
X0.35900 Y0.36100
X0.35900 Y0.36200
X0.37400 Y0.36200
X0.37400 Y0.44800
X0.37300 Y0.44800
X0.37300 Y0.45300
X0.37200 Y0.45300
X0.37200 Y0.45800
X0.37100 Y0.45800
X0.37100 Y0.45900
X0.37000 Y0.45900
X0.37000 Y0.46100
X0.36900 Y0.46100
X0.36900 Y0.46200
X0.36800 Y0.46200
X0.36800 Y0.46400
X0.36700 Y0.46400
X0.36700 Y0.46500
X0.36600 Y0.46500
X0.36600 Y0.46600
X0.36500 Y0.46600
X0.36500 Y0.46800
X0.36300 Y0.46800
X0.36300 Y0.46900
X0.36100 Y0.46900
X0.36100 Y0.47000
X0.36000 Y0.47000
X0.36000 Y0.47100
X0.35800 Y0.47100
X0.35800 Y0.47200
X0.35600 Y0.47200
X0.35600 Y0.47300
X0.35300 Y0.47300
X0.35300 Y0.47400
X0.34700 Y0.47400
X0.34700 Y0.47500
X0.25400 Y0.47500
X0.25400 Y0.47400
X0.24800 Y0.47400
X0.24800 Y0.47300
X0.24500 Y0.47300
X0.24500 Y0.47200
X0.24300 Y0.47200
X0.24300 Y0.47100
X0.24200 Y0.47100
X0.24200 Y0.47000
X0.24000 Y0.47000
X0.24000 Y0.46900
X0.23800 Y0.46900
X0.23800 Y0.46800
X0.23600 Y0.46800
X0.23600 Y0.46600
X0.23500 Y0.46600
X0.23500 Y0.46500
X0.23400 Y0.46500
X0.23400 Y0.46400
X0.23300 Y0.46400
X0.23300 Y0.46200
X0.23200 Y0.46200
X0.23200 Y0.46100
X0.23100 Y0.46100
X0.23100 Y0.45900
X0.23000 Y0.45900
X0.23000 Y0.45800
X0.22900 Y0.45800
X0.22900 Y0.45300
X0.22800 Y0.45300
X0.22800 Y0.44800
X0.22700 Y0.44800
X0.22700 Y0.43100
G04 P0 ( dwell for no time -- G64 should not smooth over this point )
G00 Z0.19685 ( retract )

G00 X0.62100 Y0.33700 ( rapid move to begin. )
G01 Z0.04921 F2.95276 ( plunge. )
G04 P0 ( dwell for no time -- G64 should not smooth over this point )
X0.62100 Y0.33700
X0.62100 Y0.26400
X0.64000 Y0.26400
X0.64000 Y0.26300
X0.64100 Y0.26300
X0.64100 Y0.26200
X0.64300 Y0.26200
X0.64300 Y0.26100
X0.64500 Y0.26100
X0.64500 Y0.26000
X0.64700 Y0.26000
X0.64700 Y0.25900
X0.64900 Y0.25900
X0.64900 Y0.25800
X0.65200 Y0.25800
X0.65200 Y0.25700
X0.65500 Y0.25700
X0.65500 Y0.25600
X0.65800 Y0.25600
X0.65800 Y0.25500
X0.66300 Y0.25500
X0.66300 Y0.25400
X0.66700 Y0.25400
X0.66700 Y0.25300
X0.67100 Y0.25300
X0.67100 Y0.25200
X0.68300 Y0.25200
X0.68300 Y0.25100
X0.71800 Y0.25100
X0.71800 Y0.25200
X0.73000 Y0.25200
X0.73000 Y0.25300
X0.73400 Y0.25300
X0.73400 Y0.25400
X0.73800 Y0.25400
X0.73800 Y0.25500
X0.74300 Y0.25500
X0.74300 Y0.25600
X0.74600 Y0.25600
X0.74600 Y0.25700
X0.74900 Y0.25700
X0.74900 Y0.25800
X0.75200 Y0.25800
X0.75200 Y0.25900
X0.75400 Y0.25900
X0.75400 Y0.26000
X0.75600 Y0.26000
X0.75600 Y0.26100
X0.75800 Y0.26100
X0.75800 Y0.26200
X0.76000 Y0.26200
X0.76000 Y0.26300
X0.76100 Y0.26300
X0.76100 Y0.26400
X0.78000 Y0.26400
X0.78000 Y0.35000
X0.77900 Y0.35000
X0.77900 Y0.35100
X0.62200 Y0.35100
X0.62200 Y0.35000
X0.62100 Y0.35000
X0.62100 Y0.33700
G04 P0 ( dwell for no time -- G64 should not smooth over this point )
G00 Z0.19685 ( retract )

G00 X2.22700 Y0.33100 ( rapid move to begin. )
G01 Z0.04921 F2.95276 ( plunge. )
G04 P0 ( dwell for no time -- G64 should not smooth over this point )
X2.22700 Y0.33100
X2.22700 Y0.22800
X2.37400 Y0.22800
X2.37400 Y0.36200
X2.35900 Y0.36200
X2.35900 Y0.36100
X2.35800 Y0.36100
X2.35800 Y0.36000
X2.35600 Y0.36000
X2.35600 Y0.35900
X2.35400 Y0.35900
X2.35400 Y0.35800
X2.35100 Y0.35800
X2.35100 Y0.35700
X2.34900 Y0.35700
X2.34900 Y0.35600
X2.34600 Y0.35600
X2.34600 Y0.35500
X2.34300 Y0.35500
X2.34300 Y0.35400
X2.33900 Y0.35400
X2.33900 Y0.35300
X2.33400 Y0.35300
X2.33400 Y0.35200
X2.32400 Y0.35200
X2.32400 Y0.35100
X2.27700 Y0.35100
X2.27700 Y0.35200
X2.26700 Y0.35200
X2.26700 Y0.35300
X2.26300 Y0.35300
X2.26300 Y0.35400
X2.25800 Y0.35400
X2.25800 Y0.35500
X2.25500 Y0.35500
X2.25500 Y0.35600
X2.25200 Y0.35600
X2.25200 Y0.35700
X2.25000 Y0.35700
X2.25000 Y0.35800
X2.24700 Y0.35800
X2.24700 Y0.35900
X2.24500 Y0.35900
X2.24500 Y0.36000
X2.24300 Y0.36000
X2.24300 Y0.36100
X2.24200 Y0.36100
X2.24200 Y0.36200
X2.22700 Y0.36200
X2.22700 Y0.33100
G04 P0 ( dwell for no time -- G64 should not smooth over this point )
G00 Z0.19685 ( retract )

G00 X1.72700 Y0.33100 ( rapid move to begin. )
G01 Z0.04921 F2.95276 ( plunge. )
G04 P0 ( dwell for no time -- G64 should not smooth over this point )
X1.72700 Y0.33100
X1.72700 Y0.22800
X1.87400 Y0.22800
X1.87400 Y0.36200
X1.85900 Y0.36200
X1.85900 Y0.36100
X1.85800 Y0.36100
X1.85800 Y0.36000
X1.85600 Y0.36000
X1.85600 Y0.35900
X1.85400 Y0.35900
X1.85400 Y0.35800
X1.85100 Y0.35800
X1.85100 Y0.35700
X1.84900 Y0.35700
X1.84900 Y0.35600
X1.84600 Y0.35600
X1.84600 Y0.35500
X1.84300 Y0.35500
X1.84300 Y0.35400
X1.83900 Y0.35400
X1.83900 Y0.35300
X1.83400 Y0.35300
X1.83400 Y0.35200
X1.82400 Y0.35200
X1.82400 Y0.35100
X1.77700 Y0.35100
X1.77700 Y0.35200
X1.76700 Y0.35200
X1.76700 Y0.35300
X1.76300 Y0.35300
X1.76300 Y0.35400
X1.75800 Y0.35400
X1.75800 Y0.35500
X1.75500 Y0.35500
X1.75500 Y0.35600
X1.75200 Y0.35600
X1.75200 Y0.35700
X1.75000 Y0.35700
X1.75000 Y0.35800
X1.74700 Y0.35800
X1.74700 Y0.35900
X1.74500 Y0.35900
X1.74500 Y0.36000
X1.74300 Y0.36000
X1.74300 Y0.36100
X1.74200 Y0.36100
X1.74200 Y0.36200
X1.72700 Y0.36200
X1.72700 Y0.33100
G04 P0 ( dwell for no time -- G64 should not smooth over this point )
G00 Z0.19685 ( retract )

G00 X0.22700 Y0.33100 ( rapid move to begin. )
G01 Z0.04921 F2.95276 ( plunge. )
G04 P0 ( dwell for no time -- G64 should not smooth over this point )
X0.22700 Y0.33100
X0.22700 Y0.22800
X0.37400 Y0.22800
X0.37400 Y0.36200
X0.35900 Y0.36200
X0.35900 Y0.36100
X0.35800 Y0.36100
X0.35800 Y0.36000
X0.35600 Y0.36000
X0.35600 Y0.35900
X0.35400 Y0.35900
X0.35400 Y0.35800
X0.35100 Y0.35800
X0.35100 Y0.35700
X0.34900 Y0.35700
X0.34900 Y0.35600
X0.34600 Y0.35600
X0.34600 Y0.35500
X0.34300 Y0.35500
X0.34300 Y0.35400
X0.33900 Y0.35400
X0.33900 Y0.35300
X0.33400 Y0.35300
X0.33400 Y0.35200
X0.32400 Y0.35200
X0.32400 Y0.35100
X0.27700 Y0.35100
X0.27700 Y0.35200
X0.26700 Y0.35200
X0.26700 Y0.35300
X0.26300 Y0.35300
X0.26300 Y0.35400
X0.25800 Y0.35400
X0.25800 Y0.35500
X0.25500 Y0.35500
X0.25500 Y0.35600
X0.25200 Y0.35600
X0.25200 Y0.35700
X0.25000 Y0.35700
X0.25000 Y0.35800
X0.24700 Y0.35800
X0.24700 Y0.35900
X0.24500 Y0.35900
X0.24500 Y0.36000
X0.24300 Y0.36000
X0.24300 Y0.36100
X0.24200 Y0.36100
X0.24200 Y0.36200
X0.22700 Y0.36200
X0.22700 Y0.33100
G04 P0 ( dwell for no time -- G64 should not smooth over this point )
G00 Z0.19685 ( retract )

G00 X1.53000 Y0.32800 ( rapid move to begin. )
G01 Z0.04921 F2.95276 ( plunge. )
G04 P0 ( dwell for no time -- G64 should not smooth over this point )
X1.53000 Y0.32800
X1.53000 Y0.23000
X1.67200 Y0.23000
X1.67200 Y0.37200
X1.53000 Y0.37200
X1.53000 Y0.32800
G04 P0 ( dwell for no time -- G64 should not smooth over this point )
G00 Z0.19685 ( retract )

G00 X1.13000 Y0.32800 ( rapid move to begin. )
G01 Z0.04921 F2.95276 ( plunge. )
G04 P0 ( dwell for no time -- G64 should not smooth over this point )
X1.13000 Y0.32800
X1.13000 Y0.27100
X1.13100 Y0.27100
X1.13100 Y0.27000
X1.13200 Y0.27000
X1.13200 Y0.26900
X1.13300 Y0.26900
X1.13300 Y0.26800
X1.13400 Y0.26800
X1.13400 Y0.26700
X1.13500 Y0.26700
X1.13500 Y0.26600
X1.13600 Y0.26600
X1.13600 Y0.26500
X1.13700 Y0.26500
X1.13700 Y0.26400
X1.13800 Y0.26400
X1.13800 Y0.26300
X1.13900 Y0.26300
X1.13900 Y0.26200
X1.14100 Y0.26200
X1.14100 Y0.26100
X1.14200 Y0.26100
X1.14200 Y0.26000
X1.14400 Y0.26000
X1.14400 Y0.25900
X1.14500 Y0.25900
X1.14500 Y0.25800
X1.14800 Y0.25800
X1.14800 Y0.25700
X1.15000 Y0.25700
X1.15000 Y0.25600
X1.15300 Y0.25600
X1.15300 Y0.25500
X1.15500 Y0.25500
X1.15500 Y0.25300
X1.15600 Y0.25300
X1.15600 Y0.25000
X1.15700 Y0.25000
X1.15700 Y0.24800
X1.15800 Y0.24800
X1.15800 Y0.24600
X1.15900 Y0.24600
X1.15900 Y0.24400
X1.16000 Y0.24400
X1.16000 Y0.24300
X1.16100 Y0.24300
X1.16100 Y0.24100
X1.16200 Y0.24100
X1.16200 Y0.24000
X1.16300 Y0.24000
X1.16300 Y0.23900
X1.16400 Y0.23900
X1.16400 Y0.23800
X1.16500 Y0.23800
X1.16500 Y0.23700
X1.16600 Y0.23700
X1.16600 Y0.23600
X1.16700 Y0.23600
X1.16700 Y0.23500
X1.16800 Y0.23500
X1.16800 Y0.23400
X1.16900 Y0.23400
X1.16900 Y0.23300
X1.17000 Y0.23300
X1.17000 Y0.23200
X1.17100 Y0.23200
X1.17100 Y0.23100
X1.25000 Y0.23100
X1.25000 Y0.23200
X1.25500 Y0.23200
X1.25500 Y0.23300
X1.25600 Y0.23300
X1.25600 Y0.23400
X1.25800 Y0.23400
X1.25800 Y0.23500
X1.26000 Y0.23500
X1.26000 Y0.23600
X1.26100 Y0.23600
X1.26100 Y0.23700
X1.26300 Y0.23700
X1.26300 Y0.23800
X1.26400 Y0.23800
X1.26400 Y0.24000
X1.26500 Y0.24000
X1.26500 Y0.24100
X1.26600 Y0.24100
X1.26600 Y0.24200
X1.26700 Y0.24200
X1.26700 Y0.24400
X1.26800 Y0.24400
X1.26800 Y0.24500
X1.26900 Y0.24500
X1.26900 Y0.24800
X1.27000 Y0.24800
X1.27000 Y0.25300
X1.27100 Y0.25300
X1.27100 Y0.35000
X1.27000 Y0.35000
X1.27000 Y0.35500
X1.26900 Y0.35500
X1.26900 Y0.35800
X1.26800 Y0.35800
X1.26800 Y0.35900
X1.26700 Y0.35900
X1.26700 Y0.36100
X1.26600 Y0.36100
X1.26600 Y0.36200
X1.26500 Y0.36200
X1.26500 Y0.36300
X1.26400 Y0.36300
X1.26400 Y0.36500
X1.26300 Y0.36500
X1.26300 Y0.36600
X1.26100 Y0.36600
X1.26100 Y0.36700
X1.26000 Y0.36700
X1.26000 Y0.36800
X1.25800 Y0.36800
X1.25800 Y0.36900
X1.25600 Y0.36900
X1.25600 Y0.37000
X1.25500 Y0.37000
X1.25500 Y0.37100
X1.25000 Y0.37100
X1.25000 Y0.37200
X1.15100 Y0.37200
X1.15100 Y0.37100
X1.14600 Y0.37100
X1.14600 Y0.37000
X1.14500 Y0.37000
X1.14500 Y0.36900
X1.14300 Y0.36900
X1.14300 Y0.36800
X1.14100 Y0.36800
X1.14100 Y0.36700
X1.14000 Y0.36700
X1.14000 Y0.36600
X1.13800 Y0.36600
X1.13800 Y0.36500
X1.13700 Y0.36500
X1.13700 Y0.36300
X1.13600 Y0.36300
X1.13600 Y0.36200
X1.13500 Y0.36200
X1.13500 Y0.36100
X1.13400 Y0.36100
X1.13400 Y0.35900
X1.13300 Y0.35900
X1.13300 Y0.35800
X1.13200 Y0.35800
X1.13200 Y0.35500
X1.13100 Y0.35500
X1.13100 Y0.35000
X1.13000 Y0.35000
X1.13000 Y0.32800
G04 P0 ( dwell for no time -- G64 should not smooth over this point )
G00 Z0.19685 ( retract )

G00 X0.62100 Y0.23700 ( rapid move to begin. )
G01 Z0.04921 F2.95276 ( plunge. )
G04 P0 ( dwell for no time -- G64 should not smooth over this point )
X0.62100 Y0.23700
X0.62100 Y0.12200
X0.78000 Y0.12200
X0.78000 Y0.26400
X0.76100 Y0.26400
X0.76100 Y0.26300
X0.76000 Y0.26300
X0.76000 Y0.26200
X0.75800 Y0.26200
X0.75800 Y0.26100
X0.75600 Y0.26100
X0.75600 Y0.26000
X0.75400 Y0.26000
X0.75400 Y0.25900
X0.75200 Y0.25900
X0.75200 Y0.25800
X0.74900 Y0.25800
X0.74900 Y0.25700
X0.74600 Y0.25700
X0.74600 Y0.25600
X0.74300 Y0.25600
X0.74300 Y0.25500
X0.73800 Y0.25500
X0.73800 Y0.25400
X0.73400 Y0.25400
X0.73400 Y0.25300
X0.73000 Y0.25300
X0.73000 Y0.25200
X0.71800 Y0.25200
X0.71800 Y0.25100
X0.68300 Y0.25100
X0.68300 Y0.25200
X0.67100 Y0.25200
X0.67100 Y0.25300
X0.66700 Y0.25300
X0.66700 Y0.25400
X0.66300 Y0.25400
X0.66300 Y0.25500
X0.65800 Y0.25500
X0.65800 Y0.25600
X0.65500 Y0.25600
X0.65500 Y0.25700
X0.65200 Y0.25700
X0.65200 Y0.25800
X0.64900 Y0.25800
X0.64900 Y0.25900
X0.64700 Y0.25900
X0.64700 Y0.26000
X0.64500 Y0.26000
X0.64500 Y0.26100
X0.64300 Y0.26100
X0.64300 Y0.26200
X0.64100 Y0.26200
X0.64100 Y0.26300
X0.64000 Y0.26300
X0.64000 Y0.26400
X0.62100 Y0.26400
X0.62100 Y0.23700
G04 P0 ( dwell for no time -- G64 should not smooth over this point )
G00 Z0.19685 ( retract )

G00 X1.03000 Y0.22800 ( rapid move to begin. )
G01 Z0.04921 F2.95276 ( plunge. )
G04 P0 ( dwell for no time -- G64 should not smooth over this point )
X1.03000 Y0.22800
X1.03000 Y0.13000
X1.17200 Y0.13000
X1.17200 Y0.23100
X1.17100 Y0.23100
X1.17100 Y0.23200
X1.17000 Y0.23200
X1.17000 Y0.23300
X1.16900 Y0.23300
X1.16900 Y0.23400
X1.16800 Y0.23400
X1.16800 Y0.23500
X1.16700 Y0.23500
X1.16700 Y0.23600
X1.16600 Y0.23600
X1.16600 Y0.23700
X1.16500 Y0.23700
X1.16500 Y0.23800
X1.16400 Y0.23800
X1.16400 Y0.23900
X1.16300 Y0.23900
X1.16300 Y0.24000
X1.16200 Y0.24000
X1.16200 Y0.24100
X1.16100 Y0.24100
X1.16100 Y0.24300
X1.16000 Y0.24300
X1.16000 Y0.24400
X1.15900 Y0.24400
X1.15900 Y0.24600
X1.15800 Y0.24600
X1.15800 Y0.24800
X1.15700 Y0.24800
X1.15700 Y0.25000
X1.15600 Y0.25000
X1.15600 Y0.25300
X1.15500 Y0.25300
X1.15500 Y0.25500
X1.15300 Y0.25500
X1.15300 Y0.25600
X1.15000 Y0.25600
X1.15000 Y0.25700
X1.14800 Y0.25700
X1.14800 Y0.25800
X1.14500 Y0.25800
X1.14500 Y0.25900
X1.14400 Y0.25900
X1.14400 Y0.26000
X1.14200 Y0.26000
X1.14200 Y0.26100
X1.14100 Y0.26100
X1.14100 Y0.26200
X1.13900 Y0.26200
X1.13900 Y0.26300
X1.13800 Y0.26300
X1.13800 Y0.26400
X1.13700 Y0.26400
X1.13700 Y0.26500
X1.13600 Y0.26500
X1.13600 Y0.26600
X1.13500 Y0.26600
X1.13500 Y0.26700
X1.13400 Y0.26700
X1.13400 Y0.26800
X1.13300 Y0.26800
X1.13300 Y0.26900
X1.13200 Y0.26900
X1.13200 Y0.27000
X1.13100 Y0.27000
X1.13100 Y0.27100
X1.13000 Y0.27100
X1.13000 Y0.27200
X1.03000 Y0.27200
X1.03000 Y0.22800
G04 P0 ( dwell for no time -- G64 should not smooth over this point )
G00 Z0.19685 ( retract )

G00 X0.83000 Y0.22800 ( rapid move to begin. )
G01 Z0.04921 F2.95276 ( plunge. )
G04 P0 ( dwell for no time -- G64 should not smooth over this point )
X0.83000 Y0.22800
X0.83000 Y0.13000
X0.97200 Y0.13000
X0.97200 Y0.27200
X0.83000 Y0.27200
X0.83000 Y0.22800
G04 P0 ( dwell for no time -- G64 should not smooth over this point )
G00 Z0.19685 ( retract )

G00 X0.43000 Y0.22800 ( rapid move to begin. )
G01 Z0.04921 F2.95276 ( plunge. )
G04 P0 ( dwell for no time -- G64 should not smooth over this point )
X0.43000 Y0.22800
X0.43000 Y0.13000
X0.57200 Y0.13000
X0.57200 Y0.27200
X0.43000 Y0.27200
X0.43000 Y0.22800

G04 P0 ( dwell for no time -- G64 should not smooth over this point )
G00 Z0.19685 ( retract )

M9 ( Coolant off. )
M2 ( Program end. )

