( pcb2gcode 1.1.4 )

G94     ( Inches per minute feed rate. )
G20     ( Units == INCHES.             )
G90     ( Absolute coordinates.        )
S10000  ( RPM spindle speed.           )
M3      ( Spindle on clockwise.        )

G64 P0.00500 ( set maximum deviation from commanded toolpath )

G04 P0 ( dwell for no time -- G64 should not smooth over this point )
G00 Z0.19685 ( retract )

G00 X1.06800 Y0.62800 ( rapid move to begin. )
G01 Z-0.01969 F1.96850 ( plunge. )
G04 P0 ( dwell for no time -- G64 should not smooth over this point )
X1.06800 Y0.62800
X1.06700 Y0.62800
X1.06700 Y0.62600
X1.06600 Y0.62600
X1.06600 Y0.62500
X1.06500 Y0.62500
X1.06500 Y0.62200
X1.06400 Y0.62200
X1.06400 Y0.61700
X1.06300 Y0.61700
X1.06300 Y0.58600
X1.06400 Y0.58600
X1.06400 Y0.58100
X1.06500 Y0.58100
X1.06500 Y0.57800
X1.06600 Y0.57800
X1.06600 Y0.57700
X1.06700 Y0.57700
X1.06700 Y0.57500
X1.06800 Y0.57500
X1.06800 Y0.57400
X1.06900 Y0.57400
X1.06900 Y0.57300
X1.07000 Y0.57300
X1.07000 Y0.57100
X1.07100 Y0.57100
X1.07100 Y0.57000
X1.07300 Y0.57000
X1.07300 Y0.56900
X1.07400 Y0.56900
X1.07400 Y0.56800
X1.07600 Y0.56800
X1.07600 Y0.56700
X1.07800 Y0.56700
X1.07800 Y0.56600
X1.07900 Y0.56600
X1.07900 Y0.56500
X1.08400 Y0.56500
X1.08400 Y0.56400
X1.11700 Y0.56400
X1.11700 Y0.56500
X1.12200 Y0.56500
X1.12200 Y0.56600
X1.12300 Y0.56600
X1.12300 Y0.56700
X1.12500 Y0.56700
X1.12500 Y0.56800
X1.12700 Y0.56800
X1.12700 Y0.56900
X1.12800 Y0.56900
X1.12800 Y0.57000
X1.13000 Y0.57000
X1.13000 Y0.57100
X1.13100 Y0.57100
X1.13100 Y0.57300
X1.13200 Y0.57300
X1.13200 Y0.57400
X1.13300 Y0.57400
X1.13300 Y0.57500
X1.13400 Y0.57500
X1.13400 Y0.57700
X1.13500 Y0.57700
X1.13500 Y0.57800
X1.13600 Y0.57800
X1.13600 Y0.58100
X1.13700 Y0.58100
X1.13700 Y0.58600
X1.13800 Y0.58600
X1.13800 Y0.61700
X1.13700 Y0.61700
X1.13700 Y0.62200
X1.13600 Y0.62200
X1.13600 Y0.62500
X1.13500 Y0.62500
X1.13500 Y0.62600
X1.13400 Y0.62600
X1.13400 Y0.62800
X1.13300 Y0.62800
X1.13300 Y0.62900
X1.13200 Y0.62900
X1.13200 Y0.63000
X1.13100 Y0.63000
X1.13100 Y0.63200
X1.13000 Y0.63200
X1.13000 Y0.63300
X1.12800 Y0.63300
X1.12800 Y0.63400
X1.12700 Y0.63400
X1.12700 Y0.63500
X1.12500 Y0.63500
X1.12500 Y0.63600
X1.12300 Y0.63600
X1.12300 Y0.63700
X1.12200 Y0.63700
X1.12200 Y0.63800
X1.11700 Y0.63800
X1.11700 Y0.63900
X1.08400 Y0.63900
X1.08400 Y0.63800
X1.07900 Y0.63800
X1.07900 Y0.63700
X1.07800 Y0.63700
X1.07800 Y0.63600
X1.07600 Y0.63600
X1.07600 Y0.63500
X1.07400 Y0.63500
X1.07400 Y0.63400
X1.07300 Y0.63400
X1.07300 Y0.63300
X1.07100 Y0.63300
X1.07100 Y0.63200
X1.07000 Y0.63200
X1.07000 Y0.63000
X1.06900 Y0.63000
X1.06900 Y0.62900
X1.06800 Y0.62900
X1.06800 Y0.62800
G04 P0 ( dwell for no time -- G64 should not smooth over this point )
G00 Z0.19685 ( retract )

G00 X0.86800 Y0.62800 ( rapid move to begin. )
G01 Z-0.01969 F1.96850 ( plunge. )
G04 P0 ( dwell for no time -- G64 should not smooth over this point )
X0.86800 Y0.62800
X0.86700 Y0.62800
X0.86700 Y0.62600
X0.86600 Y0.62600
X0.86600 Y0.62500
X0.86500 Y0.62500
X0.86500 Y0.62200
X0.86400 Y0.62200
X0.86400 Y0.61700
X0.86300 Y0.61700
X0.86300 Y0.58600
X0.86400 Y0.58600
X0.86400 Y0.58100
X0.86500 Y0.58100
X0.86500 Y0.57800
X0.86600 Y0.57800
X0.86600 Y0.57700
X0.86700 Y0.57700
X0.86700 Y0.57500
X0.86800 Y0.57500
X0.86800 Y0.57400
X0.86900 Y0.57400
X0.86900 Y0.57300
X0.87000 Y0.57300
X0.87000 Y0.57100
X0.87100 Y0.57100
X0.87100 Y0.57000
X0.87300 Y0.57000
X0.87300 Y0.56900
X0.87400 Y0.56900
X0.87400 Y0.56800
X0.87600 Y0.56800
X0.87600 Y0.56700
X0.87800 Y0.56700
X0.87800 Y0.56600
X0.87900 Y0.56600
X0.87900 Y0.56500
X0.88400 Y0.56500
X0.88400 Y0.56400
X0.91700 Y0.56400
X0.91700 Y0.56500
X0.92200 Y0.56500
X0.92200 Y0.56600
X0.92300 Y0.56600
X0.92300 Y0.56700
X0.92500 Y0.56700
X0.92500 Y0.56800
X0.92700 Y0.56800
X0.92700 Y0.56900
X0.92800 Y0.56900
X0.92800 Y0.57000
X0.93000 Y0.57000
X0.93000 Y0.57100
X0.93100 Y0.57100
X0.93100 Y0.57300
X0.93200 Y0.57300
X0.93200 Y0.57400
X0.93300 Y0.57400
X0.93300 Y0.57500
X0.93400 Y0.57500
X0.93400 Y0.57700
X0.93500 Y0.57700
X0.93500 Y0.57800
X0.93600 Y0.57800
X0.93600 Y0.58100
X0.93700 Y0.58100
X0.93700 Y0.58600
X0.93800 Y0.58600
X0.93800 Y0.61700
X0.93700 Y0.61700
X0.93700 Y0.62200
X0.93600 Y0.62200
X0.93600 Y0.62500
X0.93500 Y0.62500
X0.93500 Y0.62600
X0.93400 Y0.62600
X0.93400 Y0.62800
X0.93300 Y0.62800
X0.93300 Y0.62900
X0.93200 Y0.62900
X0.93200 Y0.63000
X0.93100 Y0.63000
X0.93100 Y0.63200
X0.93000 Y0.63200
X0.93000 Y0.63300
X0.92800 Y0.63300
X0.92800 Y0.63400
X0.92700 Y0.63400
X0.92700 Y0.63500
X0.92500 Y0.63500
X0.92500 Y0.63600
X0.92300 Y0.63600
X0.92300 Y0.63700
X0.92200 Y0.63700
X0.92200 Y0.63800
X0.91700 Y0.63800
X0.91700 Y0.63900
X0.88400 Y0.63900
X0.88400 Y0.63800
X0.87900 Y0.63800
X0.87900 Y0.63700
X0.87800 Y0.63700
X0.87800 Y0.63600
X0.87600 Y0.63600
X0.87600 Y0.63500
X0.87400 Y0.63500
X0.87400 Y0.63400
X0.87300 Y0.63400
X0.87300 Y0.63300
X0.87100 Y0.63300
X0.87100 Y0.63200
X0.87000 Y0.63200
X0.87000 Y0.63000
X0.86900 Y0.63000
X0.86900 Y0.62900
X0.86800 Y0.62900
X0.86800 Y0.62800
G04 P0 ( dwell for no time -- G64 should not smooth over this point )
G00 Z0.19685 ( retract )

G00 X0.46800 Y0.62800 ( rapid move to begin. )
G01 Z-0.01969 F1.96850 ( plunge. )
G04 P0 ( dwell for no time -- G64 should not smooth over this point )
X0.46800 Y0.62800
X0.46700 Y0.62800
X0.46700 Y0.62600
X0.46600 Y0.62600
X0.46600 Y0.62500
X0.46500 Y0.62500
X0.46500 Y0.62200
X0.46400 Y0.62200
X0.46400 Y0.61700
X0.46300 Y0.61700
X0.46300 Y0.58600
X0.46400 Y0.58600
X0.46400 Y0.58100
X0.46500 Y0.58100
X0.46500 Y0.57800
X0.46600 Y0.57800
X0.46600 Y0.57700
X0.46700 Y0.57700
X0.46700 Y0.57500
X0.46800 Y0.57500
X0.46800 Y0.57400
X0.46900 Y0.57400
X0.46900 Y0.57300
X0.47000 Y0.57300
X0.47000 Y0.57100
X0.47100 Y0.57100
X0.47100 Y0.57000
X0.47300 Y0.57000
X0.47300 Y0.56900
X0.47400 Y0.56900
X0.47400 Y0.56800
X0.47600 Y0.56800
X0.47600 Y0.56700
X0.47800 Y0.56700
X0.47800 Y0.56600
X0.47900 Y0.56600
X0.47900 Y0.56500
X0.48400 Y0.56500
X0.48400 Y0.56400
X0.51700 Y0.56400
X0.51700 Y0.56500
X0.52200 Y0.56500
X0.52200 Y0.56600
X0.52300 Y0.56600
X0.52300 Y0.56700
X0.52500 Y0.56700
X0.52500 Y0.56800
X0.52700 Y0.56800
X0.52700 Y0.56900
X0.52800 Y0.56900
X0.52800 Y0.57000
X0.53000 Y0.57000
X0.53000 Y0.57100
X0.53100 Y0.57100
X0.53100 Y0.57300
X0.53200 Y0.57300
X0.53200 Y0.57400
X0.53300 Y0.57400
X0.53300 Y0.57500
X0.53400 Y0.57500
X0.53400 Y0.57700
X0.53500 Y0.57700
X0.53500 Y0.57800
X0.53600 Y0.57800
X0.53600 Y0.58100
X0.53700 Y0.58100
X0.53700 Y0.58600
X0.53800 Y0.58600
X0.53800 Y0.61700
X0.53700 Y0.61700
X0.53700 Y0.62200
X0.53600 Y0.62200
X0.53600 Y0.62500
X0.53500 Y0.62500
X0.53500 Y0.62600
X0.53400 Y0.62600
X0.53400 Y0.62800
X0.53300 Y0.62800
X0.53300 Y0.62900
X0.53200 Y0.62900
X0.53200 Y0.63000
X0.53100 Y0.63000
X0.53100 Y0.63200
X0.53000 Y0.63200
X0.53000 Y0.63300
X0.52800 Y0.63300
X0.52800 Y0.63400
X0.52700 Y0.63400
X0.52700 Y0.63500
X0.52500 Y0.63500
X0.52500 Y0.63600
X0.52300 Y0.63600
X0.52300 Y0.63700
X0.52200 Y0.63700
X0.52200 Y0.63800
X0.51700 Y0.63800
X0.51700 Y0.63900
X0.48400 Y0.63900
X0.48400 Y0.63800
X0.47900 Y0.63800
X0.47900 Y0.63700
X0.47800 Y0.63700
X0.47800 Y0.63600
X0.47600 Y0.63600
X0.47600 Y0.63500
X0.47400 Y0.63500
X0.47400 Y0.63400
X0.47300 Y0.63400
X0.47300 Y0.63300
X0.47100 Y0.63300
X0.47100 Y0.63200
X0.47000 Y0.63200
X0.47000 Y0.63000
X0.46900 Y0.63000
X0.46900 Y0.62900
X0.46800 Y0.62900
X0.46800 Y0.62800
G04 P0 ( dwell for no time -- G64 should not smooth over this point )
G00 Z0.19685 ( retract )

G00 X1.57000 Y0.52600 ( rapid move to begin. )
G01 Z-0.01969 F1.96850 ( plunge. )
G04 P0 ( dwell for no time -- G64 should not smooth over this point )
X1.57000 Y0.52600
X1.56900 Y0.52600
X1.56900 Y0.52500
X1.56800 Y0.52500
X1.56800 Y0.52300
X1.56700 Y0.52300
X1.56700 Y0.52000
X1.56600 Y0.52000
X1.56600 Y0.51500
X1.56500 Y0.51500
X1.56500 Y0.48800
X1.56600 Y0.48800
X1.56600 Y0.48300
X1.56700 Y0.48300
X1.56700 Y0.48000
X1.56800 Y0.48000
X1.56800 Y0.47800
X1.56900 Y0.47800
X1.56900 Y0.47700
X1.57000 Y0.47700
X1.57000 Y0.47500
X1.57100 Y0.47500
X1.57100 Y0.47400
X1.57200 Y0.47400
X1.57200 Y0.47300
X1.57300 Y0.47300
X1.57300 Y0.47200
X1.57400 Y0.47200
X1.57400 Y0.47100
X1.57600 Y0.47100
X1.57600 Y0.47000
X1.57800 Y0.47000
X1.57800 Y0.46900
X1.57900 Y0.46900
X1.57900 Y0.46800
X1.58100 Y0.46800
X1.58100 Y0.46700
X1.58700 Y0.46700
X1.58700 Y0.46600
X1.61400 Y0.46600
X1.61400 Y0.46700
X1.62000 Y0.46700
X1.62000 Y0.46800
X1.62200 Y0.46800
X1.62200 Y0.46900
X1.62300 Y0.46900
X1.62300 Y0.47000
X1.62500 Y0.47000
X1.62500 Y0.47100
X1.62700 Y0.47100
X1.62700 Y0.47200
X1.62800 Y0.47200
X1.62800 Y0.47300
X1.62900 Y0.47300
X1.62900 Y0.47400
X1.63000 Y0.47400
X1.63000 Y0.47500
X1.63100 Y0.47500
X1.63100 Y0.47700
X1.63200 Y0.47700
X1.63200 Y0.47800
X1.63300 Y0.47800
X1.63300 Y0.48000
X1.63400 Y0.48000
X1.63400 Y0.48300
X1.63500 Y0.48300
X1.63500 Y0.48800
X1.63600 Y0.48800
X1.63600 Y0.51500
X1.63500 Y0.51500
X1.63500 Y0.52000
X1.63400 Y0.52000
X1.63400 Y0.52300
X1.63300 Y0.52300
X1.63300 Y0.52500
X1.63200 Y0.52500
X1.63200 Y0.52600
X1.63100 Y0.52600
X1.63100 Y0.52800
X1.63000 Y0.52800
X1.63000 Y0.52900
X1.62900 Y0.52900
X1.62900 Y0.53000
X1.62800 Y0.53000
X1.62800 Y0.53100
X1.62700 Y0.53100
X1.62700 Y0.53200
X1.62500 Y0.53200
X1.62500 Y0.53300
X1.62300 Y0.53300
X1.62300 Y0.53400
X1.62200 Y0.53400
X1.62200 Y0.53500
X1.62000 Y0.53500
X1.62000 Y0.53600
X1.61400 Y0.53600
X1.61400 Y0.53700
X1.58700 Y0.53700
X1.58700 Y0.53600
X1.58100 Y0.53600
X1.58100 Y0.53500
X1.57900 Y0.53500
X1.57900 Y0.53400
X1.57800 Y0.53400
X1.57800 Y0.53300
X1.57600 Y0.53300
X1.57600 Y0.53200
X1.57400 Y0.53200
X1.57400 Y0.53100
X1.57300 Y0.53100
X1.57300 Y0.53000
X1.57200 Y0.53000
X1.57200 Y0.52900
X1.57100 Y0.52900
X1.57100 Y0.52800
X1.57000 Y0.52800
X1.57000 Y0.52600
G04 P0 ( dwell for no time -- G64 should not smooth over this point )
G00 Z0.19685 ( retract )

G00 X1.16500 Y0.52600 ( rapid move to begin. )
G01 Z-0.01969 F1.96850 ( plunge. )
G04 P0 ( dwell for no time -- G64 should not smooth over this point )
X1.16500 Y0.52600
X1.16500 Y0.46600
X1.23600 Y0.46600
X1.23600 Y0.53700
X1.16500 Y0.53700
X1.16500 Y0.52600
G04 P0 ( dwell for no time -- G64 should not smooth over this point )
G00 Z0.19685 ( retract )

G00 X0.66400 Y0.43700 ( rapid move to begin. )
G01 Z-0.01969 F1.96850 ( plunge. )
G04 P0 ( dwell for no time -- G64 should not smooth over this point )
X0.66400 Y0.43700
X0.66300 Y0.43700
X0.66300 Y0.43600
X0.66200 Y0.43600
X0.66200 Y0.43500
X0.66100 Y0.43500
X0.66100 Y0.43400
X0.66000 Y0.43400
X0.66000 Y0.43200
X0.65900 Y0.43200
X0.65900 Y0.43000
X0.65800 Y0.43000
X0.65800 Y0.42800
X0.65700 Y0.42800
X0.65700 Y0.42600
X0.65600 Y0.42600
X0.65600 Y0.42300
X0.65500 Y0.42300
X0.65500 Y0.41700
X0.65400 Y0.41700
X0.65400 Y0.38600
X0.65500 Y0.38600
X0.65500 Y0.38000
X0.65600 Y0.38000
X0.65600 Y0.37700
X0.65700 Y0.37700
X0.65700 Y0.37500
X0.65800 Y0.37500
X0.65800 Y0.37300
X0.65900 Y0.37300
X0.65900 Y0.37100
X0.66000 Y0.37100
X0.66000 Y0.36900
X0.66100 Y0.36900
X0.66100 Y0.36800
X0.66200 Y0.36800
X0.66200 Y0.36700
X0.66300 Y0.36700
X0.66300 Y0.36600
X0.66400 Y0.36600
X0.66400 Y0.36500
X0.66500 Y0.36500
X0.66500 Y0.36400
X0.66600 Y0.36400
X0.66600 Y0.36300
X0.66800 Y0.36300
X0.66800 Y0.36200
X0.67000 Y0.36200
X0.67000 Y0.36100
X0.67100 Y0.36100
X0.67100 Y0.36000
X0.67300 Y0.36000
X0.67300 Y0.35900
X0.67500 Y0.35900
X0.67500 Y0.35800
X0.67600 Y0.35800
X0.67600 Y0.35700
X0.68100 Y0.35700
X0.68100 Y0.35600
X0.68700 Y0.35600
X0.68700 Y0.35500
X0.71400 Y0.35500
X0.71400 Y0.35600
X0.72000 Y0.35600
X0.72000 Y0.35700
X0.72500 Y0.35700
X0.72500 Y0.35800
X0.72600 Y0.35800
X0.72600 Y0.35900
X0.72800 Y0.35900
X0.72800 Y0.36000
X0.73000 Y0.36000
X0.73000 Y0.36100
X0.73100 Y0.36100
X0.73100 Y0.36200
X0.73300 Y0.36200
X0.73300 Y0.36300
X0.73500 Y0.36300
X0.73500 Y0.36400
X0.73600 Y0.36400
X0.73600 Y0.36500
X0.73700 Y0.36500
X0.73700 Y0.36600
X0.73800 Y0.36600
X0.73800 Y0.36700
X0.73900 Y0.36700
X0.73900 Y0.36800
X0.74000 Y0.36800
X0.74000 Y0.36900
X0.74100 Y0.36900
X0.74100 Y0.37100
X0.74200 Y0.37100
X0.74200 Y0.37300
X0.74300 Y0.37300
X0.74300 Y0.37500
X0.74400 Y0.37500
X0.74400 Y0.37700
X0.74500 Y0.37700
X0.74500 Y0.38000
X0.74600 Y0.38000
X0.74600 Y0.38600
X0.74700 Y0.38600
X0.74700 Y0.41700
X0.74600 Y0.41700
X0.74600 Y0.42300
X0.74500 Y0.42300
X0.74500 Y0.42600
X0.74400 Y0.42600
X0.74400 Y0.42800
X0.74300 Y0.42800
X0.74300 Y0.43000
X0.74200 Y0.43000
X0.74200 Y0.43200
X0.74100 Y0.43200
X0.74100 Y0.43400
X0.74000 Y0.43400
X0.74000 Y0.43500
X0.73900 Y0.43500
X0.73900 Y0.43600
X0.73800 Y0.43600
X0.73800 Y0.43700
X0.73700 Y0.43700
X0.73700 Y0.43800
X0.73600 Y0.43800
X0.73600 Y0.43900
X0.73500 Y0.43900
X0.73500 Y0.44000
X0.73300 Y0.44000
X0.73300 Y0.44100
X0.73100 Y0.44100
X0.73100 Y0.44200
X0.73000 Y0.44200
X0.73000 Y0.44300
X0.72800 Y0.44300
X0.72800 Y0.44400
X0.72600 Y0.44400
X0.72600 Y0.44500
X0.72500 Y0.44500
X0.72500 Y0.44600
X0.72000 Y0.44600
X0.72000 Y0.44700
X0.71400 Y0.44700
X0.71400 Y0.44800
X0.68700 Y0.44800
X0.68700 Y0.44700
X0.68100 Y0.44700
X0.68100 Y0.44600
X0.67600 Y0.44600
X0.67600 Y0.44500
X0.67500 Y0.44500
X0.67500 Y0.44400
X0.67300 Y0.44400
X0.67300 Y0.44300
X0.67100 Y0.44300
X0.67100 Y0.44200
X0.67000 Y0.44200
X0.67000 Y0.44100
X0.66800 Y0.44100
X0.66800 Y0.44000
X0.66600 Y0.44000
X0.66600 Y0.43900
X0.66500 Y0.43900
X0.66500 Y0.43800
X0.66400 Y0.43800
X0.66400 Y0.43700
G04 P0 ( dwell for no time -- G64 should not smooth over this point )
G00 Z0.19685 ( retract )

G00 X2.26700 Y0.43100 ( rapid move to begin. )
G01 Z-0.01969 F1.96850 ( plunge. )
G04 P0 ( dwell for no time -- G64 should not smooth over this point )
X2.26700 Y0.43100
X2.26600 Y0.43100
X2.26600 Y0.42900
X2.26500 Y0.42900
X2.26500 Y0.42800
X2.26400 Y0.42800
X2.26400 Y0.42600
X2.26300 Y0.42600
X2.26300 Y0.42500
X2.26200 Y0.42500
X2.26200 Y0.42000
X2.26100 Y0.42000
X2.26100 Y0.41500
X2.26000 Y0.41500
X2.26000 Y0.38800
X2.26100 Y0.38800
X2.26100 Y0.38300
X2.26200 Y0.38300
X2.26200 Y0.37800
X2.26300 Y0.37800
X2.26300 Y0.37700
X2.26400 Y0.37700
X2.26400 Y0.37500
X2.26500 Y0.37500
X2.26500 Y0.37400
X2.26600 Y0.37400
X2.26600 Y0.37200
X2.26700 Y0.37200
X2.26700 Y0.37100
X2.26800 Y0.37100
X2.26800 Y0.37000
X2.26900 Y0.37000
X2.26900 Y0.36800
X2.27100 Y0.36800
X2.27100 Y0.36700
X2.27300 Y0.36700
X2.27300 Y0.36600
X2.27500 Y0.36600
X2.27500 Y0.36500
X2.27600 Y0.36500
X2.27600 Y0.36400
X2.27800 Y0.36400
X2.27800 Y0.36300
X2.28100 Y0.36300
X2.28100 Y0.36200
X2.28700 Y0.36200
X2.28700 Y0.36100
X2.31400 Y0.36100
X2.31400 Y0.36200
X2.32000 Y0.36200
X2.32000 Y0.36300
X2.32300 Y0.36300
X2.32300 Y0.36400
X2.32500 Y0.36400
X2.32500 Y0.36500
X2.32700 Y0.36500
X2.32700 Y0.36600
X2.32800 Y0.36600
X2.32800 Y0.36700
X2.33000 Y0.36700
X2.33000 Y0.36800
X2.33200 Y0.36800
X2.33200 Y0.37000
X2.33300 Y0.37000
X2.33300 Y0.37100
X2.33400 Y0.37100
X2.33400 Y0.37200
X2.33500 Y0.37200
X2.33500 Y0.37400
X2.33600 Y0.37400
X2.33600 Y0.37500
X2.33700 Y0.37500
X2.33700 Y0.37700
X2.33800 Y0.37700
X2.33800 Y0.37800
X2.33900 Y0.37800
X2.33900 Y0.38300
X2.34000 Y0.38300
X2.34000 Y0.38800
X2.34100 Y0.38800
X2.34100 Y0.41500
X2.34000 Y0.41500
X2.34000 Y0.42000
X2.33900 Y0.42000
X2.33900 Y0.42500
X2.33800 Y0.42500
X2.33800 Y0.42600
X2.33700 Y0.42600
X2.33700 Y0.42800
X2.33600 Y0.42800
X2.33600 Y0.42900
X2.33500 Y0.42900
X2.33500 Y0.43100
X2.33400 Y0.43100
X2.33400 Y0.43200
X2.33300 Y0.43200
X2.33300 Y0.43300
X2.33200 Y0.43300
X2.33200 Y0.43500
X2.33000 Y0.43500
X2.33000 Y0.43600
X2.32800 Y0.43600
X2.32800 Y0.43700
X2.32700 Y0.43700
X2.32700 Y0.43800
X2.32500 Y0.43800
X2.32500 Y0.43900
X2.32300 Y0.43900
X2.32300 Y0.44000
X2.32000 Y0.44000
X2.32000 Y0.44100
X2.31400 Y0.44100
X2.31400 Y0.44200
X2.28700 Y0.44200
X2.28700 Y0.44100
X2.28100 Y0.44100
X2.28100 Y0.44000
X2.27800 Y0.44000
X2.27800 Y0.43900
X2.27600 Y0.43900
X2.27600 Y0.43800
X2.27500 Y0.43800
X2.27500 Y0.43700
X2.27300 Y0.43700
X2.27300 Y0.43600
X2.27100 Y0.43600
X2.27100 Y0.43500
X2.26900 Y0.43500
X2.26900 Y0.43300
X2.26800 Y0.43300
X2.26800 Y0.43200
X2.26700 Y0.43200
X2.26700 Y0.43100
G04 P0 ( dwell for no time -- G64 should not smooth over this point )
G00 Z0.19685 ( retract )

G00 X1.76700 Y0.43100 ( rapid move to begin. )
G01 Z-0.01969 F1.96850 ( plunge. )
G04 P0 ( dwell for no time -- G64 should not smooth over this point )
X1.76700 Y0.43100
X1.76600 Y0.43100
X1.76600 Y0.42900
X1.76500 Y0.42900
X1.76500 Y0.42800
X1.76400 Y0.42800
X1.76400 Y0.42600
X1.76300 Y0.42600
X1.76300 Y0.42500
X1.76200 Y0.42500
X1.76200 Y0.42000
X1.76100 Y0.42000
X1.76100 Y0.41500
X1.76000 Y0.41500
X1.76000 Y0.38800
X1.76100 Y0.38800
X1.76100 Y0.38300
X1.76200 Y0.38300
X1.76200 Y0.37800
X1.76300 Y0.37800
X1.76300 Y0.37700
X1.76400 Y0.37700
X1.76400 Y0.37500
X1.76500 Y0.37500
X1.76500 Y0.37400
X1.76600 Y0.37400
X1.76600 Y0.37200
X1.76700 Y0.37200
X1.76700 Y0.37100
X1.76800 Y0.37100
X1.76800 Y0.37000
X1.76900 Y0.37000
X1.76900 Y0.36800
X1.77100 Y0.36800
X1.77100 Y0.36700
X1.77300 Y0.36700
X1.77300 Y0.36600
X1.77500 Y0.36600
X1.77500 Y0.36500
X1.77600 Y0.36500
X1.77600 Y0.36400
X1.77800 Y0.36400
X1.77800 Y0.36300
X1.78100 Y0.36300
X1.78100 Y0.36200
X1.78700 Y0.36200
X1.78700 Y0.36100
X1.81400 Y0.36100
X1.81400 Y0.36200
X1.82000 Y0.36200
X1.82000 Y0.36300
X1.82300 Y0.36300
X1.82300 Y0.36400
X1.82500 Y0.36400
X1.82500 Y0.36500
X1.82700 Y0.36500
X1.82700 Y0.36600
X1.82800 Y0.36600
X1.82800 Y0.36700
X1.83000 Y0.36700
X1.83000 Y0.36800
X1.83200 Y0.36800
X1.83200 Y0.37000
X1.83300 Y0.37000
X1.83300 Y0.37100
X1.83400 Y0.37100
X1.83400 Y0.37200
X1.83500 Y0.37200
X1.83500 Y0.37400
X1.83600 Y0.37400
X1.83600 Y0.37500
X1.83700 Y0.37500
X1.83700 Y0.37700
X1.83800 Y0.37700
X1.83800 Y0.37800
X1.83900 Y0.37800
X1.83900 Y0.38300
X1.84000 Y0.38300
X1.84000 Y0.38800
X1.84100 Y0.38800
X1.84100 Y0.41500
X1.84000 Y0.41500
X1.84000 Y0.42000
X1.83900 Y0.42000
X1.83900 Y0.42500
X1.83800 Y0.42500
X1.83800 Y0.42600
X1.83700 Y0.42600
X1.83700 Y0.42800
X1.83600 Y0.42800
X1.83600 Y0.42900
X1.83500 Y0.42900
X1.83500 Y0.43100
X1.83400 Y0.43100
X1.83400 Y0.43200
X1.83300 Y0.43200
X1.83300 Y0.43300
X1.83200 Y0.43300
X1.83200 Y0.43500
X1.83000 Y0.43500
X1.83000 Y0.43600
X1.82800 Y0.43600
X1.82800 Y0.43700
X1.82700 Y0.43700
X1.82700 Y0.43800
X1.82500 Y0.43800
X1.82500 Y0.43900
X1.82300 Y0.43900
X1.82300 Y0.44000
X1.82000 Y0.44000
X1.82000 Y0.44100
X1.81400 Y0.44100
X1.81400 Y0.44200
X1.78700 Y0.44200
X1.78700 Y0.44100
X1.78100 Y0.44100
X1.78100 Y0.44000
X1.77800 Y0.44000
X1.77800 Y0.43900
X1.77600 Y0.43900
X1.77600 Y0.43800
X1.77500 Y0.43800
X1.77500 Y0.43700
X1.77300 Y0.43700
X1.77300 Y0.43600
X1.77100 Y0.43600
X1.77100 Y0.43500
X1.76900 Y0.43500
X1.76900 Y0.43300
X1.76800 Y0.43300
X1.76800 Y0.43200
X1.76700 Y0.43200
X1.76700 Y0.43100
G04 P0 ( dwell for no time -- G64 should not smooth over this point )
G00 Z0.19685 ( retract )

G00 X0.26700 Y0.43100 ( rapid move to begin. )
G01 Z-0.01969 F1.96850 ( plunge. )
G04 P0 ( dwell for no time -- G64 should not smooth over this point )
X0.26700 Y0.43100
X0.26600 Y0.43100
X0.26600 Y0.42900
X0.26500 Y0.42900
X0.26500 Y0.42800
X0.26400 Y0.42800
X0.26400 Y0.42600
X0.26300 Y0.42600
X0.26300 Y0.42500
X0.26200 Y0.42500
X0.26200 Y0.42000
X0.26100 Y0.42000
X0.26100 Y0.41500
X0.26000 Y0.41500
X0.26000 Y0.38800
X0.26100 Y0.38800
X0.26100 Y0.38300
X0.26200 Y0.38300
X0.26200 Y0.37800
X0.26300 Y0.37800
X0.26300 Y0.37700
X0.26400 Y0.37700
X0.26400 Y0.37500
X0.26500 Y0.37500
X0.26500 Y0.37400
X0.26600 Y0.37400
X0.26600 Y0.37200
X0.26700 Y0.37200
X0.26700 Y0.37100
X0.26800 Y0.37100
X0.26800 Y0.37000
X0.26900 Y0.37000
X0.26900 Y0.36800
X0.27100 Y0.36800
X0.27100 Y0.36700
X0.27300 Y0.36700
X0.27300 Y0.36600
X0.27500 Y0.36600
X0.27500 Y0.36500
X0.27600 Y0.36500
X0.27600 Y0.36400
X0.27800 Y0.36400
X0.27800 Y0.36300
X0.28100 Y0.36300
X0.28100 Y0.36200
X0.28700 Y0.36200
X0.28700 Y0.36100
X0.31400 Y0.36100
X0.31400 Y0.36200
X0.32000 Y0.36200
X0.32000 Y0.36300
X0.32300 Y0.36300
X0.32300 Y0.36400
X0.32500 Y0.36400
X0.32500 Y0.36500
X0.32700 Y0.36500
X0.32700 Y0.36600
X0.32800 Y0.36600
X0.32800 Y0.36700
X0.33000 Y0.36700
X0.33000 Y0.36800
X0.33200 Y0.36800
X0.33200 Y0.37000
X0.33300 Y0.37000
X0.33300 Y0.37100
X0.33400 Y0.37100
X0.33400 Y0.37200
X0.33500 Y0.37200
X0.33500 Y0.37400
X0.33600 Y0.37400
X0.33600 Y0.37500
X0.33700 Y0.37500
X0.33700 Y0.37700
X0.33800 Y0.37700
X0.33800 Y0.37800
X0.33900 Y0.37800
X0.33900 Y0.38300
X0.34000 Y0.38300
X0.34000 Y0.38800
X0.34100 Y0.38800
X0.34100 Y0.41500
X0.34000 Y0.41500
X0.34000 Y0.42000
X0.33900 Y0.42000
X0.33900 Y0.42500
X0.33800 Y0.42500
X0.33800 Y0.42600
X0.33700 Y0.42600
X0.33700 Y0.42800
X0.33600 Y0.42800
X0.33600 Y0.42900
X0.33500 Y0.42900
X0.33500 Y0.43100
X0.33400 Y0.43100
X0.33400 Y0.43200
X0.33300 Y0.43200
X0.33300 Y0.43300
X0.33200 Y0.43300
X0.33200 Y0.43500
X0.33000 Y0.43500
X0.33000 Y0.43600
X0.32800 Y0.43600
X0.32800 Y0.43700
X0.32700 Y0.43700
X0.32700 Y0.43800
X0.32500 Y0.43800
X0.32500 Y0.43900
X0.32300 Y0.43900
X0.32300 Y0.44000
X0.32000 Y0.44000
X0.32000 Y0.44100
X0.31400 Y0.44100
X0.31400 Y0.44200
X0.28700 Y0.44200
X0.28700 Y0.44100
X0.28100 Y0.44100
X0.28100 Y0.44000
X0.27800 Y0.44000
X0.27800 Y0.43900
X0.27600 Y0.43900
X0.27600 Y0.43800
X0.27500 Y0.43800
X0.27500 Y0.43700
X0.27300 Y0.43700
X0.27300 Y0.43600
X0.27100 Y0.43600
X0.27100 Y0.43500
X0.26900 Y0.43500
X0.26900 Y0.43300
X0.26800 Y0.43300
X0.26800 Y0.43200
X0.26700 Y0.43200
X0.26700 Y0.43100
G04 P0 ( dwell for no time -- G64 should not smooth over this point )
G00 Z0.19685 ( retract )

G00 X0.66400 Y0.33700 ( rapid move to begin. )
G01 Z-0.01969 F1.96850 ( plunge. )
G04 P0 ( dwell for no time -- G64 should not smooth over this point )
X0.66400 Y0.33700
X0.66300 Y0.33700
X0.66300 Y0.33600
X0.66200 Y0.33600
X0.66200 Y0.33500
X0.66100 Y0.33500
X0.66100 Y0.33400
X0.66000 Y0.33400
X0.66000 Y0.33200
X0.65900 Y0.33200
X0.65900 Y0.33000
X0.65800 Y0.33000
X0.65800 Y0.32800
X0.65700 Y0.32800
X0.65700 Y0.32600
X0.65600 Y0.32600
X0.65600 Y0.32300
X0.65500 Y0.32300
X0.65500 Y0.31700
X0.65400 Y0.31700
X0.65400 Y0.28600
X0.65500 Y0.28600
X0.65500 Y0.28000
X0.65600 Y0.28000
X0.65600 Y0.27700
X0.65700 Y0.27700
X0.65700 Y0.27500
X0.65800 Y0.27500
X0.65800 Y0.27300
X0.65900 Y0.27300
X0.65900 Y0.27100
X0.66000 Y0.27100
X0.66000 Y0.26900
X0.66100 Y0.26900
X0.66100 Y0.26800
X0.66200 Y0.26800
X0.66200 Y0.26700
X0.66300 Y0.26700
X0.66300 Y0.26600
X0.66400 Y0.26600
X0.66400 Y0.26500
X0.66500 Y0.26500
X0.66500 Y0.26400
X0.66600 Y0.26400
X0.66600 Y0.26300
X0.66800 Y0.26300
X0.66800 Y0.26200
X0.67000 Y0.26200
X0.67000 Y0.26100
X0.67100 Y0.26100
X0.67100 Y0.26000
X0.67300 Y0.26000
X0.67300 Y0.25900
X0.67500 Y0.25900
X0.67500 Y0.25800
X0.67600 Y0.25800
X0.67600 Y0.25700
X0.68100 Y0.25700
X0.68100 Y0.25600
X0.68700 Y0.25600
X0.68700 Y0.25500
X0.71400 Y0.25500
X0.71400 Y0.25600
X0.72000 Y0.25600
X0.72000 Y0.25700
X0.72500 Y0.25700
X0.72500 Y0.25800
X0.72600 Y0.25800
X0.72600 Y0.25900
X0.72800 Y0.25900
X0.72800 Y0.26000
X0.73000 Y0.26000
X0.73000 Y0.26100
X0.73100 Y0.26100
X0.73100 Y0.26200
X0.73300 Y0.26200
X0.73300 Y0.26300
X0.73500 Y0.26300
X0.73500 Y0.26400
X0.73600 Y0.26400
X0.73600 Y0.26500
X0.73700 Y0.26500
X0.73700 Y0.26600
X0.73800 Y0.26600
X0.73800 Y0.26700
X0.73900 Y0.26700
X0.73900 Y0.26800
X0.74000 Y0.26800
X0.74000 Y0.26900
X0.74100 Y0.26900
X0.74100 Y0.27100
X0.74200 Y0.27100
X0.74200 Y0.27300
X0.74300 Y0.27300
X0.74300 Y0.27500
X0.74400 Y0.27500
X0.74400 Y0.27700
X0.74500 Y0.27700
X0.74500 Y0.28000
X0.74600 Y0.28000
X0.74600 Y0.28600
X0.74700 Y0.28600
X0.74700 Y0.31700
X0.74600 Y0.31700
X0.74600 Y0.32300
X0.74500 Y0.32300
X0.74500 Y0.32600
X0.74400 Y0.32600
X0.74400 Y0.32800
X0.74300 Y0.32800
X0.74300 Y0.33000
X0.74200 Y0.33000
X0.74200 Y0.33200
X0.74100 Y0.33200
X0.74100 Y0.33400
X0.74000 Y0.33400
X0.74000 Y0.33500
X0.73900 Y0.33500
X0.73900 Y0.33600
X0.73800 Y0.33600
X0.73800 Y0.33700
X0.73700 Y0.33700
X0.73700 Y0.33800
X0.73600 Y0.33800
X0.73600 Y0.33900
X0.73500 Y0.33900
X0.73500 Y0.34000
X0.73300 Y0.34000
X0.73300 Y0.34100
X0.73100 Y0.34100
X0.73100 Y0.34200
X0.73000 Y0.34200
X0.73000 Y0.34300
X0.72800 Y0.34300
X0.72800 Y0.34400
X0.72600 Y0.34400
X0.72600 Y0.34500
X0.72500 Y0.34500
X0.72500 Y0.34600
X0.72000 Y0.34600
X0.72000 Y0.34700
X0.71400 Y0.34700
X0.71400 Y0.34800
X0.68700 Y0.34800
X0.68700 Y0.34700
X0.68100 Y0.34700
X0.68100 Y0.34600
X0.67600 Y0.34600
X0.67600 Y0.34500
X0.67500 Y0.34500
X0.67500 Y0.34400
X0.67300 Y0.34400
X0.67300 Y0.34300
X0.67100 Y0.34300
X0.67100 Y0.34200
X0.67000 Y0.34200
X0.67000 Y0.34100
X0.66800 Y0.34100
X0.66800 Y0.34000
X0.66600 Y0.34000
X0.66600 Y0.33900
X0.66500 Y0.33900
X0.66500 Y0.33800
X0.66400 Y0.33800
X0.66400 Y0.33700
G04 P0 ( dwell for no time -- G64 should not smooth over this point )
G00 Z0.19685 ( retract )

G00 X2.26000 Y0.33100 ( rapid move to begin. )
G01 Z-0.01969 F1.96850 ( plunge. )
G04 P0 ( dwell for no time -- G64 should not smooth over this point )
X2.26000 Y0.33100
X2.26000 Y0.26100
X2.34100 Y0.26100
X2.34100 Y0.34200
X2.26000 Y0.34200
X2.26000 Y0.33100
G04 P0 ( dwell for no time -- G64 should not smooth over this point )
G00 Z0.19685 ( retract )

G00 X1.76000 Y0.33100 ( rapid move to begin. )
G01 Z-0.01969 F1.96850 ( plunge. )
G04 P0 ( dwell for no time -- G64 should not smooth over this point )
X1.76000 Y0.33100
X1.76000 Y0.26100
X1.84100 Y0.26100
X1.84100 Y0.34200
X1.76000 Y0.34200
X1.76000 Y0.33100
G04 P0 ( dwell for no time -- G64 should not smooth over this point )
G00 Z0.19685 ( retract )

G00 X0.26000 Y0.33100 ( rapid move to begin. )
G01 Z-0.01969 F1.96850 ( plunge. )
G04 P0 ( dwell for no time -- G64 should not smooth over this point )
X0.26000 Y0.33100
X0.26000 Y0.26100
X0.34100 Y0.26100
X0.34100 Y0.34200
X0.26000 Y0.34200
X0.26000 Y0.33100
G04 P0 ( dwell for no time -- G64 should not smooth over this point )
G00 Z0.19685 ( retract )

G00 X1.56300 Y0.32800 ( rapid move to begin. )
G01 Z-0.01969 F1.96850 ( plunge. )
G04 P0 ( dwell for no time -- G64 should not smooth over this point )
X1.56300 Y0.32800
X1.56300 Y0.26300
X1.63900 Y0.26300
X1.63900 Y0.33900
X1.56300 Y0.33900
X1.56300 Y0.32800
G04 P0 ( dwell for no time -- G64 should not smooth over this point )
G00 Z0.19685 ( retract )

G00 X1.16800 Y0.32800 ( rapid move to begin. )
G01 Z-0.01969 F1.96850 ( plunge. )
G04 P0 ( dwell for no time -- G64 should not smooth over this point )
X1.16800 Y0.32800
X1.16700 Y0.32800
X1.16700 Y0.32600
X1.16600 Y0.32600
X1.16600 Y0.32500
X1.16500 Y0.32500
X1.16500 Y0.32200
X1.16400 Y0.32200
X1.16400 Y0.31700
X1.16300 Y0.31700
X1.16300 Y0.28600
X1.16400 Y0.28600
X1.16400 Y0.28100
X1.16500 Y0.28100
X1.16500 Y0.27800
X1.16600 Y0.27800
X1.16600 Y0.27700
X1.16700 Y0.27700
X1.16700 Y0.27500
X1.16800 Y0.27500
X1.16800 Y0.27400
X1.16900 Y0.27400
X1.16900 Y0.27300
X1.17000 Y0.27300
X1.17000 Y0.27100
X1.17100 Y0.27100
X1.17100 Y0.27000
X1.17300 Y0.27000
X1.17300 Y0.26900
X1.17400 Y0.26900
X1.17400 Y0.26800
X1.17600 Y0.26800
X1.17600 Y0.26700
X1.17800 Y0.26700
X1.17800 Y0.26600
X1.17900 Y0.26600
X1.17900 Y0.26500
X1.18400 Y0.26500
X1.18400 Y0.26400
X1.21700 Y0.26400
X1.21700 Y0.26500
X1.22200 Y0.26500
X1.22200 Y0.26600
X1.22300 Y0.26600
X1.22300 Y0.26700
X1.22500 Y0.26700
X1.22500 Y0.26800
X1.22700 Y0.26800
X1.22700 Y0.26900
X1.22800 Y0.26900
X1.22800 Y0.27000
X1.23000 Y0.27000
X1.23000 Y0.27100
X1.23100 Y0.27100
X1.23100 Y0.27300
X1.23200 Y0.27300
X1.23200 Y0.27400
X1.23300 Y0.27400
X1.23300 Y0.27500
X1.23400 Y0.27500
X1.23400 Y0.27700
X1.23500 Y0.27700
X1.23500 Y0.27800
X1.23600 Y0.27800
X1.23600 Y0.28100
X1.23700 Y0.28100
X1.23700 Y0.28600
X1.23800 Y0.28600
X1.23800 Y0.31700
X1.23700 Y0.31700
X1.23700 Y0.32200
X1.23600 Y0.32200
X1.23600 Y0.32500
X1.23500 Y0.32500
X1.23500 Y0.32600
X1.23400 Y0.32600
X1.23400 Y0.32800
X1.23300 Y0.32800
X1.23300 Y0.32900
X1.23200 Y0.32900
X1.23200 Y0.33000
X1.23100 Y0.33000
X1.23100 Y0.33200
X1.23000 Y0.33200
X1.23000 Y0.33300
X1.22800 Y0.33300
X1.22800 Y0.33400
X1.22700 Y0.33400
X1.22700 Y0.33500
X1.22500 Y0.33500
X1.22500 Y0.33600
X1.22300 Y0.33600
X1.22300 Y0.33700
X1.22200 Y0.33700
X1.22200 Y0.33800
X1.21700 Y0.33800
X1.21700 Y0.33900
X1.18400 Y0.33900
X1.18400 Y0.33800
X1.17900 Y0.33800
X1.17900 Y0.33700
X1.17800 Y0.33700
X1.17800 Y0.33600
X1.17600 Y0.33600
X1.17600 Y0.33500
X1.17400 Y0.33500
X1.17400 Y0.33400
X1.17300 Y0.33400
X1.17300 Y0.33300
X1.17100 Y0.33300
X1.17100 Y0.33200
X1.17000 Y0.33200
X1.17000 Y0.33000
X1.16900 Y0.33000
X1.16900 Y0.32900
X1.16800 Y0.32900
X1.16800 Y0.32800
G04 P0 ( dwell for no time -- G64 should not smooth over this point )
G00 Z0.19685 ( retract )

G00 X0.65400 Y0.23700 ( rapid move to begin. )
G01 Z-0.01969 F1.96850 ( plunge. )
G04 P0 ( dwell for no time -- G64 should not smooth over this point )
X0.65400 Y0.23700
X0.65400 Y0.15500
X0.74700 Y0.15500
X0.74700 Y0.24800
X0.65400 Y0.24800
X0.65400 Y0.23700
G04 P0 ( dwell for no time -- G64 should not smooth over this point )
G00 Z0.19685 ( retract )

G00 X1.06300 Y0.22800 ( rapid move to begin. )
G01 Z-0.01969 F1.96850 ( plunge. )
G04 P0 ( dwell for no time -- G64 should not smooth over this point )
X1.06300 Y0.22800
X1.06300 Y0.16300
X1.13900 Y0.16300
X1.13900 Y0.23900
X1.06300 Y0.23900
X1.06300 Y0.22800
G04 P0 ( dwell for no time -- G64 should not smooth over this point )
G00 Z0.19685 ( retract )

G00 X0.86300 Y0.22800 ( rapid move to begin. )
G01 Z-0.01969 F1.96850 ( plunge. )
G04 P0 ( dwell for no time -- G64 should not smooth over this point )
X0.86300 Y0.22800
X0.86300 Y0.16300
X0.93900 Y0.16300
X0.93900 Y0.23900
X0.86300 Y0.23900
X0.86300 Y0.22800
G04 P0 ( dwell for no time -- G64 should not smooth over this point )
G00 Z0.19685 ( retract )

G00 X0.46300 Y0.22800 ( rapid move to begin. )
G01 Z-0.01969 F1.96850 ( plunge. )
G04 P0 ( dwell for no time -- G64 should not smooth over this point )
X0.46300 Y0.22800
X0.46300 Y0.16300
X0.53900 Y0.16300
X0.53900 Y0.23900
X0.46300 Y0.23900
X0.46300 Y0.22800

G04 P0 ( dwell for no time -- G64 should not smooth over this point )
G00 Z0.19685 ( retract )

M9 ( Coolant off. )
M2 ( Program end. )

