( pcb2gcode 1.1.4 )

( This file uses 4 drill bit sizes. )

G94     ( Inches per minute feed rate. )
G20     ( Units == INCHES.             )
G90     ( Absolute coordinates.        )
S10000  ( RPM spindle speed.           )

G00 Z0.19685 ( Retract )
T31
M5      ( Spindle stop.                )
M6      ( Tool change.                 )
(MSG, CHANGE TOOL BIT: to drill size 0.03000 inch)
M0      ( Temporary machine stop.      )
M3      ( Spindle on clockwise.        )

G81 R0.19685 Z0.00000 F0.98425 X1.60000 Y0.40000
X1.90000 Y0.20000
X2.00000 Y0.20000
X1.80000 Y0.20000
X1.90000 Y0.50000
X2.00000 Y0.50000
X2.40000 Y0.50000
X1.80000 Y0.60000
X2.40000 Y0.20000
X1.00000 Y0.20000
X1.00000 Y0.50000
X1.20000 Y0.40000


G00 Z0.19685 ( Retract )
T32
M5      ( Spindle stop.                )
M6      ( Tool change.                 )
(MSG, CHANGE TOOL BIT: to drill size 0.02000 inch)
M0      ( Temporary machine stop.      )
M3      ( Spindle on clockwise.        )

G81 R0.19685 Z0.00000 F0.98425 X1.50000 Y0.30000
X1.10000 Y0.50000
X1.10000 Y0.20000
X1.20000 Y0.30000


G00 Z0.19685 ( Retract )
T33
M5      ( Spindle stop.                )
M6      ( Tool change.                 )
(MSG, CHANGE TOOL BIT: to drill size 0.04200 inch)
M0      ( Temporary machine stop.      )
M3      ( Spindle on clockwise.        )

G81 R0.19685 Z0.00000 F0.98425 X2.20000 Y0.20000
X2.20000 Y0.30000
X2.20000 Y0.40000


G00 Z0.19685 ( Retract )
T34
M5      ( Spindle stop.                )
M6      ( Tool change.                 )
(MSG, CHANGE TOOL BIT: to drill size 0.03800 inch)
M0      ( Temporary machine stop.      )
M3      ( Spindle on clockwise.        )

G81 R0.19685 Z0.00000 F0.98425 X2.60000 Y0.30000
X2.60000 Y0.40000
X0.80000 Y0.30000
X0.80000 Y0.40000
X0.30000 Y0.30000
X0.30000 Y0.40000


G00 Z0.19685 ( All done -- retract )

M9 ( Coolant off. )
M2 ( Program end. )

