( pcb2gcode 1.1.4 )

( This file uses 4 drill bit sizes. )

G94     ( Inches per minute feed rate. )
G20     ( Units == INCHES.             )
G90     ( Absolute coordinates.        )
S10000  ( RPM spindle speed.           )

G00 Z0.19685 ( Retract )

M5      ( Spindle stop.                )
M6      ( Tool change.                 )
(MSG, CHANGE TOOL BIT: to drill size 0.03000 inch)

M3      ( Spindle on clockwise.        )

G81 R0.19685 Z0.00000 F0.98425 X1.50000 Y0.20000
X1.50000 Y0.60000
X1.40000 Y0.30000
X1.00000 Y0.30000
X2.10000 Y0.20000
X2.10000 Y0.60000
X1.70000 Y0.20000
X1.70000 Y0.60000


G00 Z0.19685 ( Retract )

M5      ( Spindle stop.                )
M6      ( Tool change.                 )
(MSG, CHANGE TOOL BIT: to drill size 0.02000 inch)

M3      ( Spindle on clockwise.        )

G81 R0.19685 Z0.00000 F0.98425 X1.40000 Y0.50000
X1.00000 Y0.50000


G00 Z0.19685 ( Retract )

M5      ( Spindle stop.                )
M6      ( Tool change.                 )
(MSG, CHANGE TOOL BIT: to drill size 0.03800 inch)

M3      ( Spindle on clockwise.        )

G81 R0.19685 Z0.00000 F0.98425 X0.80000 Y0.30000
X0.80000 Y0.40000
X0.30000 Y0.30000
X0.30000 Y0.40000
X2.30000 Y0.30000
X2.30000 Y0.40000


G00 Z0.19685 ( Retract )

M5      ( Spindle stop.                )
M6      ( Tool change.                 )
(MSG, CHANGE TOOL BIT: to drill size 0.04200 inch)

M3      ( Spindle on clockwise.        )

G81 R0.19685 Z0.00000 F0.98425 X1.90000 Y0.20000
X1.90000 Y0.30000
X1.90000 Y0.40000


G00 Z0.19685 ( All done -- retract )

M9 ( Coolant off. )
M2 ( Program end. )

