( pcb2gcode 1.1.4 )

G94     ( Inches per minute feed rate. )
G20     ( Units == INCHES.             )
G90     ( Absolute coordinates.        )
S10000  ( RPM spindle speed.           )
M3      ( Spindle on clockwise.        )

G64 P0.00500 ( set maximum deviation from commanded toolpath )

G04 P0 ( dwell for no time -- G64 should not smooth over this point )
G00 Z0.19685 ( retract )

G00 X1.83700 Y0.62800 ( rapid move to begin. )
G01 Z-0.01969 F1.96850 ( plunge. )
G04 P0 ( dwell for no time -- G64 should not smooth over this point )
X1.83700 Y0.62800
X1.83700 Y0.60200
X1.83800 Y0.60200
X1.83800 Y0.60100
X1.83900 Y0.60100
X1.83900 Y0.60000
X1.84000 Y0.60000
X1.84000 Y0.59900
X1.84100 Y0.59900
X1.84100 Y0.59800
X1.84200 Y0.59800
X1.84200 Y0.59700
X1.84300 Y0.59700
X1.84300 Y0.59600
X1.84400 Y0.59600
X1.84400 Y0.59500
X1.84500 Y0.59500
X1.84500 Y0.59400
X1.84600 Y0.59400
X1.84600 Y0.59300
X1.84700 Y0.59300
X1.84700 Y0.59200
X1.84800 Y0.59200
X1.84800 Y0.59100
X1.84900 Y0.59100
X1.84900 Y0.59000
X1.85000 Y0.59000
X1.85000 Y0.58900
X1.85100 Y0.58900
X1.85100 Y0.58800
X1.85200 Y0.58800
X1.85200 Y0.58700
X1.85300 Y0.58700
X1.85300 Y0.58600
X1.85400 Y0.58600
X1.85400 Y0.58500
X1.85500 Y0.58500
X1.85500 Y0.58400
X1.85600 Y0.58400
X1.85600 Y0.58300
X1.85700 Y0.58300
X1.85700 Y0.58200
X1.85800 Y0.58200
X1.85800 Y0.58100
X1.85900 Y0.58100
X1.85900 Y0.58000
X1.86000 Y0.58000
X1.86000 Y0.57900
X1.86100 Y0.57900
X1.86100 Y0.57800
X1.86200 Y0.57800
X1.86200 Y0.57700
X1.86300 Y0.57700
X1.86300 Y0.57600
X1.86400 Y0.57600
X1.86400 Y0.57500
X1.86500 Y0.57500
X1.86500 Y0.57400
X1.86600 Y0.57400
X1.86600 Y0.57300
X1.86700 Y0.57300
X1.86700 Y0.57200
X1.86800 Y0.57200
X1.86800 Y0.57100
X1.86900 Y0.57100
X1.86900 Y0.57000
X1.87000 Y0.57000
X1.87000 Y0.56900
X1.87100 Y0.56900
X1.87100 Y0.56800
X1.87200 Y0.56800
X1.87200 Y0.56700
X1.87300 Y0.56700
X1.87300 Y0.56600
X1.87400 Y0.56600
X1.87400 Y0.56500
X1.87500 Y0.56500
X1.87500 Y0.56400
X1.87600 Y0.56400
X1.87600 Y0.56300
X1.87700 Y0.56300
X1.87700 Y0.56200
X1.87800 Y0.56200
X1.87800 Y0.56100
X1.87900 Y0.56100
X1.87900 Y0.56000
X1.88000 Y0.56000
X1.88000 Y0.55900
X1.88100 Y0.55900
X1.88100 Y0.55800
X1.88200 Y0.55800
X1.88200 Y0.55700
X1.88300 Y0.55700
X1.88300 Y0.55600
X1.88400 Y0.55600
X1.88400 Y0.55500
X1.88500 Y0.55500
X1.88500 Y0.55400
X1.88600 Y0.55400
X1.88600 Y0.55300
X1.88700 Y0.55300
X1.88700 Y0.55200
X1.88800 Y0.55200
X1.88800 Y0.55100
X1.88900 Y0.55100
X1.88900 Y0.55000
X1.89000 Y0.55000
X1.89000 Y0.54900
X1.89100 Y0.54900
X1.89100 Y0.54800
X1.89200 Y0.54800
X1.89200 Y0.54700
X1.89300 Y0.54700
X1.89300 Y0.54600
X1.89400 Y0.54600
X1.89400 Y0.54500
X1.89500 Y0.54500
X1.89500 Y0.54400
X1.89600 Y0.54400
X1.89600 Y0.54300
X1.89700 Y0.54300
X1.89700 Y0.54200
X1.89800 Y0.54200
X1.89800 Y0.54100
X1.89900 Y0.54100
X1.89900 Y0.54000
X1.90000 Y0.54000
X1.90000 Y0.54000
X1.90100 Y0.54000
X1.90100 Y0.54100
X1.90200 Y0.54100
X1.90200 Y0.54200
X1.90300 Y0.54200
X1.90300 Y0.54300
X1.90400 Y0.54300
X1.90400 Y0.54400
X1.90500 Y0.54400
X1.90500 Y0.54500
X1.90600 Y0.54500
X1.90600 Y0.54600
X1.90700 Y0.54600
X1.90700 Y0.54700
X1.90800 Y0.54700
X1.90800 Y0.54800
X1.90900 Y0.54800
X1.90900 Y0.54900
X1.91000 Y0.54900
X1.91000 Y0.55000
X1.91100 Y0.55000
X1.91100 Y0.55100
X1.91200 Y0.55100
X1.91200 Y0.55200
X1.91300 Y0.55200
X1.91300 Y0.55300
X1.91400 Y0.55300
X1.91400 Y0.55400
X1.91500 Y0.55400
X1.91500 Y0.55500
X1.91600 Y0.55500
X1.91600 Y0.55600
X1.91700 Y0.55600
X1.91700 Y0.55700
X1.91800 Y0.55700
X1.91800 Y0.55800
X1.91900 Y0.55800
X1.91900 Y0.55900
X1.92000 Y0.55900
X1.92000 Y0.56000
X1.92100 Y0.56000
X1.92100 Y0.56100
X1.92200 Y0.56100
X1.92200 Y0.56200
X1.92300 Y0.56200
X1.92300 Y0.56300
X1.92400 Y0.56300
X1.92400 Y0.56400
X1.92500 Y0.56400
X1.92500 Y0.56500
X1.92600 Y0.56500
X1.92600 Y0.56600
X1.92700 Y0.56600
X1.92700 Y0.56700
X1.92800 Y0.56700
X1.92800 Y0.56800
X1.92900 Y0.56800
X1.92900 Y0.56900
X1.93000 Y0.56900
X1.93000 Y0.57000
X1.93100 Y0.57000
X1.93100 Y0.57100
X1.93200 Y0.57100
X1.93200 Y0.57200
X1.93400 Y0.57200
X1.93400 Y0.57300
X1.93700 Y0.57300
X1.93700 Y0.57400
X2.00900 Y0.57400
X2.00900 Y0.59200
X2.09000 Y0.59200
X2.09000 Y0.57400
X2.11300 Y0.57400
X2.11300 Y0.57300
X2.11600 Y0.57300
X2.11600 Y0.57200
X2.11800 Y0.57200
X2.11800 Y0.57100
X2.11900 Y0.57100
X2.11900 Y0.57000
X2.12000 Y0.57000
X2.12000 Y0.56900
X2.12100 Y0.56900
X2.12100 Y0.56800
X2.12200 Y0.56800
X2.12200 Y0.56700
X2.12300 Y0.56700
X2.12300 Y0.56600
X2.12400 Y0.56600
X2.12400 Y0.56500
X2.12500 Y0.56500
X2.12500 Y0.56400
X2.12600 Y0.56400
X2.12600 Y0.56300
X2.12700 Y0.56300
X2.12700 Y0.56200
X2.12800 Y0.56200
X2.12800 Y0.56100
X2.12900 Y0.56100
X2.12900 Y0.56000
X2.13000 Y0.56000
X2.13000 Y0.55900
X2.13100 Y0.55900
X2.13100 Y0.55800
X2.13200 Y0.55800
X2.13200 Y0.55700
X2.13300 Y0.55700
X2.13300 Y0.55600
X2.13400 Y0.55600
X2.13400 Y0.55500
X2.13500 Y0.55500
X2.13500 Y0.55400
X2.13600 Y0.55400
X2.13600 Y0.55300
X2.13700 Y0.55300
X2.13700 Y0.55200
X2.13800 Y0.55200
X2.13800 Y0.55100
X2.13900 Y0.55100
X2.13900 Y0.55000
X2.14000 Y0.55000
X2.14000 Y0.54900
X2.14100 Y0.54900
X2.14100 Y0.54800
X2.14200 Y0.54800
X2.14200 Y0.54700
X2.14300 Y0.54700
X2.14300 Y0.54600
X2.14400 Y0.54600
X2.14400 Y0.54500
X2.14500 Y0.54500
X2.14500 Y0.54400
X2.14600 Y0.54400
X2.14600 Y0.54300
X2.14700 Y0.54300
X2.14700 Y0.54200
X2.14800 Y0.54200
X2.14800 Y0.54100
X2.14900 Y0.54100
X2.14900 Y0.54000
X2.15000 Y0.54000
X2.15000 Y0.53900
X2.15100 Y0.53900
X2.15100 Y0.53800
X2.15200 Y0.53800
X2.15200 Y0.53700
X2.15300 Y0.53700
X2.15300 Y0.53600
X2.15400 Y0.53600
X2.15400 Y0.53500
X2.15500 Y0.53500
X2.15500 Y0.53400
X2.15600 Y0.53400
X2.15600 Y0.53300
X2.15700 Y0.53300
X2.15700 Y0.53200
X2.15800 Y0.53200
X2.15800 Y0.53100
X2.15900 Y0.53100
X2.15900 Y0.53000
X2.16000 Y0.53000
X2.16000 Y0.52900
X2.16100 Y0.52900
X2.16100 Y0.52800
X2.16200 Y0.52800
X2.16200 Y0.52700
X2.16300 Y0.52700
X2.16300 Y0.52600
X2.16400 Y0.52600
X2.16400 Y0.52500
X2.16500 Y0.52500
X2.16500 Y0.52400
X2.16600 Y0.52400
X2.16600 Y0.52300
X2.16700 Y0.52300
X2.16700 Y0.52200
X2.16800 Y0.52200
X2.16800 Y0.52100
X2.16900 Y0.52100
X2.16900 Y0.52000
X2.17000 Y0.52000
X2.17000 Y0.51900
X2.17100 Y0.51900
X2.17100 Y0.51700
X2.17200 Y0.51700
X2.17200 Y0.51400
X2.17300 Y0.51400
X2.17300 Y0.41600
X2.17400 Y0.41600
X2.17400 Y0.41500
X2.17500 Y0.41500
X2.17500 Y0.41400
X2.17600 Y0.41400
X2.17600 Y0.41300
X2.17700 Y0.41300
X2.17700 Y0.41200
X2.17800 Y0.41200
X2.17800 Y0.41100
X2.17900 Y0.41100
X2.17900 Y0.41000
X2.18000 Y0.41000
X2.18000 Y0.40900
X2.18100 Y0.40900
X2.18100 Y0.40800
X2.18200 Y0.40800
X2.18200 Y0.40700
X2.18300 Y0.40700
X2.18300 Y0.40600
X2.18400 Y0.40600
X2.18400 Y0.40500
X2.18500 Y0.40500
X2.18500 Y0.40400
X2.18600 Y0.40400
X2.18600 Y0.40300
X2.18700 Y0.40300
X2.18700 Y0.40200
X2.18800 Y0.40200
X2.18800 Y0.40100
X2.18900 Y0.40100
X2.18900 Y0.40000
X2.19000 Y0.40000
X2.19000 Y0.39900
X2.19100 Y0.39900
X2.19100 Y0.39800
X2.19200 Y0.39800
X2.19200 Y0.39700
X2.19300 Y0.39700
X2.19300 Y0.39600
X2.19400 Y0.39600
X2.19400 Y0.39500
X2.19500 Y0.39500
X2.19500 Y0.39400
X2.19600 Y0.39400
X2.19600 Y0.39300
X2.19700 Y0.39300
X2.19700 Y0.39200
X2.19800 Y0.39200
X2.19800 Y0.39100
X2.19900 Y0.39100
X2.19900 Y0.39000
X2.20000 Y0.39000
X2.20000 Y0.38900
X2.20100 Y0.38900
X2.20100 Y0.38800
X2.20200 Y0.38800
X2.20200 Y0.38700
X2.20300 Y0.38700
X2.20300 Y0.38600
X2.20400 Y0.38600
X2.20400 Y0.38500
X2.20500 Y0.38500
X2.20500 Y0.38200
X2.20600 Y0.38200
X2.20600 Y0.38100
X2.20700 Y0.38100
X2.20700 Y0.37900
X2.20800 Y0.37900
X2.20800 Y0.37700
X2.20900 Y0.37700
X2.20900 Y0.37600
X2.21000 Y0.37600
X2.21000 Y0.37500
X2.21100 Y0.37500
X2.21100 Y0.37400
X2.21200 Y0.37400
X2.21200 Y0.37200
X2.21300 Y0.37200
X2.21300 Y0.37100
X2.21400 Y0.37100
X2.21400 Y0.37000
X2.21500 Y0.37000
X2.21500 Y0.36900
X2.21600 Y0.36900
X2.21600 Y0.36800
X2.21700 Y0.36800
X2.21700 Y0.36700
X2.21800 Y0.36700
X2.21800 Y0.36600
X2.22000 Y0.36600
X2.22000 Y0.36500
X2.22100 Y0.36500
X2.22100 Y0.36400
X2.22200 Y0.36400
X2.22200 Y0.36300
X2.22300 Y0.36300
X2.22300 Y0.36200
X2.22400 Y0.36200
X2.22400 Y0.36100
X2.22600 Y0.36100
X2.22600 Y0.36000
X2.22700 Y0.36000
X2.22700 Y0.35900
X2.22900 Y0.35900
X2.22900 Y0.35800
X2.23100 Y0.35800
X2.23100 Y0.35700
X2.23300 Y0.35700
X2.23300 Y0.35600
X2.23400 Y0.35600
X2.23400 Y0.35500
X2.23500 Y0.35500
X2.23500 Y0.35400
X2.23600 Y0.35400
X2.23600 Y0.35300
X2.23700 Y0.35300
X2.23700 Y0.35200
X2.23800 Y0.35200
X2.23800 Y0.35100
X2.23900 Y0.35100
X2.23900 Y0.35000
X2.24000 Y0.35000
X2.24000 Y0.34900
X2.24100 Y0.34900
X2.24100 Y0.34800
X2.26300 Y0.34800
X2.26300 Y0.34700
X2.26900 Y0.34700
X2.26900 Y0.34600
X2.27400 Y0.34600
X2.27400 Y0.34500
X2.27500 Y0.34500
X2.27500 Y0.34400
X2.27700 Y0.34400
X2.27700 Y0.34300
X2.27900 Y0.34300
X2.27900 Y0.34200
X2.28000 Y0.34200
X2.28000 Y0.34100
X2.28200 Y0.34100
X2.28200 Y0.34000
X2.28400 Y0.34000
X2.28400 Y0.33900
X2.28500 Y0.33900
X2.28500 Y0.33800
X2.28600 Y0.33800
X2.28600 Y0.33700
X2.28700 Y0.33700
X2.28700 Y0.33600
X2.28800 Y0.33600
X2.28800 Y0.33500
X2.28900 Y0.33500
X2.28900 Y0.33400
X2.29000 Y0.33400
X2.29000 Y0.33200
X2.29100 Y0.33200
X2.29100 Y0.33000
X2.29200 Y0.33000
X2.29200 Y0.32800
X2.29300 Y0.32800
X2.29300 Y0.32600
X2.29400 Y0.32600
X2.29400 Y0.32300
X2.29500 Y0.32300
X2.29500 Y0.31700
X2.29600 Y0.31700
X2.29600 Y0.28600
X2.29500 Y0.28600
X2.29500 Y0.28000
X2.29400 Y0.28000
X2.29400 Y0.27700
X2.29300 Y0.27700
X2.29300 Y0.27500
X2.29200 Y0.27500
X2.29200 Y0.27300
X2.29100 Y0.27300
X2.29100 Y0.27100
X2.29000 Y0.27100
X2.29000 Y0.26900
X2.28900 Y0.26900
X2.28900 Y0.26800
X2.28800 Y0.26800
X2.28800 Y0.26700
X2.28700 Y0.26700
X2.28700 Y0.26600
X2.28600 Y0.26600
X2.28600 Y0.26500
X2.28500 Y0.26500
X2.28500 Y0.26400
X2.28400 Y0.26400
X2.28400 Y0.26300
X2.28200 Y0.26300
X2.28200 Y0.26200
X2.28000 Y0.26200
X2.28000 Y0.26100
X2.27900 Y0.26100
X2.27900 Y0.26000
X2.27700 Y0.26000
X2.27700 Y0.25900
X2.27500 Y0.25900
X2.27500 Y0.25800
X2.27400 Y0.25800
X2.27400 Y0.25700
X2.26900 Y0.25700
X2.26900 Y0.25600
X2.26300 Y0.25600
X2.26300 Y0.25500
X2.23600 Y0.25500
X2.23600 Y0.25600
X2.23000 Y0.25600
X2.23000 Y0.25700
X2.22500 Y0.25700
X2.22500 Y0.25800
X2.22400 Y0.25800
X2.22400 Y0.25900
X2.22200 Y0.25900
X2.22200 Y0.26000
X2.22000 Y0.26000
X2.22000 Y0.26100
X2.21900 Y0.26100
X2.21900 Y0.26200
X2.21700 Y0.26200
X2.21700 Y0.26300
X2.21500 Y0.26300
X2.21500 Y0.26400
X2.21400 Y0.26400
X2.21400 Y0.26500
X2.21300 Y0.26500
X2.21300 Y0.26600
X2.21200 Y0.26600
X2.21200 Y0.26700
X2.21100 Y0.26700
X2.21100 Y0.26800
X2.21000 Y0.26800
X2.21000 Y0.26900
X2.20900 Y0.26900
X2.20900 Y0.27100
X2.20800 Y0.27100
X2.20800 Y0.27300
X2.20700 Y0.27300
X2.20700 Y0.27500
X2.20600 Y0.27500
X2.20600 Y0.27700
X2.20500 Y0.27700
X2.20500 Y0.28000
X2.20400 Y0.28000
X2.20400 Y0.28600
X2.20300 Y0.28600
X2.20300 Y0.31000
X2.20200 Y0.31000
X2.20200 Y0.31100
X2.20100 Y0.31100
X2.20100 Y0.31200
X2.20000 Y0.31200
X2.20000 Y0.31300
X2.19900 Y0.31300
X2.19900 Y0.31400
X2.19800 Y0.31400
X2.19800 Y0.31500
X2.19700 Y0.31500
X2.19700 Y0.31600
X2.19600 Y0.31600
X2.19600 Y0.31700
X2.19500 Y0.31700
X2.19500 Y0.31800
X2.19400 Y0.31800
X2.19400 Y0.31900
X2.19300 Y0.31900
X2.19300 Y0.32000
X2.19200 Y0.32000
X2.19200 Y0.32100
X2.19100 Y0.32100
X2.19100 Y0.32200
X2.19000 Y0.32200
X2.19000 Y0.32300
X2.18900 Y0.32300
X2.18900 Y0.32400
X2.18800 Y0.32400
X2.18800 Y0.32500
X2.18700 Y0.32500
X2.18700 Y0.32600
X2.18600 Y0.32600
X2.18600 Y0.32700
X2.18500 Y0.32700
X2.18500 Y0.32800
X2.18400 Y0.32800
X2.18400 Y0.32900
X2.18300 Y0.32900
X2.18300 Y0.33000
X2.18200 Y0.33000
X2.18200 Y0.33100
X2.18100 Y0.33100
X2.18100 Y0.33200
X2.18000 Y0.33200
X2.18000 Y0.33300
X2.17900 Y0.33300
X2.17900 Y0.33400
X2.17800 Y0.33400
X2.17800 Y0.33500
X2.17700 Y0.33500
X2.17700 Y0.33600
X2.17600 Y0.33600
X2.17600 Y0.33700
X2.17500 Y0.33700
X2.17500 Y0.33800
X2.17400 Y0.33800
X2.17400 Y0.33900
X2.17300 Y0.33900
X2.17300 Y0.34000
X2.17200 Y0.34000
X2.17200 Y0.34100
X2.17100 Y0.34100
X2.17100 Y0.34200
X2.17000 Y0.34200
X2.17000 Y0.34300
X2.16900 Y0.34300
X2.16900 Y0.34400
X2.16800 Y0.34400
X2.16800 Y0.34500
X2.16700 Y0.34500
X2.16700 Y0.34600
X2.16600 Y0.34600
X2.16600 Y0.34700
X2.16500 Y0.34700
X2.16500 Y0.34800
X2.16400 Y0.34800
X2.16400 Y0.34900
X2.16300 Y0.34900
X2.16300 Y0.35000
X2.16200 Y0.35000
X2.16200 Y0.35100
X2.16100 Y0.35100
X2.16100 Y0.35200
X2.16000 Y0.35200
X2.16000 Y0.35300
X2.15900 Y0.35300
X2.15900 Y0.35400
X2.15800 Y0.35400
X2.15800 Y0.35500
X2.15700 Y0.35500
X2.15700 Y0.35600
X2.15600 Y0.35600
X2.15600 Y0.35700
X2.15500 Y0.35700
X2.15500 Y0.35800
X2.15400 Y0.35800
X2.15400 Y0.35900
X2.15300 Y0.35900
X2.15300 Y0.36000
X2.15200 Y0.36000
X2.15200 Y0.36100
X2.15100 Y0.36100
X2.15100 Y0.36200
X2.15000 Y0.36200
X2.15000 Y0.36300
X2.14900 Y0.36300
X2.14900 Y0.36400
X2.14800 Y0.36400
X2.14800 Y0.36500
X2.14700 Y0.36500
X2.14700 Y0.36600
X2.14600 Y0.36600
X2.14600 Y0.36700
X2.14500 Y0.36700
X2.14500 Y0.36800
X2.14400 Y0.36800
X2.14400 Y0.36900
X2.14300 Y0.36900
X2.14300 Y0.37000
X2.14200 Y0.37000
X2.14200 Y0.37100
X2.14100 Y0.37100
X2.14100 Y0.37200
X2.14000 Y0.37200
X2.14000 Y0.37300
X2.13900 Y0.37300
X2.13900 Y0.37400
X2.13800 Y0.37400
X2.13800 Y0.37500
X2.13700 Y0.37500
X2.13700 Y0.37600
X2.13600 Y0.37600
X2.13600 Y0.37700
X2.13500 Y0.37700
X2.13500 Y0.37800
X2.13400 Y0.37800
X2.13400 Y0.37900
X2.13300 Y0.37900
X2.13300 Y0.38000
X2.13200 Y0.38000
X2.13200 Y0.38100
X2.13100 Y0.38100
X2.13100 Y0.38200
X2.13000 Y0.38200
X2.13000 Y0.38300
X2.12900 Y0.38300
X2.12900 Y0.38500
X2.12800 Y0.38500
X2.12800 Y0.38800
X2.12700 Y0.38800
X2.12700 Y0.48600
X2.12600 Y0.48600
X2.12600 Y0.48700
X2.12500 Y0.48700
X2.12500 Y0.48800
X2.12400 Y0.48800
X2.12400 Y0.48900
X2.12300 Y0.48900
X2.12300 Y0.49000
X2.12200 Y0.49000
X2.12200 Y0.49100
X2.12100 Y0.49100
X2.12100 Y0.49200
X2.12000 Y0.49200
X2.12000 Y0.49300
X2.11900 Y0.49300
X2.11900 Y0.49400
X2.11800 Y0.49400
X2.11800 Y0.49500
X2.11700 Y0.49500
X2.11700 Y0.49600
X2.11600 Y0.49600
X2.11600 Y0.49700
X2.11500 Y0.49700
X2.11500 Y0.49800
X2.11400 Y0.49800
X2.11400 Y0.49900
X2.11300 Y0.49900
X2.11300 Y0.50000
X2.11200 Y0.50000
X2.11200 Y0.50100
X2.11100 Y0.50100
X2.11100 Y0.50200
X2.11000 Y0.50200
X2.11000 Y0.50300
X2.10900 Y0.50300
X2.10900 Y0.50400
X2.10800 Y0.50400
X2.10800 Y0.50500
X2.10700 Y0.50500
X2.10700 Y0.50600
X2.10600 Y0.50600
X2.10600 Y0.50700
X2.10500 Y0.50700
X2.10500 Y0.50800
X2.10400 Y0.50800
X2.10400 Y0.50900
X2.10300 Y0.50900
X2.10300 Y0.51000
X2.10200 Y0.51000
X2.10200 Y0.51100
X2.10100 Y0.51100
X2.10100 Y0.51200
X2.10000 Y0.51200
X2.10000 Y0.51300
X2.09900 Y0.51300
X2.09900 Y0.51400
X2.09800 Y0.51400
X2.09800 Y0.51500
X2.09700 Y0.51500
X2.09700 Y0.51600
X2.09600 Y0.51600
X2.09600 Y0.51700
X2.09500 Y0.51700
X2.09500 Y0.51800
X2.09400 Y0.51800
X2.09400 Y0.51900
X2.09300 Y0.51900
X2.09300 Y0.52000
X2.09200 Y0.52000
X2.09200 Y0.52100
X2.09100 Y0.52100
X2.09100 Y0.52200
X2.09000 Y0.52200
X2.09000 Y0.51100
X2.00900 Y0.51100
X2.00900 Y0.52800
X1.96500 Y0.52800
X1.96500 Y0.52700
X1.96400 Y0.52700
X1.96400 Y0.52600
X1.96300 Y0.52600
X1.96300 Y0.52500
X1.96200 Y0.52500
X1.96200 Y0.52400
X1.96100 Y0.52400
X1.96100 Y0.52300
X1.96000 Y0.52300
X1.96000 Y0.52200
X1.95900 Y0.52200
X1.95900 Y0.52100
X1.95800 Y0.52100
X1.95800 Y0.52000
X1.95700 Y0.52000
X1.95700 Y0.51900
X1.95600 Y0.51900
X1.95600 Y0.51800
X1.95500 Y0.51800
X1.95500 Y0.51700
X1.95400 Y0.51700
X1.95400 Y0.51600
X1.95300 Y0.51600
X1.95300 Y0.51500
X1.95200 Y0.51500
X1.95200 Y0.51400
X1.95100 Y0.51400
X1.95100 Y0.51300
X1.95000 Y0.51300
X1.95000 Y0.51200
X1.94900 Y0.51200
X1.94900 Y0.51100
X1.94800 Y0.51100
X1.94800 Y0.51000
X1.94700 Y0.51000
X1.94700 Y0.50900
X1.94600 Y0.50900
X1.94600 Y0.50800
X1.94500 Y0.50800
X1.94500 Y0.50700
X1.94400 Y0.50700
X1.94400 Y0.50600
X1.94300 Y0.50600
X1.94300 Y0.50500
X1.94200 Y0.50500
X1.94200 Y0.50400
X1.94100 Y0.50400
X1.94100 Y0.50300
X1.94000 Y0.50300
X1.94000 Y0.50200
X1.93900 Y0.50200
X1.93900 Y0.50100
X1.93800 Y0.50100
X1.93800 Y0.50000
X1.93700 Y0.50000
X1.93700 Y0.48600
X1.93600 Y0.48600
X1.93600 Y0.48100
X1.93500 Y0.48100
X1.93500 Y0.47800
X1.93400 Y0.47800
X1.93400 Y0.47700
X1.93300 Y0.47700
X1.93300 Y0.47500
X1.93200 Y0.47500
X1.93200 Y0.47400
X1.93100 Y0.47400
X1.93100 Y0.47300
X1.93000 Y0.47300
X1.93000 Y0.47100
X1.92900 Y0.47100
X1.92900 Y0.47000
X1.92700 Y0.47000
X1.92700 Y0.46900
X1.92600 Y0.46900
X1.92600 Y0.46800
X1.92400 Y0.46800
X1.92400 Y0.46700
X1.92200 Y0.46700
X1.92200 Y0.46600
X1.92100 Y0.46600
X1.92100 Y0.46500
X1.91600 Y0.46500
X1.91600 Y0.46400
X1.88300 Y0.46400
X1.88300 Y0.46500
X1.87800 Y0.46500
X1.87800 Y0.46600
X1.87700 Y0.46600
X1.87700 Y0.46700
X1.87500 Y0.46700
X1.87500 Y0.46800
X1.87300 Y0.46800
X1.87300 Y0.46900
X1.87200 Y0.46900
X1.87200 Y0.47000
X1.87000 Y0.47000
X1.87000 Y0.47100
X1.86900 Y0.47100
X1.86900 Y0.47300
X1.86800 Y0.47300
X1.86800 Y0.47400
X1.86700 Y0.47400
X1.86700 Y0.47500
X1.86600 Y0.47500
X1.86600 Y0.47700
X1.86500 Y0.47700
X1.86500 Y0.47800
X1.86400 Y0.47800
X1.86400 Y0.48100
X1.86300 Y0.48100
X1.86300 Y0.48600
X1.86200 Y0.48600
X1.86200 Y0.50100
X1.86100 Y0.50100
X1.86100 Y0.50200
X1.86000 Y0.50200
X1.86000 Y0.50300
X1.85900 Y0.50300
X1.85900 Y0.50400
X1.85800 Y0.50400
X1.85800 Y0.50500
X1.85700 Y0.50500
X1.85700 Y0.50600
X1.85600 Y0.50600
X1.85600 Y0.50700
X1.85500 Y0.50700
X1.85500 Y0.50800
X1.85400 Y0.50800
X1.85400 Y0.50900
X1.85300 Y0.50900
X1.85300 Y0.51000
X1.85200 Y0.51000
X1.85200 Y0.51100
X1.85100 Y0.51100
X1.85100 Y0.51200
X1.85000 Y0.51200
X1.85000 Y0.51300
X1.84900 Y0.51300
X1.84900 Y0.51400
X1.84800 Y0.51400
X1.84800 Y0.51500
X1.84700 Y0.51500
X1.84700 Y0.51600
X1.84600 Y0.51600
X1.84600 Y0.51700
X1.84500 Y0.51700
X1.84500 Y0.51800
X1.84400 Y0.51800
X1.84400 Y0.51900
X1.84300 Y0.51900
X1.84300 Y0.52000
X1.84200 Y0.52000
X1.84200 Y0.52100
X1.84100 Y0.52100
X1.84100 Y0.52200
X1.84000 Y0.52200
X1.84000 Y0.52300
X1.83900 Y0.52300
X1.83900 Y0.52400
X1.83800 Y0.52400
X1.83800 Y0.52500
X1.83700 Y0.52500
X1.83700 Y0.52600
X1.83600 Y0.52600
X1.83600 Y0.52700
X1.83500 Y0.52700
X1.83500 Y0.52800
X1.83400 Y0.52800
X1.83400 Y0.52900
X1.83300 Y0.52900
X1.83300 Y0.53000
X1.83200 Y0.53000
X1.83200 Y0.53100
X1.83100 Y0.53100
X1.83100 Y0.53200
X1.83000 Y0.53200
X1.83000 Y0.53300
X1.82900 Y0.53300
X1.82900 Y0.53400
X1.82800 Y0.53400
X1.82800 Y0.53500
X1.82700 Y0.53500
X1.82700 Y0.53600
X1.82600 Y0.53600
X1.82600 Y0.53700
X1.82500 Y0.53700
X1.82500 Y0.53800
X1.82400 Y0.53800
X1.82400 Y0.53900
X1.82300 Y0.53900
X1.82300 Y0.54000
X1.82200 Y0.54000
X1.82200 Y0.54100
X1.82100 Y0.54100
X1.82100 Y0.54200
X1.82000 Y0.54200
X1.82000 Y0.54300
X1.81900 Y0.54300
X1.81900 Y0.54400
X1.81800 Y0.54400
X1.81800 Y0.54500
X1.81700 Y0.54500
X1.81700 Y0.54600
X1.81600 Y0.54600
X1.81600 Y0.54700
X1.81500 Y0.54700
X1.81500 Y0.54800
X1.81400 Y0.54800
X1.81400 Y0.54900
X1.81300 Y0.54900
X1.81300 Y0.55000
X1.81200 Y0.55000
X1.81200 Y0.55100
X1.81100 Y0.55100
X1.81100 Y0.55200
X1.81000 Y0.55200
X1.81000 Y0.55300
X1.80900 Y0.55300
X1.80900 Y0.55400
X1.80800 Y0.55400
X1.80800 Y0.55500
X1.80700 Y0.55500
X1.80700 Y0.55600
X1.80600 Y0.55600
X1.80600 Y0.55700
X1.80500 Y0.55700
X1.80500 Y0.55800
X1.80400 Y0.55800
X1.80400 Y0.55900
X1.80300 Y0.55900
X1.80300 Y0.56000
X1.80200 Y0.56000
X1.80200 Y0.56100
X1.80100 Y0.56100
X1.80100 Y0.56200
X1.80000 Y0.56200
X1.80000 Y0.56200
X1.79900 Y0.56200
X1.79900 Y0.56100
X1.79800 Y0.56100
X1.79800 Y0.56000
X1.79700 Y0.56000
X1.79700 Y0.55900
X1.79600 Y0.55900
X1.79600 Y0.55800
X1.79500 Y0.55800
X1.79500 Y0.55700
X1.79400 Y0.55700
X1.79400 Y0.55600
X1.79300 Y0.55600
X1.79300 Y0.55500
X1.79200 Y0.55500
X1.79200 Y0.55400
X1.79100 Y0.55400
X1.79100 Y0.55300
X1.79000 Y0.55300
X1.79000 Y0.55200
X1.78900 Y0.55200
X1.78900 Y0.55100
X1.78800 Y0.55100
X1.78800 Y0.55000
X1.78700 Y0.55000
X1.78700 Y0.54900
X1.78600 Y0.54900
X1.78600 Y0.54800
X1.78500 Y0.54800
X1.78500 Y0.54700
X1.78400 Y0.54700
X1.78400 Y0.54600
X1.78300 Y0.54600
X1.78300 Y0.54500
X1.78200 Y0.54500
X1.78200 Y0.54400
X1.78100 Y0.54400
X1.78100 Y0.54300
X1.78000 Y0.54300
X1.78000 Y0.54200
X1.77900 Y0.54200
X1.77900 Y0.54100
X1.77800 Y0.54100
X1.77800 Y0.54000
X1.77700 Y0.54000
X1.77700 Y0.53900
X1.77600 Y0.53900
X1.77600 Y0.53800
X1.77500 Y0.53800
X1.77500 Y0.53700
X1.77400 Y0.53700
X1.77400 Y0.53600
X1.77300 Y0.53600
X1.77300 Y0.53500
X1.77200 Y0.53500
X1.77200 Y0.53400
X1.77100 Y0.53400
X1.77100 Y0.53300
X1.77000 Y0.53300
X1.77000 Y0.53200
X1.76900 Y0.53200
X1.76900 Y0.53100
X1.76800 Y0.53100
X1.76800 Y0.53000
X1.76700 Y0.53000
X1.76700 Y0.52900
X1.76600 Y0.52900
X1.76600 Y0.52800
X1.76500 Y0.52800
X1.76500 Y0.52700
X1.76400 Y0.52700
X1.76400 Y0.52600
X1.76300 Y0.52600
X1.76300 Y0.52500
X1.76200 Y0.52500
X1.76200 Y0.52400
X1.76100 Y0.52400
X1.76100 Y0.52300
X1.76000 Y0.52300
X1.76000 Y0.52200
X1.75900 Y0.52200
X1.75900 Y0.52100
X1.75800 Y0.52100
X1.75800 Y0.52000
X1.75700 Y0.52000
X1.75700 Y0.51900
X1.75600 Y0.51900
X1.75600 Y0.51800
X1.75500 Y0.51800
X1.75500 Y0.51700
X1.75400 Y0.51700
X1.75400 Y0.51600
X1.75300 Y0.51600
X1.75300 Y0.51500
X1.75200 Y0.51500
X1.75200 Y0.51400
X1.75100 Y0.51400
X1.75100 Y0.51300
X1.75000 Y0.51300
X1.75000 Y0.51200
X1.74900 Y0.51200
X1.74900 Y0.51100
X1.74800 Y0.51100
X1.74800 Y0.51000
X1.74700 Y0.51000
X1.74700 Y0.50900
X1.74600 Y0.50900
X1.74600 Y0.50800
X1.74500 Y0.50800
X1.74500 Y0.50700
X1.74400 Y0.50700
X1.74400 Y0.50600
X1.74300 Y0.50600
X1.74300 Y0.50500
X1.74200 Y0.50500
X1.74200 Y0.50400
X1.74100 Y0.50400
X1.74100 Y0.50300
X1.74000 Y0.50300
X1.74000 Y0.50200
X1.73900 Y0.50200
X1.73900 Y0.50100
X1.73800 Y0.50100
X1.73800 Y0.50000
X1.73700 Y0.50000
X1.73700 Y0.49900
X1.73600 Y0.49900
X1.73600 Y0.49800
X1.73500 Y0.49800
X1.73500 Y0.49700
X1.73400 Y0.49700
X1.73400 Y0.49600
X1.73300 Y0.49600
X1.73300 Y0.49500
X1.73200 Y0.49500
X1.73200 Y0.49400
X1.73100 Y0.49400
X1.73100 Y0.49300
X1.73000 Y0.49300
X1.73000 Y0.49200
X1.72900 Y0.49200
X1.72900 Y0.49100
X1.72800 Y0.49100
X1.72800 Y0.49000
X1.72700 Y0.49000
X1.72700 Y0.48900
X1.72600 Y0.48900
X1.72600 Y0.48800
X1.72500 Y0.48800
X1.72500 Y0.48700
X1.72400 Y0.48700
X1.72400 Y0.48600
X1.72300 Y0.48600
X1.72300 Y0.38800
X1.72200 Y0.38800
X1.72200 Y0.38500
X1.72100 Y0.38500
X1.72100 Y0.38300
X1.72000 Y0.38300
X1.72000 Y0.38200
X1.71900 Y0.38200
X1.71900 Y0.38100
X1.71800 Y0.38100
X1.71800 Y0.38000
X1.71700 Y0.38000
X1.71700 Y0.37900
X1.71600 Y0.37900
X1.71600 Y0.37800
X1.71500 Y0.37800
X1.71500 Y0.37700
X1.71400 Y0.37700
X1.71400 Y0.37600
X1.71300 Y0.37600
X1.71300 Y0.37500
X1.71200 Y0.37500
X1.71200 Y0.37400
X1.71100 Y0.37400
X1.71100 Y0.37300
X1.71000 Y0.37300
X1.71000 Y0.37200
X1.70900 Y0.37200
X1.70900 Y0.37100
X1.70800 Y0.37100
X1.70800 Y0.37000
X1.70700 Y0.37000
X1.70700 Y0.36900
X1.70600 Y0.36900
X1.70600 Y0.36800
X1.70500 Y0.36800
X1.70500 Y0.36700
X1.70400 Y0.36700
X1.70400 Y0.36600
X1.70300 Y0.36600
X1.70300 Y0.36500
X1.70200 Y0.36500
X1.70200 Y0.36400
X1.70100 Y0.36400
X1.70100 Y0.36300
X1.70000 Y0.36300
X1.70000 Y0.36200
X1.69900 Y0.36200
X1.69900 Y0.36100
X1.69800 Y0.36100
X1.69800 Y0.36000
X1.69700 Y0.36000
X1.69700 Y0.35900
X1.69600 Y0.35900
X1.69600 Y0.35800
X1.69500 Y0.35800
X1.69500 Y0.35700
X1.69400 Y0.35700
X1.69400 Y0.35600
X1.69300 Y0.35600
X1.69300 Y0.35500
X1.69200 Y0.35500
X1.69200 Y0.35400
X1.69100 Y0.35400
X1.69100 Y0.35300
X1.69000 Y0.35300
X1.69000 Y0.35200
X1.68900 Y0.35200
X1.68900 Y0.35100
X1.68800 Y0.35100
X1.68800 Y0.35000
X1.68700 Y0.35000
X1.68700 Y0.34900
X1.68600 Y0.34900
X1.68600 Y0.34800
X1.68500 Y0.34800
X1.68500 Y0.34700
X1.68400 Y0.34700
X1.68400 Y0.34600
X1.68300 Y0.34600
X1.68300 Y0.34500
X1.68200 Y0.34500
X1.68200 Y0.34400
X1.68100 Y0.34400
X1.68100 Y0.34300
X1.68000 Y0.34300
X1.68000 Y0.34200
X1.67900 Y0.34200
X1.67900 Y0.34100
X1.67800 Y0.34100
X1.67800 Y0.34000
X1.67700 Y0.34000
X1.67700 Y0.33900
X1.67600 Y0.33900
X1.67600 Y0.33800
X1.67500 Y0.33800
X1.67500 Y0.33700
X1.67400 Y0.33700
X1.67400 Y0.33600
X1.67300 Y0.33600
X1.67300 Y0.33500
X1.67200 Y0.33500
X1.67200 Y0.33400
X1.67100 Y0.33400
X1.67100 Y0.33300
X1.67000 Y0.33300
X1.67000 Y0.33200
X1.66900 Y0.33200
X1.66900 Y0.33100
X1.66800 Y0.33100
X1.66800 Y0.33000
X1.66700 Y0.33000
X1.66700 Y0.32900
X1.66600 Y0.32900
X1.66600 Y0.32800
X1.66500 Y0.32800
X1.66500 Y0.32700
X1.66400 Y0.32700
X1.66400 Y0.32600
X1.66300 Y0.32600
X1.66300 Y0.32500
X1.66200 Y0.32500
X1.66200 Y0.32400
X1.66100 Y0.32400
X1.66100 Y0.32300
X1.66000 Y0.32300
X1.66000 Y0.32200
X1.65900 Y0.32200
X1.65900 Y0.32100
X1.65800 Y0.32100
X1.65800 Y0.32000
X1.65700 Y0.32000
X1.65700 Y0.31900
X1.65600 Y0.31900
X1.65600 Y0.31800
X1.65500 Y0.31800
X1.65500 Y0.31700
X1.65400 Y0.31700
X1.65400 Y0.31600
X1.65300 Y0.31600
X1.65300 Y0.31500
X1.65200 Y0.31500
X1.65200 Y0.31400
X1.65100 Y0.31400
X1.65100 Y0.31300
X1.65000 Y0.31300
X1.65000 Y0.31200
X1.64900 Y0.31200
X1.64900 Y0.31100
X1.64800 Y0.31100
X1.64800 Y0.31000
X1.64700 Y0.31000
X1.64700 Y0.30900
X1.64600 Y0.30900
X1.64600 Y0.30800
X1.64500 Y0.30800
X1.64500 Y0.30700
X1.64400 Y0.30700
X1.64400 Y0.30600
X1.64300 Y0.30600
X1.64300 Y0.30500
X1.64200 Y0.30500
X1.64200 Y0.30400
X1.64100 Y0.30400
X1.64100 Y0.30300
X1.64000 Y0.30300
X1.64000 Y0.30200
X1.63900 Y0.30200
X1.63900 Y0.30100
X1.63800 Y0.30100
X1.63800 Y0.30000
X1.63700 Y0.30000
X1.63700 Y0.29900
X1.63600 Y0.29900
X1.63600 Y0.29800
X1.63500 Y0.29800
X1.63500 Y0.29700
X1.63400 Y0.29700
X1.63400 Y0.29600
X1.63300 Y0.29600
X1.63300 Y0.29500
X1.63200 Y0.29500
X1.63200 Y0.29400
X1.63100 Y0.29400
X1.63100 Y0.29300
X1.63000 Y0.29300
X1.63000 Y0.29200
X1.62900 Y0.29200
X1.62900 Y0.29100
X1.62800 Y0.29100
X1.62800 Y0.29000
X1.62700 Y0.29000
X1.62700 Y0.28900
X1.62600 Y0.28900
X1.62600 Y0.28800
X1.62500 Y0.28800
X1.62500 Y0.28700
X1.62400 Y0.28700
X1.62400 Y0.28600
X1.62300 Y0.28600
X1.62300 Y0.28500
X1.62200 Y0.28500
X1.62200 Y0.28400
X1.62100 Y0.28400
X1.62100 Y0.28300
X1.62000 Y0.28300
X1.62000 Y0.28200
X1.61900 Y0.28200
X1.61900 Y0.28100
X1.61800 Y0.28100
X1.61800 Y0.28000
X1.61600 Y0.28000
X1.61600 Y0.27900
X1.61300 Y0.27900
X1.61300 Y0.27800
X1.53500 Y0.27800
X1.53500 Y0.26600
X1.46400 Y0.26600
X1.46400 Y0.33700
X1.53500 Y0.33700
X1.53500 Y0.32400
X1.58500 Y0.32400
X1.58500 Y0.32500
X1.58600 Y0.32500
X1.58600 Y0.32600
X1.58700 Y0.32600
X1.58700 Y0.32700
X1.58800 Y0.32700
X1.58800 Y0.32800
X1.58900 Y0.32800
X1.58900 Y0.32900
X1.59000 Y0.32900
X1.59000 Y0.33000
X1.59100 Y0.33000
X1.59100 Y0.33100
X1.59200 Y0.33100
X1.59200 Y0.33200
X1.59300 Y0.33200
X1.59300 Y0.33300
X1.59400 Y0.33300
X1.59400 Y0.33400
X1.59500 Y0.33400
X1.59500 Y0.33500
X1.59600 Y0.33500
X1.59600 Y0.33600
X1.59700 Y0.33600
X1.59700 Y0.33700
X1.59800 Y0.33700
X1.59800 Y0.33800
X1.59900 Y0.33800
X1.59900 Y0.33900
X1.60000 Y0.33900
X1.60000 Y0.34000
X1.60100 Y0.34000
X1.60100 Y0.34100
X1.60200 Y0.34100
X1.60200 Y0.34200
X1.60300 Y0.34200
X1.60300 Y0.34300
X1.60400 Y0.34300
X1.60400 Y0.34400
X1.60500 Y0.34400
X1.60500 Y0.34500
X1.60600 Y0.34500
X1.60600 Y0.34600
X1.60700 Y0.34600
X1.60700 Y0.34700
X1.60800 Y0.34700
X1.60800 Y0.34800
X1.60900 Y0.34800
X1.60900 Y0.34900
X1.61000 Y0.34900
X1.61000 Y0.35000
X1.61100 Y0.35000
X1.61100 Y0.35100
X1.61200 Y0.35100
X1.61200 Y0.35200
X1.61300 Y0.35200
X1.61300 Y0.35300
X1.61400 Y0.35300
X1.61400 Y0.35400
X1.61500 Y0.35400
X1.61500 Y0.35500
X1.61600 Y0.35500
X1.61600 Y0.35600
X1.61700 Y0.35600
X1.61700 Y0.35700
X1.61800 Y0.35700
X1.61800 Y0.35800
X1.61900 Y0.35800
X1.61900 Y0.35900
X1.62000 Y0.35900
X1.62000 Y0.36000
X1.62100 Y0.36000
X1.62100 Y0.36100
X1.62200 Y0.36100
X1.62200 Y0.36200
X1.62300 Y0.36200
X1.62300 Y0.36300
X1.62400 Y0.36300
X1.62400 Y0.36400
X1.62500 Y0.36400
X1.62500 Y0.36500
X1.62600 Y0.36500
X1.62600 Y0.36600
X1.62700 Y0.36600
X1.62700 Y0.36700
X1.62800 Y0.36700
X1.62800 Y0.36800
X1.62900 Y0.36800
X1.62900 Y0.36900
X1.63000 Y0.36900
X1.63000 Y0.37000
X1.63100 Y0.37000
X1.63100 Y0.37100
X1.63200 Y0.37100
X1.63200 Y0.37200
X1.63300 Y0.37200
X1.63300 Y0.37300
X1.63400 Y0.37300
X1.63400 Y0.37400
X1.63500 Y0.37400
X1.63500 Y0.37500
X1.63600 Y0.37500
X1.63600 Y0.37600
X1.63700 Y0.37600
X1.63700 Y0.37700
X1.63800 Y0.37700
X1.63800 Y0.37800
X1.63900 Y0.37800
X1.63900 Y0.37900
X1.64000 Y0.37900
X1.64000 Y0.38000
X1.64100 Y0.38000
X1.64100 Y0.38100
X1.64200 Y0.38100
X1.64200 Y0.38200
X1.64300 Y0.38200
X1.64300 Y0.38300
X1.64400 Y0.38300
X1.64400 Y0.38400
X1.64500 Y0.38400
X1.64500 Y0.38500
X1.64600 Y0.38500
X1.64600 Y0.38600
X1.64700 Y0.38600
X1.64700 Y0.38700
X1.64800 Y0.38700
X1.64800 Y0.38800
X1.64900 Y0.38800
X1.64900 Y0.38900
X1.65000 Y0.38900
X1.65000 Y0.39000
X1.65100 Y0.39000
X1.65100 Y0.39100
X1.65200 Y0.39100
X1.65200 Y0.39200
X1.65300 Y0.39200
X1.65300 Y0.39300
X1.65400 Y0.39300
X1.65400 Y0.39400
X1.65500 Y0.39400
X1.65500 Y0.39500
X1.65600 Y0.39500
X1.65600 Y0.39600
X1.65700 Y0.39600
X1.65700 Y0.39700
X1.65800 Y0.39700
X1.65800 Y0.39800
X1.65900 Y0.39800
X1.65900 Y0.39900
X1.66000 Y0.39900
X1.66000 Y0.40000
X1.66100 Y0.40000
X1.66100 Y0.40100
X1.66200 Y0.40100
X1.66200 Y0.40200
X1.66300 Y0.40200
X1.66300 Y0.40300
X1.66400 Y0.40300
X1.66400 Y0.40400
X1.66500 Y0.40400
X1.66500 Y0.40500
X1.66600 Y0.40500
X1.66600 Y0.40600
X1.66700 Y0.40600
X1.66700 Y0.40700
X1.66800 Y0.40700
X1.66800 Y0.40800
X1.66900 Y0.40800
X1.66900 Y0.40900
X1.67000 Y0.40900
X1.67000 Y0.41000
X1.67100 Y0.41000
X1.67100 Y0.41100
X1.67200 Y0.41100
X1.67200 Y0.41200
X1.67300 Y0.41200
X1.67300 Y0.41300
X1.67400 Y0.41300
X1.67400 Y0.41400
X1.67500 Y0.41400
X1.67500 Y0.41500
X1.67600 Y0.41500
X1.67600 Y0.41600
X1.67700 Y0.41600
X1.67700 Y0.51400
X1.67800 Y0.51400
X1.67800 Y0.51700
X1.67900 Y0.51700
X1.67900 Y0.51900
X1.68000 Y0.51900
X1.68000 Y0.52000
X1.68100 Y0.52000
X1.68100 Y0.52100
X1.68200 Y0.52100
X1.68200 Y0.52200
X1.68300 Y0.52200
X1.68300 Y0.52300
X1.68400 Y0.52300
X1.68400 Y0.52400
X1.68500 Y0.52400
X1.68500 Y0.52500
X1.68600 Y0.52500
X1.68600 Y0.52600
X1.68700 Y0.52600
X1.68700 Y0.52700
X1.68800 Y0.52700
X1.68800 Y0.52800
X1.68900 Y0.52800
X1.68900 Y0.52900
X1.69000 Y0.52900
X1.69000 Y0.53000
X1.69100 Y0.53000
X1.69100 Y0.53100
X1.69200 Y0.53100
X1.69200 Y0.53200
X1.69300 Y0.53200
X1.69300 Y0.53300
X1.69400 Y0.53300
X1.69400 Y0.53400
X1.69500 Y0.53400
X1.69500 Y0.53500
X1.69600 Y0.53500
X1.69600 Y0.53600
X1.69700 Y0.53600
X1.69700 Y0.53700
X1.69800 Y0.53700
X1.69800 Y0.53800
X1.69900 Y0.53800
X1.69900 Y0.53900
X1.70000 Y0.53900
X1.70000 Y0.54000
X1.70100 Y0.54000
X1.70100 Y0.54100
X1.70200 Y0.54100
X1.70200 Y0.54200
X1.70300 Y0.54200
X1.70300 Y0.54300
X1.70400 Y0.54300
X1.70400 Y0.54400
X1.70500 Y0.54400
X1.70500 Y0.54500
X1.70600 Y0.54500
X1.70600 Y0.54600
X1.70700 Y0.54600
X1.70700 Y0.54700
X1.70800 Y0.54700
X1.70800 Y0.54800
X1.70900 Y0.54800
X1.70900 Y0.54900
X1.71000 Y0.54900
X1.71000 Y0.55000
X1.71100 Y0.55000
X1.71100 Y0.55100
X1.71200 Y0.55100
X1.71200 Y0.55200
X1.71300 Y0.55200
X1.71300 Y0.55300
X1.71400 Y0.55300
X1.71400 Y0.55400
X1.71500 Y0.55400
X1.71500 Y0.55500
X1.71600 Y0.55500
X1.71600 Y0.55600
X1.71700 Y0.55600
X1.71700 Y0.55700
X1.71800 Y0.55700
X1.71800 Y0.55800
X1.71900 Y0.55800
X1.71900 Y0.55900
X1.72000 Y0.55900
X1.72000 Y0.56000
X1.72100 Y0.56000
X1.72100 Y0.56100
X1.72200 Y0.56100
X1.72200 Y0.56200
X1.72300 Y0.56200
X1.72300 Y0.56300
X1.72400 Y0.56300
X1.72400 Y0.56400
X1.72500 Y0.56400
X1.72500 Y0.56500
X1.72600 Y0.56500
X1.72600 Y0.56600
X1.72700 Y0.56600
X1.72700 Y0.56700
X1.72800 Y0.56700
X1.72800 Y0.56800
X1.72900 Y0.56800
X1.72900 Y0.56900
X1.73000 Y0.56900
X1.73000 Y0.57000
X1.73100 Y0.57000
X1.73100 Y0.57100
X1.73200 Y0.57100
X1.73200 Y0.57200
X1.73300 Y0.57200
X1.73300 Y0.57300
X1.73400 Y0.57300
X1.73400 Y0.57400
X1.73500 Y0.57400
X1.73500 Y0.57500
X1.73600 Y0.57500
X1.73600 Y0.57600
X1.73700 Y0.57600
X1.73700 Y0.57700
X1.73800 Y0.57700
X1.73800 Y0.57800
X1.73900 Y0.57800
X1.73900 Y0.57900
X1.74000 Y0.57900
X1.74000 Y0.58000
X1.74100 Y0.58000
X1.74100 Y0.58100
X1.74200 Y0.58100
X1.74200 Y0.58200
X1.74300 Y0.58200
X1.74300 Y0.58300
X1.74400 Y0.58300
X1.74400 Y0.58400
X1.74500 Y0.58400
X1.74500 Y0.58500
X1.74600 Y0.58500
X1.74600 Y0.58600
X1.74700 Y0.58600
X1.74700 Y0.58700
X1.74800 Y0.58700
X1.74800 Y0.58800
X1.74900 Y0.58800
X1.74900 Y0.58900
X1.75000 Y0.58900
X1.75000 Y0.59000
X1.75100 Y0.59000
X1.75100 Y0.59100
X1.75200 Y0.59100
X1.75200 Y0.59200
X1.75300 Y0.59200
X1.75300 Y0.59300
X1.75400 Y0.59300
X1.75400 Y0.59400
X1.75500 Y0.59400
X1.75500 Y0.59500
X1.75600 Y0.59500
X1.75600 Y0.59600
X1.75700 Y0.59600
X1.75700 Y0.59700
X1.75800 Y0.59700
X1.75800 Y0.59800
X1.75900 Y0.59800
X1.75900 Y0.59900
X1.76000 Y0.59900
X1.76000 Y0.60000
X1.76100 Y0.60000
X1.76100 Y0.63900
X1.83700 Y0.63900
X1.83700 Y0.62800
G04 P0 ( dwell for no time -- G64 should not smooth over this point )
G00 Z0.19685 ( retract )

G00 X1.12600 Y0.61300 ( rapid move to begin. )
G01 Z-0.01969 F1.96850 ( plunge. )
G04 P0 ( dwell for no time -- G64 should not smooth over this point )
X1.12600 Y0.61300
X1.12700 Y0.61300
X1.12700 Y0.61200
X1.12800 Y0.61200
X1.12800 Y0.61100
X1.12900 Y0.61100
X1.12900 Y0.61000
X1.13000 Y0.61000
X1.13000 Y0.60900
X1.13100 Y0.60900
X1.13100 Y0.60800
X1.13200 Y0.60800
X1.13200 Y0.60700
X1.13300 Y0.60700
X1.13300 Y0.60600
X1.13400 Y0.60600
X1.13400 Y0.60500
X1.13500 Y0.60500
X1.13500 Y0.60400
X1.13600 Y0.60400
X1.13600 Y0.60300
X1.13700 Y0.60300
X1.13700 Y0.60200
X1.13800 Y0.60200
X1.13800 Y0.60100
X1.13900 Y0.60100
X1.13900 Y0.60000
X1.14000 Y0.60000
X1.14000 Y0.59900
X1.14100 Y0.59900
X1.14100 Y0.59800
X1.14200 Y0.59800
X1.14200 Y0.59700
X1.14300 Y0.59700
X1.14300 Y0.59600
X1.14400 Y0.59600
X1.14400 Y0.59500
X1.14500 Y0.59500
X1.14500 Y0.59400
X1.14600 Y0.59400
X1.14600 Y0.59300
X1.14700 Y0.59300
X1.14700 Y0.59200
X1.14800 Y0.59200
X1.14800 Y0.59100
X1.14900 Y0.59100
X1.14900 Y0.59000
X1.15000 Y0.59000
X1.15000 Y0.58900
X1.15100 Y0.58900
X1.15100 Y0.58800
X1.15200 Y0.58800
X1.15200 Y0.58700
X1.15300 Y0.58700
X1.15300 Y0.58600
X1.15400 Y0.58600
X1.15400 Y0.58500
X1.15500 Y0.58500
X1.15500 Y0.58400
X1.15600 Y0.58400
X1.15600 Y0.58300
X1.15700 Y0.58300
X1.15700 Y0.58200
X1.15800 Y0.58200
X1.15800 Y0.58100
X1.15900 Y0.58100
X1.15900 Y0.58000
X1.16000 Y0.58000
X1.16000 Y0.57900
X1.16100 Y0.57900
X1.16100 Y0.57800
X1.16200 Y0.57800
X1.16200 Y0.57700
X1.16300 Y0.57700
X1.16300 Y0.57600
X1.16400 Y0.57600
X1.16400 Y0.57500
X1.16500 Y0.57500
X1.16500 Y0.57400
X1.16600 Y0.57400
X1.16600 Y0.57300
X1.16700 Y0.57300
X1.16700 Y0.57200
X1.16800 Y0.57200
X1.16800 Y0.57100
X1.16900 Y0.57100
X1.16900 Y0.57000
X1.17000 Y0.57000
X1.17000 Y0.56900
X1.17100 Y0.56900
X1.17100 Y0.56800
X1.17200 Y0.56800
X1.17200 Y0.56700
X1.17300 Y0.56700
X1.17300 Y0.56600
X1.17400 Y0.56600
X1.17400 Y0.56500
X1.17500 Y0.56500
X1.17500 Y0.56400
X1.17600 Y0.56400
X1.17600 Y0.56300
X1.17700 Y0.56300
X1.17700 Y0.56200
X1.17800 Y0.56200
X1.17800 Y0.56100
X1.17900 Y0.56100
X1.17900 Y0.56000
X1.18000 Y0.56000
X1.18000 Y0.55900
X1.18100 Y0.55900
X1.18100 Y0.55800
X1.18200 Y0.55800
X1.18200 Y0.55700
X1.18300 Y0.55700
X1.18300 Y0.55600
X1.18400 Y0.55600
X1.18400 Y0.55500
X1.18500 Y0.55500
X1.18500 Y0.55400
X1.18600 Y0.55400
X1.18600 Y0.55300
X1.18700 Y0.55300
X1.18700 Y0.55200
X1.18800 Y0.55200
X1.18800 Y0.55100
X1.18900 Y0.55100
X1.18900 Y0.55000
X1.19000 Y0.55000
X1.19000 Y0.54900
X1.19100 Y0.54900
X1.19100 Y0.54800
X1.19200 Y0.54800
X1.19200 Y0.54700
X1.19300 Y0.54700
X1.19300 Y0.54600
X1.19400 Y0.54600
X1.19400 Y0.54500
X1.19500 Y0.54500
X1.19500 Y0.54400
X1.19600 Y0.54400
X1.19600 Y0.54300
X1.19700 Y0.54300
X1.19700 Y0.54200
X1.19800 Y0.54200
X1.19800 Y0.54100
X1.19900 Y0.54100
X1.19900 Y0.54000
X1.20000 Y0.54000
X1.20000 Y0.53900
X1.20100 Y0.53900
X1.20100 Y0.53800
X1.20200 Y0.53800
X1.20200 Y0.53700
X1.20300 Y0.53700
X1.20300 Y0.53600
X1.20400 Y0.53600
X1.20400 Y0.53500
X1.20500 Y0.53500
X1.20500 Y0.53400
X1.20600 Y0.53400
X1.20600 Y0.53300
X1.20700 Y0.53300
X1.20700 Y0.53200
X1.20800 Y0.53200
X1.20800 Y0.53100
X1.20900 Y0.53100
X1.20900 Y0.53000
X1.21000 Y0.53000
X1.21000 Y0.52900
X1.21100 Y0.52900
X1.21100 Y0.52800
X1.21200 Y0.52800
X1.21200 Y0.52700
X1.21300 Y0.52700
X1.21300 Y0.52600
X1.21400 Y0.52600
X1.21400 Y0.52500
X1.21500 Y0.52500
X1.21500 Y0.52400
X1.51300 Y0.52400
X1.51300 Y0.52300
X1.51600 Y0.52300
X1.51600 Y0.52200
X1.51800 Y0.52200
X1.51800 Y0.52100
X1.51900 Y0.52100
X1.51900 Y0.52000
X1.52000 Y0.52000
X1.52000 Y0.51900
X1.52100 Y0.51900
X1.52100 Y0.51800
X1.52200 Y0.51800
X1.52200 Y0.51700
X1.52300 Y0.51700
X1.52300 Y0.51600
X1.52400 Y0.51600
X1.52400 Y0.51500
X1.52500 Y0.51500
X1.52500 Y0.51400
X1.52600 Y0.51400
X1.52600 Y0.51300
X1.52700 Y0.51300
X1.52700 Y0.51200
X1.52800 Y0.51200
X1.52800 Y0.51100
X1.52900 Y0.51100
X1.52900 Y0.51000
X1.53000 Y0.51000
X1.53000 Y0.50900
X1.53100 Y0.50900
X1.53100 Y0.50800
X1.53200 Y0.50800
X1.53200 Y0.50700
X1.53300 Y0.50700
X1.53300 Y0.50600
X1.53400 Y0.50600
X1.53400 Y0.50500
X1.53500 Y0.50500
X1.53500 Y0.50400
X1.53600 Y0.50400
X1.53600 Y0.50300
X1.53700 Y0.50300
X1.53700 Y0.50200
X1.53800 Y0.50200
X1.53800 Y0.50100
X1.53900 Y0.50100
X1.53900 Y0.50000
X1.54000 Y0.50000
X1.54000 Y0.49900
X1.54100 Y0.49900
X1.54100 Y0.49800
X1.54200 Y0.49800
X1.54200 Y0.49700
X1.54300 Y0.49700
X1.54300 Y0.49600
X1.54400 Y0.49600
X1.54400 Y0.49500
X1.54500 Y0.49500
X1.54500 Y0.49400
X1.54600 Y0.49400
X1.54600 Y0.49300
X1.54700 Y0.49300
X1.54700 Y0.49200
X1.54800 Y0.49200
X1.54800 Y0.49100
X1.54900 Y0.49100
X1.54900 Y0.49000
X1.55000 Y0.49000
X1.55000 Y0.48900
X1.55100 Y0.48900
X1.55100 Y0.48800
X1.55200 Y0.48800
X1.55200 Y0.48700
X1.55300 Y0.48700
X1.55300 Y0.48600
X1.55400 Y0.48600
X1.55400 Y0.48500
X1.55500 Y0.48500
X1.55500 Y0.48400
X1.55600 Y0.48400
X1.55600 Y0.48300
X1.55700 Y0.48300
X1.55700 Y0.48200
X1.55800 Y0.48200
X1.55800 Y0.48100
X1.55900 Y0.48100
X1.55900 Y0.48000
X1.56000 Y0.48000
X1.56000 Y0.47900
X1.56100 Y0.47900
X1.56100 Y0.47800
X1.56200 Y0.47800
X1.56200 Y0.47700
X1.56300 Y0.47700
X1.56300 Y0.47600
X1.56400 Y0.47600
X1.56400 Y0.47500
X1.56500 Y0.47500
X1.56500 Y0.47400
X1.56600 Y0.47400
X1.56600 Y0.47300
X1.56700 Y0.47300
X1.56700 Y0.47200
X1.56800 Y0.47200
X1.56800 Y0.47100
X1.56900 Y0.47100
X1.56900 Y0.47000
X1.57000 Y0.47000
X1.57000 Y0.46900
X1.57100 Y0.46900
X1.57100 Y0.46800
X1.57200 Y0.46800
X1.57200 Y0.46700
X1.57300 Y0.46700
X1.57300 Y0.46600
X1.57400 Y0.46600
X1.57400 Y0.46500
X1.57500 Y0.46500
X1.57500 Y0.46400
X1.57600 Y0.46400
X1.57600 Y0.46300
X1.57700 Y0.46300
X1.57700 Y0.46200
X1.57800 Y0.46200
X1.57800 Y0.46100
X1.57900 Y0.46100
X1.57900 Y0.46000
X1.58000 Y0.46000
X1.58000 Y0.45900
X1.58100 Y0.45900
X1.58100 Y0.45800
X1.58200 Y0.45800
X1.58200 Y0.45700
X1.58300 Y0.45700
X1.58300 Y0.45600
X1.58400 Y0.45600
X1.58400 Y0.45500
X1.58500 Y0.45500
X1.58500 Y0.45400
X1.58600 Y0.45400
X1.58600 Y0.45300
X1.58700 Y0.45300
X1.58700 Y0.45200
X1.58800 Y0.45200
X1.58800 Y0.45100
X1.58900 Y0.45100
X1.58900 Y0.45000
X1.59000 Y0.45000
X1.59000 Y0.44900
X1.59100 Y0.44900
X1.59100 Y0.44800
X1.59200 Y0.44800
X1.59200 Y0.44700
X1.59300 Y0.44700
X1.59300 Y0.44600
X1.59400 Y0.44600
X1.59400 Y0.44500
X1.59500 Y0.44500
X1.59500 Y0.44400
X1.59600 Y0.44400
X1.59600 Y0.44300
X1.59700 Y0.44300
X1.59700 Y0.44200
X1.59800 Y0.44200
X1.59800 Y0.44100
X1.59900 Y0.44100
X1.59900 Y0.44000
X1.60000 Y0.44000
X1.60000 Y0.43900
X1.61600 Y0.43900
X1.61600 Y0.43800
X1.62100 Y0.43800
X1.62100 Y0.43700
X1.62200 Y0.43700
X1.62200 Y0.43600
X1.62400 Y0.43600
X1.62400 Y0.43500
X1.62600 Y0.43500
X1.62600 Y0.43400
X1.62700 Y0.43400
X1.62700 Y0.43300
X1.62900 Y0.43300
X1.62900 Y0.43200
X1.63000 Y0.43200
X1.63000 Y0.43000
X1.63100 Y0.43000
X1.63100 Y0.42900
X1.63200 Y0.42900
X1.63200 Y0.42800
X1.63300 Y0.42800
X1.63300 Y0.42600
X1.63400 Y0.42600
X1.63400 Y0.42500
X1.63500 Y0.42500
X1.63500 Y0.42200
X1.63600 Y0.42200
X1.63600 Y0.41700
X1.63700 Y0.41700
X1.63700 Y0.38600
X1.63600 Y0.38600
X1.63600 Y0.38100
X1.63500 Y0.38100
X1.63500 Y0.37800
X1.63400 Y0.37800
X1.63400 Y0.37700
X1.63300 Y0.37700
X1.63300 Y0.37500
X1.63200 Y0.37500
X1.63200 Y0.37400
X1.63100 Y0.37400
X1.63100 Y0.37300
X1.63000 Y0.37300
X1.63000 Y0.37100
X1.62900 Y0.37100
X1.62900 Y0.37000
X1.62700 Y0.37000
X1.62700 Y0.36900
X1.62600 Y0.36900
X1.62600 Y0.36800
X1.62400 Y0.36800
X1.62400 Y0.36700
X1.62200 Y0.36700
X1.62200 Y0.36600
X1.62100 Y0.36600
X1.62100 Y0.36500
X1.61600 Y0.36500
X1.61600 Y0.36400
X1.58300 Y0.36400
X1.58300 Y0.36500
X1.57800 Y0.36500
X1.57800 Y0.36600
X1.57700 Y0.36600
X1.57700 Y0.36700
X1.57500 Y0.36700
X1.57500 Y0.36800
X1.57300 Y0.36800
X1.57300 Y0.36900
X1.57200 Y0.36900
X1.57200 Y0.37000
X1.57000 Y0.37000
X1.57000 Y0.37100
X1.56900 Y0.37100
X1.56900 Y0.37300
X1.56800 Y0.37300
X1.56800 Y0.37400
X1.56700 Y0.37400
X1.56700 Y0.37500
X1.56600 Y0.37500
X1.56600 Y0.37700
X1.56500 Y0.37700
X1.56500 Y0.37800
X1.56400 Y0.37800
X1.56400 Y0.38100
X1.56300 Y0.38100
X1.56300 Y0.38600
X1.56200 Y0.38600
X1.56200 Y0.40100
X1.56100 Y0.40100
X1.56100 Y0.40200
X1.56000 Y0.40200
X1.56000 Y0.40300
X1.55900 Y0.40300
X1.55900 Y0.40400
X1.55800 Y0.40400
X1.55800 Y0.40500
X1.55700 Y0.40500
X1.55700 Y0.40600
X1.55600 Y0.40600
X1.55600 Y0.40700
X1.55500 Y0.40700
X1.55500 Y0.40800
X1.55400 Y0.40800
X1.55400 Y0.40900
X1.55300 Y0.40900
X1.55300 Y0.41000
X1.55200 Y0.41000
X1.55200 Y0.41100
X1.55100 Y0.41100
X1.55100 Y0.41200
X1.55000 Y0.41200
X1.55000 Y0.41300
X1.54900 Y0.41300
X1.54900 Y0.41400
X1.54800 Y0.41400
X1.54800 Y0.41500
X1.54700 Y0.41500
X1.54700 Y0.41600
X1.54600 Y0.41600
X1.54600 Y0.41700
X1.54500 Y0.41700
X1.54500 Y0.41800
X1.54400 Y0.41800
X1.54400 Y0.41900
X1.54300 Y0.41900
X1.54300 Y0.42000
X1.54200 Y0.42000
X1.54200 Y0.42100
X1.54100 Y0.42100
X1.54100 Y0.42200
X1.54000 Y0.42200
X1.54000 Y0.42300
X1.53900 Y0.42300
X1.53900 Y0.42400
X1.53800 Y0.42400
X1.53800 Y0.42500
X1.53700 Y0.42500
X1.53700 Y0.42600
X1.53600 Y0.42600
X1.53600 Y0.42700
X1.53500 Y0.42700
X1.53500 Y0.42800
X1.53400 Y0.42800
X1.53400 Y0.42900
X1.53300 Y0.42900
X1.53300 Y0.43000
X1.53200 Y0.43000
X1.53200 Y0.43100
X1.53100 Y0.43100
X1.53100 Y0.43200
X1.53000 Y0.43200
X1.53000 Y0.43300
X1.52900 Y0.43300
X1.52900 Y0.43400
X1.52800 Y0.43400
X1.52800 Y0.43500
X1.52700 Y0.43500
X1.52700 Y0.43600
X1.52600 Y0.43600
X1.52600 Y0.43700
X1.52500 Y0.43700
X1.52500 Y0.43800
X1.52400 Y0.43800
X1.52400 Y0.43900
X1.52300 Y0.43900
X1.52300 Y0.44000
X1.52200 Y0.44000
X1.52200 Y0.44100
X1.52100 Y0.44100
X1.52100 Y0.44200
X1.52000 Y0.44200
X1.52000 Y0.44300
X1.51900 Y0.44300
X1.51900 Y0.44400
X1.51800 Y0.44400
X1.51800 Y0.44500
X1.51700 Y0.44500
X1.51700 Y0.44600
X1.51600 Y0.44600
X1.51600 Y0.44700
X1.51500 Y0.44700
X1.51500 Y0.44800
X1.51400 Y0.44800
X1.51400 Y0.44900
X1.51300 Y0.44900
X1.51300 Y0.45000
X1.51200 Y0.45000
X1.51200 Y0.45100
X1.51100 Y0.45100
X1.51100 Y0.45200
X1.51000 Y0.45200
X1.51000 Y0.45300
X1.50900 Y0.45300
X1.50900 Y0.45400
X1.50800 Y0.45400
X1.50800 Y0.45500
X1.50700 Y0.45500
X1.50700 Y0.45600
X1.50600 Y0.45600
X1.50600 Y0.45700
X1.50500 Y0.45700
X1.50500 Y0.45800
X1.50400 Y0.45800
X1.50400 Y0.45900
X1.50300 Y0.45900
X1.50300 Y0.46000
X1.50200 Y0.46000
X1.50200 Y0.46100
X1.50100 Y0.46100
X1.50100 Y0.46200
X1.50000 Y0.46200
X1.50000 Y0.46300
X1.49900 Y0.46300
X1.49900 Y0.46400
X1.49800 Y0.46400
X1.49800 Y0.46500
X1.49700 Y0.46500
X1.49700 Y0.46600
X1.49600 Y0.46600
X1.49600 Y0.46700
X1.49500 Y0.46700
X1.49500 Y0.46800
X1.49400 Y0.46800
X1.49400 Y0.46900
X1.49300 Y0.46900
X1.49300 Y0.47000
X1.49200 Y0.47000
X1.49200 Y0.47100
X1.49100 Y0.47100
X1.49100 Y0.47200
X1.49000 Y0.47200
X1.49000 Y0.47300
X1.48900 Y0.47300
X1.48900 Y0.47400
X1.48800 Y0.47400
X1.48800 Y0.47500
X1.48700 Y0.47500
X1.48700 Y0.47600
X1.48600 Y0.47600
X1.48600 Y0.47700
X1.48500 Y0.47700
X1.48500 Y0.47800
X1.18700 Y0.47800
X1.18700 Y0.47900
X1.18400 Y0.47900
X1.18400 Y0.48000
X1.18200 Y0.48000
X1.18200 Y0.48100
X1.18100 Y0.48100
X1.18100 Y0.48200
X1.18000 Y0.48200
X1.18000 Y0.48300
X1.17900 Y0.48300
X1.17900 Y0.48400
X1.17800 Y0.48400
X1.17800 Y0.48500
X1.17700 Y0.48500
X1.17700 Y0.48600
X1.17600 Y0.48600
X1.17600 Y0.48700
X1.17500 Y0.48700
X1.17500 Y0.48800
X1.17400 Y0.48800
X1.17400 Y0.48900
X1.17300 Y0.48900
X1.17300 Y0.49000
X1.17200 Y0.49000
X1.17200 Y0.49100
X1.17100 Y0.49100
X1.17100 Y0.49200
X1.17000 Y0.49200
X1.17000 Y0.49300
X1.16900 Y0.49300
X1.16900 Y0.49400
X1.16800 Y0.49400
X1.16800 Y0.49500
X1.16700 Y0.49500
X1.16700 Y0.49600
X1.16600 Y0.49600
X1.16600 Y0.49700
X1.16500 Y0.49700
X1.16500 Y0.49800
X1.16400 Y0.49800
X1.16400 Y0.49900
X1.16300 Y0.49900
X1.16300 Y0.50000
X1.16200 Y0.50000
X1.16200 Y0.50100
X1.16100 Y0.50100
X1.16100 Y0.50200
X1.16000 Y0.50200
X1.16000 Y0.50300
X1.15900 Y0.50300
X1.15900 Y0.50400
X1.15800 Y0.50400
X1.15800 Y0.50500
X1.15700 Y0.50500
X1.15700 Y0.50600
X1.15600 Y0.50600
X1.15600 Y0.50700
X1.15500 Y0.50700
X1.15500 Y0.50800
X1.15400 Y0.50800
X1.15400 Y0.50900
X1.15300 Y0.50900
X1.15300 Y0.51000
X1.15200 Y0.51000
X1.15200 Y0.51100
X1.15100 Y0.51100
X1.15100 Y0.51200
X1.15000 Y0.51200
X1.15000 Y0.51300
X1.14900 Y0.51300
X1.14900 Y0.51400
X1.14800 Y0.51400
X1.14800 Y0.51500
X1.14700 Y0.51500
X1.14700 Y0.51600
X1.14600 Y0.51600
X1.14600 Y0.51700
X1.14500 Y0.51700
X1.14500 Y0.51800
X1.14400 Y0.51800
X1.14400 Y0.51900
X1.14300 Y0.51900
X1.14300 Y0.52000
X1.14200 Y0.52000
X1.14200 Y0.52100
X1.14100 Y0.52100
X1.14100 Y0.52200
X1.14000 Y0.52200
X1.14000 Y0.52300
X1.13900 Y0.52300
X1.13900 Y0.52400
X1.13800 Y0.52400
X1.13800 Y0.52500
X1.13700 Y0.52500
X1.13700 Y0.52600
X1.13600 Y0.52600
X1.13600 Y0.52700
X1.13500 Y0.52700
X1.13500 Y0.52800
X1.13400 Y0.52800
X1.13400 Y0.53100
X1.13300 Y0.53100
X1.13300 Y0.53400
X1.13200 Y0.53400
X1.13200 Y0.53500
X1.12900 Y0.53500
X1.12900 Y0.53600
X1.12600 Y0.53600
X1.12600 Y0.53700
X1.12500 Y0.53700
X1.12500 Y0.53800
X1.12400 Y0.53800
X1.12400 Y0.53900
X1.12300 Y0.53900
X1.12300 Y0.54000
X1.12200 Y0.54000
X1.12200 Y0.54100
X1.12100 Y0.54100
X1.12100 Y0.54200
X1.12000 Y0.54200
X1.12000 Y0.54300
X1.11900 Y0.54300
X1.11900 Y0.54400
X1.11800 Y0.54400
X1.11800 Y0.54500
X1.11700 Y0.54500
X1.11700 Y0.54600
X1.11600 Y0.54600
X1.11600 Y0.54700
X1.11500 Y0.54700
X1.11500 Y0.54800
X1.11400 Y0.54800
X1.11400 Y0.54900
X1.11300 Y0.54900
X1.11300 Y0.55000
X1.11200 Y0.55000
X1.11200 Y0.55100
X1.11100 Y0.55100
X1.11100 Y0.55200
X1.11000 Y0.55200
X1.11000 Y0.55300
X1.10900 Y0.55300
X1.10900 Y0.55400
X1.10800 Y0.55400
X1.10800 Y0.55500
X1.10700 Y0.55500
X1.10700 Y0.55600
X1.10600 Y0.55600
X1.10600 Y0.55700
X1.10500 Y0.55700
X1.10500 Y0.55800
X1.10400 Y0.55800
X1.10400 Y0.55900
X1.10300 Y0.55900
X1.10300 Y0.56000
X1.10200 Y0.56000
X1.10200 Y0.56100
X1.10100 Y0.56100
X1.10100 Y0.56200
X1.10000 Y0.56200
X1.10000 Y0.56200
X1.09900 Y0.56200
X1.09900 Y0.56100
X1.09800 Y0.56100
X1.09800 Y0.56000
X1.09700 Y0.56000
X1.09700 Y0.55900
X1.09600 Y0.55900
X1.09600 Y0.55800
X1.09500 Y0.55800
X1.09500 Y0.55700
X1.09400 Y0.55700
X1.09400 Y0.55600
X1.09300 Y0.55600
X1.09300 Y0.55500
X1.09200 Y0.55500
X1.09200 Y0.55400
X1.09100 Y0.55400
X1.09100 Y0.55300
X1.09000 Y0.55300
X1.09000 Y0.55200
X1.08900 Y0.55200
X1.08900 Y0.55100
X1.08800 Y0.55100
X1.08800 Y0.55000
X1.08700 Y0.55000
X1.08700 Y0.54900
X1.08600 Y0.54900
X1.08600 Y0.54800
X1.08500 Y0.54800
X1.08500 Y0.54700
X1.08400 Y0.54700
X1.08400 Y0.54600
X1.08300 Y0.54600
X1.08300 Y0.54500
X1.08200 Y0.54500
X1.08200 Y0.54400
X1.08100 Y0.54400
X1.08100 Y0.54300
X1.08000 Y0.54300
X1.08000 Y0.54200
X1.07900 Y0.54200
X1.07900 Y0.54100
X1.07800 Y0.54100
X1.07800 Y0.54000
X1.07700 Y0.54000
X1.07700 Y0.53900
X1.07600 Y0.53900
X1.07600 Y0.53800
X1.07500 Y0.53800
X1.07500 Y0.53700
X1.07400 Y0.53700
X1.07400 Y0.53600
X1.07100 Y0.53600
X1.07100 Y0.53500
X1.06800 Y0.53500
X1.06800 Y0.53400
X1.06700 Y0.53400
X1.06700 Y0.53300
X1.06600 Y0.53300
X1.06600 Y0.53000
X1.06500 Y0.53000
X1.06500 Y0.52700
X1.06400 Y0.52700
X1.06400 Y0.52600
X1.06300 Y0.52600
X1.06300 Y0.52500
X1.06200 Y0.52500
X1.06200 Y0.52400
X1.06100 Y0.52400
X1.06100 Y0.52300
X1.06000 Y0.52300
X1.06000 Y0.52200
X1.05900 Y0.52200
X1.05900 Y0.52100
X1.05800 Y0.52100
X1.05800 Y0.52000
X1.05700 Y0.52000
X1.05700 Y0.51900
X1.05600 Y0.51900
X1.05600 Y0.51800
X1.05500 Y0.51800
X1.05500 Y0.51700
X1.05400 Y0.51700
X1.05400 Y0.51600
X1.05300 Y0.51600
X1.05300 Y0.51500
X1.05200 Y0.51500
X1.05200 Y0.51400
X1.05100 Y0.51400
X1.05100 Y0.51300
X1.05000 Y0.51300
X1.05000 Y0.51200
X1.04900 Y0.51200
X1.04900 Y0.51100
X1.04800 Y0.51100
X1.04800 Y0.51000
X1.04700 Y0.51000
X1.04700 Y0.50900
X1.04600 Y0.50900
X1.04600 Y0.50800
X1.04500 Y0.50800
X1.04500 Y0.50700
X1.04400 Y0.50700
X1.04400 Y0.50600
X1.04300 Y0.50600
X1.04300 Y0.50500
X1.04200 Y0.50500
X1.04200 Y0.50400
X1.04100 Y0.50400
X1.04100 Y0.50300
X1.04000 Y0.50300
X1.04000 Y0.50200
X1.03900 Y0.50200
X1.03900 Y0.50100
X1.03800 Y0.50100
X1.03800 Y0.50000
X1.03700 Y0.50000
X1.03700 Y0.48600
X1.03600 Y0.48600
X1.03600 Y0.48100
X1.03500 Y0.48100
X1.03500 Y0.47800
X1.03400 Y0.47800
X1.03400 Y0.47700
X1.03300 Y0.47700
X1.03300 Y0.47500
X1.03200 Y0.47500
X1.03200 Y0.47400
X1.03100 Y0.47400
X1.03100 Y0.47300
X1.03000 Y0.47300
X1.03000 Y0.47100
X1.02900 Y0.47100
X1.02900 Y0.47000
X1.02700 Y0.47000
X1.02700 Y0.46900
X1.02600 Y0.46900
X1.02600 Y0.46800
X1.02400 Y0.46800
X1.02400 Y0.46700
X1.02200 Y0.46700
X1.02200 Y0.46600
X1.02100 Y0.46600
X1.02100 Y0.46500
X1.01600 Y0.46500
X1.01600 Y0.46400
X0.98300 Y0.46400
X0.98300 Y0.46500
X0.97800 Y0.46500
X0.97800 Y0.46600
X0.97700 Y0.46600
X0.97700 Y0.46700
X0.97500 Y0.46700
X0.97500 Y0.46800
X0.97300 Y0.46800
X0.97300 Y0.46900
X0.97200 Y0.46900
X0.97200 Y0.47000
X0.97000 Y0.47000
X0.97000 Y0.47100
X0.96900 Y0.47100
X0.96900 Y0.47300
X0.96800 Y0.47300
X0.96800 Y0.47400
X0.96700 Y0.47400
X0.96700 Y0.47500
X0.96600 Y0.47500
X0.96600 Y0.47700
X0.96500 Y0.47700
X0.96500 Y0.47800
X0.91500 Y0.47800
X0.91500 Y0.47700
X0.91400 Y0.47700
X0.91400 Y0.47600
X0.91300 Y0.47600
X0.91300 Y0.47500
X0.91200 Y0.47500
X0.91200 Y0.47400
X0.91100 Y0.47400
X0.91100 Y0.47300
X0.91000 Y0.47300
X0.91000 Y0.47200
X0.90900 Y0.47200
X0.90900 Y0.47100
X0.90800 Y0.47100
X0.90800 Y0.47000
X0.90700 Y0.47000
X0.90700 Y0.46900
X0.90600 Y0.46900
X0.90600 Y0.46800
X0.90500 Y0.46800
X0.90500 Y0.46700
X0.90400 Y0.46700
X0.90400 Y0.46600
X0.90300 Y0.46600
X0.90300 Y0.46500
X0.90200 Y0.46500
X0.90200 Y0.46400
X0.90100 Y0.46400
X0.90100 Y0.46300
X0.90000 Y0.46300
X0.90000 Y0.46200
X0.89900 Y0.46200
X0.89900 Y0.46100
X0.89800 Y0.46100
X0.89800 Y0.46000
X0.89700 Y0.46000
X0.89700 Y0.45900
X0.89600 Y0.45900
X0.89600 Y0.45800
X0.89500 Y0.45800
X0.89500 Y0.45700
X0.89400 Y0.45700
X0.89400 Y0.45600
X0.89300 Y0.45600
X0.89300 Y0.45500
X0.89200 Y0.45500
X0.89200 Y0.45400
X0.89100 Y0.45400
X0.89100 Y0.45300
X0.89000 Y0.45300
X0.89000 Y0.45200
X0.88900 Y0.45200
X0.88900 Y0.45100
X0.88800 Y0.45100
X0.88800 Y0.45000
X0.88700 Y0.45000
X0.88700 Y0.44900
X0.88600 Y0.44900
X0.88600 Y0.44800
X0.88500 Y0.44800
X0.88500 Y0.44700
X0.88400 Y0.44700
X0.88400 Y0.44600
X0.88300 Y0.44600
X0.88300 Y0.44500
X0.88200 Y0.44500
X0.88200 Y0.44400
X0.88100 Y0.44400
X0.88100 Y0.44300
X0.88000 Y0.44300
X0.88000 Y0.44200
X0.87900 Y0.44200
X0.87900 Y0.44100
X0.87800 Y0.44100
X0.87800 Y0.44000
X0.87700 Y0.44000
X0.87700 Y0.43900
X0.87600 Y0.43900
X0.87600 Y0.43800
X0.87500 Y0.43800
X0.87500 Y0.43700
X0.87400 Y0.43700
X0.87400 Y0.43600
X0.87300 Y0.43600
X0.87300 Y0.43500
X0.87200 Y0.43500
X0.87200 Y0.43400
X0.87100 Y0.43400
X0.87100 Y0.43300
X0.87000 Y0.43300
X0.87000 Y0.43200
X0.86900 Y0.43200
X0.86900 Y0.43100
X0.86800 Y0.43100
X0.86800 Y0.43000
X0.86700 Y0.43000
X0.86700 Y0.42900
X0.86600 Y0.42900
X0.86600 Y0.42800
X0.86500 Y0.42800
X0.86500 Y0.42700
X0.86400 Y0.42700
X0.86400 Y0.42600
X0.86300 Y0.42600
X0.86300 Y0.42500
X0.86200 Y0.42500
X0.86200 Y0.42400
X0.86100 Y0.42400
X0.86100 Y0.42300
X0.86000 Y0.42300
X0.86000 Y0.42200
X0.85900 Y0.42200
X0.85900 Y0.42100
X0.85800 Y0.42100
X0.85800 Y0.42000
X0.85700 Y0.42000
X0.85700 Y0.41900
X0.85600 Y0.41900
X0.85600 Y0.41800
X0.85500 Y0.41800
X0.85500 Y0.41700
X0.85400 Y0.41700
X0.85400 Y0.41600
X0.85300 Y0.41600
X0.85300 Y0.41500
X0.85200 Y0.41500
X0.85200 Y0.41400
X0.85100 Y0.41400
X0.85100 Y0.41300
X0.85000 Y0.41300
X0.85000 Y0.41200
X0.84900 Y0.41200
X0.84900 Y0.41100
X0.84800 Y0.41100
X0.84800 Y0.41000
X0.84700 Y0.41000
X0.84700 Y0.40900
X0.84600 Y0.40900
X0.84600 Y0.40800
X0.84500 Y0.40800
X0.84500 Y0.40700
X0.84400 Y0.40700
X0.84400 Y0.40600
X0.84300 Y0.40600
X0.84300 Y0.40500
X0.84200 Y0.40500
X0.84200 Y0.40400
X0.84100 Y0.40400
X0.84100 Y0.40300
X0.84000 Y0.40300
X0.84000 Y0.38800
X0.83900 Y0.38800
X0.83900 Y0.38300
X0.83800 Y0.38300
X0.83800 Y0.37800
X0.83700 Y0.37800
X0.83700 Y0.37700
X0.83600 Y0.37700
X0.83600 Y0.37500
X0.83500 Y0.37500
X0.83500 Y0.37400
X0.83400 Y0.37400
X0.83400 Y0.37200
X0.83300 Y0.37200
X0.83300 Y0.37100
X0.83200 Y0.37100
X0.83200 Y0.37000
X0.83100 Y0.37000
X0.83100 Y0.36800
X0.82900 Y0.36800
X0.82900 Y0.36700
X0.82700 Y0.36700
X0.82700 Y0.36600
X0.82600 Y0.36600
X0.82600 Y0.36500
X0.82400 Y0.36500
X0.82400 Y0.36400
X0.82200 Y0.36400
X0.82200 Y0.36300
X0.81900 Y0.36300
X0.81900 Y0.36200
X0.81300 Y0.36200
X0.81300 Y0.36100
X0.78600 Y0.36100
X0.78600 Y0.36200
X0.78000 Y0.36200
X0.78000 Y0.36300
X0.77700 Y0.36300
X0.77700 Y0.36400
X0.77500 Y0.36400
X0.77500 Y0.36500
X0.77300 Y0.36500
X0.77300 Y0.36600
X0.77200 Y0.36600
X0.77200 Y0.36700
X0.77000 Y0.36700
X0.77000 Y0.36800
X0.76800 Y0.36800
X0.76800 Y0.37000
X0.76700 Y0.37000
X0.76700 Y0.37100
X0.76600 Y0.37100
X0.76600 Y0.37200
X0.76500 Y0.37200
X0.76500 Y0.37400
X0.76400 Y0.37400
X0.76400 Y0.37500
X0.76300 Y0.37500
X0.76300 Y0.37700
X0.76200 Y0.37700
X0.76200 Y0.37800
X0.76100 Y0.37800
X0.76100 Y0.38300
X0.76000 Y0.38300
X0.76000 Y0.38800
X0.75900 Y0.38800
X0.75900 Y0.41500
X0.76000 Y0.41500
X0.76000 Y0.42000
X0.76100 Y0.42000
X0.76100 Y0.42500
X0.76200 Y0.42500
X0.76200 Y0.42600
X0.76300 Y0.42600
X0.76300 Y0.42800
X0.76400 Y0.42800
X0.76400 Y0.42900
X0.76500 Y0.42900
X0.76500 Y0.43100
X0.76600 Y0.43100
X0.76600 Y0.43200
X0.76700 Y0.43200
X0.76700 Y0.43300
X0.76800 Y0.43300
X0.76800 Y0.43500
X0.77000 Y0.43500
X0.77000 Y0.43600
X0.77200 Y0.43600
X0.77200 Y0.43700
X0.77400 Y0.43700
X0.77400 Y0.43800
X0.77500 Y0.43800
X0.77500 Y0.43900
X0.77700 Y0.43900
X0.77700 Y0.44000
X0.78000 Y0.44000
X0.78000 Y0.44100
X0.78600 Y0.44100
X0.78600 Y0.44200
X0.80300 Y0.44200
X0.80300 Y0.44300
X0.80400 Y0.44300
X0.80400 Y0.44400
X0.80500 Y0.44400
X0.80500 Y0.44500
X0.80600 Y0.44500
X0.80600 Y0.44600
X0.80700 Y0.44600
X0.80700 Y0.44700
X0.80800 Y0.44700
X0.80800 Y0.44800
X0.80900 Y0.44800
X0.80900 Y0.44900
X0.81000 Y0.44900
X0.81000 Y0.45000
X0.81100 Y0.45000
X0.81100 Y0.45100
X0.81200 Y0.45100
X0.81200 Y0.45200
X0.81300 Y0.45200
X0.81300 Y0.45300
X0.81400 Y0.45300
X0.81400 Y0.45400
X0.81500 Y0.45400
X0.81500 Y0.45500
X0.81600 Y0.45500
X0.81600 Y0.45600
X0.81700 Y0.45600
X0.81700 Y0.45700
X0.81800 Y0.45700
X0.81800 Y0.45800
X0.81900 Y0.45800
X0.81900 Y0.45900
X0.82000 Y0.45900
X0.82000 Y0.46000
X0.82100 Y0.46000
X0.82100 Y0.46100
X0.82200 Y0.46100
X0.82200 Y0.46200
X0.82300 Y0.46200
X0.82300 Y0.46300
X0.82400 Y0.46300
X0.82400 Y0.46400
X0.82500 Y0.46400
X0.82500 Y0.46500
X0.82600 Y0.46500
X0.82600 Y0.46600
X0.82700 Y0.46600
X0.82700 Y0.46700
X0.82800 Y0.46700
X0.82800 Y0.46800
X0.82900 Y0.46800
X0.82900 Y0.46900
X0.83000 Y0.46900
X0.83000 Y0.47000
X0.83100 Y0.47000
X0.83100 Y0.47100
X0.83200 Y0.47100
X0.83200 Y0.47200
X0.83300 Y0.47200
X0.83300 Y0.47300
X0.83400 Y0.47300
X0.83400 Y0.47400
X0.83500 Y0.47400
X0.83500 Y0.47500
X0.83600 Y0.47500
X0.83600 Y0.47600
X0.83700 Y0.47600
X0.83700 Y0.47700
X0.83800 Y0.47700
X0.83800 Y0.47800
X0.83900 Y0.47800
X0.83900 Y0.47900
X0.84000 Y0.47900
X0.84000 Y0.48000
X0.84100 Y0.48000
X0.84100 Y0.48100
X0.84200 Y0.48100
X0.84200 Y0.48200
X0.84300 Y0.48200
X0.84300 Y0.48300
X0.84400 Y0.48300
X0.84400 Y0.48400
X0.84500 Y0.48400
X0.84500 Y0.48500
X0.84600 Y0.48500
X0.84600 Y0.48600
X0.84700 Y0.48600
X0.84700 Y0.48700
X0.84800 Y0.48700
X0.84800 Y0.48800
X0.84900 Y0.48800
X0.84900 Y0.48900
X0.85000 Y0.48900
X0.85000 Y0.49000
X0.85100 Y0.49000
X0.85100 Y0.49100
X0.85200 Y0.49100
X0.85200 Y0.49200
X0.85300 Y0.49200
X0.85300 Y0.49300
X0.85400 Y0.49300
X0.85400 Y0.49400
X0.85500 Y0.49400
X0.85500 Y0.49500
X0.85600 Y0.49500
X0.85600 Y0.49600
X0.85700 Y0.49600
X0.85700 Y0.49700
X0.85800 Y0.49700
X0.85800 Y0.49800
X0.85900 Y0.49800
X0.85900 Y0.49900
X0.86000 Y0.49900
X0.86000 Y0.50000
X0.86100 Y0.50000
X0.86100 Y0.50100
X0.86200 Y0.50100
X0.86200 Y0.50200
X0.86300 Y0.50200
X0.86300 Y0.50300
X0.86400 Y0.50300
X0.86400 Y0.50400
X0.86500 Y0.50400
X0.86500 Y0.50500
X0.86600 Y0.50500
X0.86600 Y0.50600
X0.86700 Y0.50600
X0.86700 Y0.50700
X0.86800 Y0.50700
X0.86800 Y0.50800
X0.86900 Y0.50800
X0.86900 Y0.50900
X0.87000 Y0.50900
X0.87000 Y0.51000
X0.87100 Y0.51000
X0.87100 Y0.51100
X0.87200 Y0.51100
X0.87200 Y0.51200
X0.87300 Y0.51200
X0.87300 Y0.51300
X0.87400 Y0.51300
X0.87400 Y0.51400
X0.87500 Y0.51400
X0.87500 Y0.51500
X0.87600 Y0.51500
X0.87600 Y0.51600
X0.87700 Y0.51600
X0.87700 Y0.51700
X0.87800 Y0.51700
X0.87800 Y0.51800
X0.87900 Y0.51800
X0.87900 Y0.51900
X0.88000 Y0.51900
X0.88000 Y0.52000
X0.88100 Y0.52000
X0.88100 Y0.52100
X0.88200 Y0.52100
X0.88200 Y0.52200
X0.88400 Y0.52200
X0.88400 Y0.52300
X0.88700 Y0.52300
X0.88700 Y0.52400
X0.96400 Y0.52400
X0.96400 Y0.52500
X0.96500 Y0.52500
X0.96500 Y0.52600
X0.96600 Y0.52600
X0.96600 Y0.52800
X0.96700 Y0.52800
X0.96700 Y0.52900
X0.96800 Y0.52900
X0.96800 Y0.53000
X0.96900 Y0.53000
X0.96900 Y0.53200
X0.97000 Y0.53200
X0.97000 Y0.53300
X0.97200 Y0.53300
X0.97200 Y0.53400
X0.97300 Y0.53400
X0.97300 Y0.53500
X0.97500 Y0.53500
X0.97500 Y0.53600
X0.97700 Y0.53600
X0.97700 Y0.53700
X0.97800 Y0.53700
X0.97800 Y0.53800
X0.98300 Y0.53800
X0.98300 Y0.53900
X1.00000 Y0.53900
X1.00000 Y0.54000
X1.00100 Y0.54000
X1.00100 Y0.54100
X1.00200 Y0.54100
X1.00200 Y0.54200
X1.00300 Y0.54200
X1.00300 Y0.54300
X1.00400 Y0.54300
X1.00400 Y0.54400
X1.00500 Y0.54400
X1.00500 Y0.54500
X1.00600 Y0.54500
X1.00600 Y0.54600
X1.00700 Y0.54600
X1.00700 Y0.54700
X1.00800 Y0.54700
X1.00800 Y0.54800
X1.00900 Y0.54800
X1.00900 Y0.54900
X1.01000 Y0.54900
X1.01000 Y0.55000
X1.01100 Y0.55000
X1.01100 Y0.55100
X1.01200 Y0.55100
X1.01200 Y0.55200
X1.01300 Y0.55200
X1.01300 Y0.55300
X1.01400 Y0.55300
X1.01400 Y0.55400
X1.01500 Y0.55400
X1.01500 Y0.55500
X1.01600 Y0.55500
X1.01600 Y0.55600
X1.01700 Y0.55600
X1.01700 Y0.55700
X1.01800 Y0.55700
X1.01800 Y0.55800
X1.01900 Y0.55800
X1.01900 Y0.55900
X1.02000 Y0.55900
X1.02000 Y0.56000
X1.02100 Y0.56000
X1.02100 Y0.56100
X1.02200 Y0.56100
X1.02200 Y0.56200
X1.02300 Y0.56200
X1.02300 Y0.56300
X1.02400 Y0.56300
X1.02400 Y0.56400
X1.02500 Y0.56400
X1.02500 Y0.56500
X1.02600 Y0.56500
X1.02600 Y0.56600
X1.02700 Y0.56600
X1.02700 Y0.56700
X1.02800 Y0.56700
X1.02800 Y0.56800
X1.02900 Y0.56800
X1.02900 Y0.56900
X1.03000 Y0.56900
X1.03000 Y0.57000
X1.03100 Y0.57000
X1.03100 Y0.57100
X1.03200 Y0.57100
X1.03200 Y0.57200
X1.03300 Y0.57200
X1.03300 Y0.57300
X1.03400 Y0.57300
X1.03400 Y0.57400
X1.03500 Y0.57400
X1.03500 Y0.57500
X1.03600 Y0.57500
X1.03600 Y0.57600
X1.03700 Y0.57600
X1.03700 Y0.57700
X1.03800 Y0.57700
X1.03800 Y0.57800
X1.03900 Y0.57800
X1.03900 Y0.57900
X1.04000 Y0.57900
X1.04000 Y0.58000
X1.04100 Y0.58000
X1.04100 Y0.58100
X1.04200 Y0.58100
X1.04200 Y0.58200
X1.04300 Y0.58200
X1.04300 Y0.58300
X1.04400 Y0.58300
X1.04400 Y0.58400
X1.04500 Y0.58400
X1.04500 Y0.58500
X1.04600 Y0.58500
X1.04600 Y0.58600
X1.04700 Y0.58600
X1.04700 Y0.58700
X1.04800 Y0.58700
X1.04800 Y0.58800
X1.04900 Y0.58800
X1.04900 Y0.58900
X1.05000 Y0.58900
X1.05000 Y0.59000
X1.05100 Y0.59000
X1.05100 Y0.59100
X1.05200 Y0.59100
X1.05200 Y0.59200
X1.05300 Y0.59200
X1.05300 Y0.59300
X1.05400 Y0.59300
X1.05400 Y0.59400
X1.05500 Y0.59400
X1.05500 Y0.59500
X1.05600 Y0.59500
X1.05600 Y0.59600
X1.05700 Y0.59600
X1.05700 Y0.59700
X1.05800 Y0.59700
X1.05800 Y0.59800
X1.05900 Y0.59800
X1.05900 Y0.59900
X1.06000 Y0.59900
X1.06000 Y0.60000
X1.06100 Y0.60000
X1.06100 Y0.60100
X1.06200 Y0.60100
X1.06200 Y0.60200
X1.06300 Y0.60200
X1.06300 Y0.60300
X1.06400 Y0.60300
X1.06400 Y0.60400
X1.06500 Y0.60400
X1.06500 Y0.60500
X1.06600 Y0.60500
X1.06600 Y0.60600
X1.06700 Y0.60600
X1.06700 Y0.60700
X1.06800 Y0.60700
X1.06800 Y0.60800
X1.06900 Y0.60800
X1.06900 Y0.60900
X1.07000 Y0.60900
X1.07000 Y0.61000
X1.07100 Y0.61000
X1.07100 Y0.61100
X1.07200 Y0.61100
X1.07200 Y0.61200
X1.07300 Y0.61200
X1.07300 Y0.61300
X1.07400 Y0.61300
X1.07400 Y0.61400
X1.07500 Y0.61400
X1.07500 Y0.61500
X1.07600 Y0.61500
X1.07600 Y0.61600
X1.07700 Y0.61600
X1.07700 Y0.61700
X1.07800 Y0.61700
X1.07800 Y0.61800
X1.07900 Y0.61800
X1.07900 Y0.61900
X1.08000 Y0.61900
X1.08000 Y0.62000
X1.08100 Y0.62000
X1.08100 Y0.62100
X1.08200 Y0.62100
X1.08200 Y0.62200
X1.08400 Y0.62200
X1.08400 Y0.62300
X1.08700 Y0.62300
X1.08700 Y0.62400
X1.11300 Y0.62400
X1.11300 Y0.62300
X1.11600 Y0.62300
X1.11600 Y0.62200
X1.11800 Y0.62200
X1.11800 Y0.62100
X1.11900 Y0.62100
X1.11900 Y0.62000
X1.12000 Y0.62000
X1.12000 Y0.61900
X1.12100 Y0.61900
X1.12100 Y0.61800
X1.12200 Y0.61800
X1.12200 Y0.61700
X1.12300 Y0.61700
X1.12300 Y0.61600
X1.12400 Y0.61600
X1.12400 Y0.61500
X1.12500 Y0.61500
X1.12500 Y0.61400
X1.12600 Y0.61400
X1.12600 Y0.61300
G04 P0 ( dwell for no time -- G64 should not smooth over this point )
G00 Z0.19685 ( retract )

G00 X2.46500 Y0.58100 ( rapid move to begin. )
G01 Z-0.01969 F1.96850 ( plunge. )
G04 P0 ( dwell for no time -- G64 should not smooth over this point )
X2.46500 Y0.58100
X2.46500 Y0.56400
X2.46600 Y0.56400
X2.46600 Y0.56300
X2.46700 Y0.56300
X2.46700 Y0.56200
X2.46800 Y0.56200
X2.46800 Y0.56100
X2.46900 Y0.56100
X2.46900 Y0.56000
X2.47000 Y0.56000
X2.47000 Y0.55900
X2.47100 Y0.55900
X2.47100 Y0.55800
X2.47200 Y0.55800
X2.47200 Y0.55700
X2.47300 Y0.55700
X2.47300 Y0.55600
X2.47400 Y0.55600
X2.47400 Y0.55500
X2.47500 Y0.55500
X2.47500 Y0.55400
X2.47600 Y0.55400
X2.47600 Y0.55300
X2.47700 Y0.55300
X2.47700 Y0.55200
X2.47800 Y0.55200
X2.47800 Y0.55100
X2.47900 Y0.55100
X2.47900 Y0.55000
X2.48000 Y0.55000
X2.48000 Y0.54900
X2.48100 Y0.54900
X2.48100 Y0.54800
X2.48200 Y0.54800
X2.48200 Y0.54700
X2.48300 Y0.54700
X2.48300 Y0.54600
X2.48400 Y0.54600
X2.48400 Y0.54500
X2.48500 Y0.54500
X2.48500 Y0.54400
X2.48600 Y0.54400
X2.48600 Y0.54300
X2.48700 Y0.54300
X2.48700 Y0.54200
X2.48800 Y0.54200
X2.48800 Y0.54100
X2.48900 Y0.54100
X2.48900 Y0.54000
X2.49000 Y0.54000
X2.49000 Y0.53900
X2.49100 Y0.53900
X2.49100 Y0.53800
X2.49200 Y0.53800
X2.49200 Y0.53700
X2.49300 Y0.53700
X2.49300 Y0.53600
X2.49400 Y0.53600
X2.49400 Y0.53500
X2.49500 Y0.53500
X2.49500 Y0.53400
X2.49600 Y0.53400
X2.49600 Y0.53300
X2.49700 Y0.53300
X2.49700 Y0.53200
X2.49800 Y0.53200
X2.49800 Y0.53100
X2.49900 Y0.53100
X2.49900 Y0.53000
X2.50000 Y0.53000
X2.50000 Y0.52900
X2.50100 Y0.52900
X2.50100 Y0.52800
X2.50200 Y0.52800
X2.50200 Y0.52700
X2.50300 Y0.52700
X2.50300 Y0.52600
X2.50400 Y0.52600
X2.50400 Y0.52500
X2.50500 Y0.52500
X2.50500 Y0.52400
X2.50600 Y0.52400
X2.50600 Y0.52300
X2.50700 Y0.52300
X2.50700 Y0.52200
X2.50800 Y0.52200
X2.50800 Y0.52100
X2.50900 Y0.52100
X2.50900 Y0.52000
X2.51000 Y0.52000
X2.51000 Y0.51900
X2.51100 Y0.51900
X2.51100 Y0.51800
X2.51200 Y0.51800
X2.51200 Y0.51700
X2.51300 Y0.51700
X2.51300 Y0.51600
X2.51400 Y0.51600
X2.51400 Y0.51500
X2.51500 Y0.51500
X2.51500 Y0.51400
X2.51600 Y0.51400
X2.51600 Y0.51300
X2.51700 Y0.51300
X2.51700 Y0.51200
X2.51800 Y0.51200
X2.51800 Y0.51100
X2.51900 Y0.51100
X2.51900 Y0.51000
X2.52000 Y0.51000
X2.52000 Y0.50900
X2.52100 Y0.50900
X2.52100 Y0.50800
X2.52200 Y0.50800
X2.52200 Y0.50700
X2.52300 Y0.50700
X2.52300 Y0.50600
X2.52400 Y0.50600
X2.52400 Y0.50500
X2.52500 Y0.50500
X2.52500 Y0.50400
X2.52600 Y0.50400
X2.52600 Y0.50300
X2.52700 Y0.50300
X2.52700 Y0.50200
X2.52800 Y0.50200
X2.52800 Y0.50100
X2.52900 Y0.50100
X2.52900 Y0.50000
X2.53000 Y0.50000
X2.53000 Y0.49900
X2.53100 Y0.49900
X2.53100 Y0.49800
X2.53200 Y0.49800
X2.53200 Y0.49700
X2.53300 Y0.49700
X2.53300 Y0.49600
X2.53400 Y0.49600
X2.53400 Y0.49500
X2.53500 Y0.49500
X2.53500 Y0.49400
X2.53600 Y0.49400
X2.53600 Y0.49300
X2.53700 Y0.49300
X2.53700 Y0.49200
X2.53800 Y0.49200
X2.53800 Y0.49100
X2.53900 Y0.49100
X2.53900 Y0.49000
X2.54000 Y0.49000
X2.54000 Y0.48900
X2.54100 Y0.48900
X2.54100 Y0.48800
X2.54200 Y0.48800
X2.54200 Y0.48700
X2.54300 Y0.48700
X2.54300 Y0.48600
X2.54400 Y0.48600
X2.54400 Y0.48500
X2.54500 Y0.48500
X2.54500 Y0.48400
X2.54600 Y0.48400
X2.54600 Y0.48300
X2.54700 Y0.48300
X2.54700 Y0.48200
X2.54800 Y0.48200
X2.54800 Y0.48100
X2.54900 Y0.48100
X2.54900 Y0.48000
X2.55000 Y0.48000
X2.55000 Y0.47900
X2.55100 Y0.47900
X2.55100 Y0.47800
X2.55200 Y0.47800
X2.55200 Y0.47700
X2.55300 Y0.47700
X2.55300 Y0.47600
X2.55400 Y0.47600
X2.55400 Y0.47500
X2.55500 Y0.47500
X2.55500 Y0.47400
X2.55600 Y0.47400
X2.55600 Y0.47300
X2.55700 Y0.47300
X2.55700 Y0.47200
X2.55800 Y0.47200
X2.55800 Y0.47100
X2.55900 Y0.47100
X2.55900 Y0.47000
X2.56000 Y0.47000
X2.56000 Y0.46900
X2.56100 Y0.46900
X2.56100 Y0.46800
X2.56200 Y0.46800
X2.56200 Y0.46700
X2.56300 Y0.46700
X2.56300 Y0.46600
X2.56400 Y0.46600
X2.56400 Y0.46500
X2.56500 Y0.46500
X2.56500 Y0.46400
X2.56600 Y0.46400
X2.56600 Y0.46300
X2.56700 Y0.46300
X2.56700 Y0.46200
X2.56800 Y0.46200
X2.56800 Y0.46100
X2.56900 Y0.46100
X2.56900 Y0.46000
X2.57000 Y0.46000
X2.57000 Y0.45900
X2.57100 Y0.45900
X2.57100 Y0.45800
X2.57200 Y0.45800
X2.57200 Y0.45700
X2.57300 Y0.45700
X2.57300 Y0.45600
X2.57400 Y0.45600
X2.57400 Y0.45500
X2.57500 Y0.45500
X2.57500 Y0.45400
X2.57600 Y0.45400
X2.57600 Y0.45300
X2.57700 Y0.45300
X2.57700 Y0.45200
X2.57800 Y0.45200
X2.57800 Y0.45100
X2.57900 Y0.45100
X2.57900 Y0.45000
X2.58000 Y0.45000
X2.58000 Y0.44900
X2.58100 Y0.44900
X2.58100 Y0.44800
X2.58200 Y0.44800
X2.58200 Y0.44700
X2.58300 Y0.44700
X2.58300 Y0.44600
X2.58400 Y0.44600
X2.58400 Y0.44500
X2.58500 Y0.44500
X2.58500 Y0.44400
X2.58600 Y0.44400
X2.58600 Y0.44300
X2.58700 Y0.44300
X2.58700 Y0.44200
X2.61300 Y0.44200
X2.61300 Y0.44100
X2.61900 Y0.44100
X2.61900 Y0.44000
X2.62200 Y0.44000
X2.62200 Y0.43900
X2.62400 Y0.43900
X2.62400 Y0.43800
X2.62500 Y0.43800
X2.62500 Y0.43700
X2.62700 Y0.43700
X2.62700 Y0.43600
X2.62900 Y0.43600
X2.62900 Y0.43500
X2.63100 Y0.43500
X2.63100 Y0.43300
X2.63200 Y0.43300
X2.63200 Y0.43200
X2.63300 Y0.43200
X2.63300 Y0.43100
X2.63400 Y0.43100
X2.63400 Y0.42900
X2.63500 Y0.42900
X2.63500 Y0.42800
X2.63600 Y0.42800
X2.63600 Y0.42600
X2.63700 Y0.42600
X2.63700 Y0.42500
X2.63800 Y0.42500
X2.63800 Y0.42000
X2.63900 Y0.42000
X2.63900 Y0.41500
X2.64000 Y0.41500
X2.64000 Y0.38800
X2.63900 Y0.38800
X2.63900 Y0.38300
X2.63800 Y0.38300
X2.63800 Y0.37800
X2.63700 Y0.37800
X2.63700 Y0.37700
X2.63600 Y0.37700
X2.63600 Y0.37500
X2.63500 Y0.37500
X2.63500 Y0.37400
X2.63400 Y0.37400
X2.63400 Y0.37200
X2.63300 Y0.37200
X2.63300 Y0.37100
X2.63200 Y0.37100
X2.63200 Y0.37000
X2.63100 Y0.37000
X2.63100 Y0.36800
X2.62900 Y0.36800
X2.62900 Y0.36700
X2.62700 Y0.36700
X2.62700 Y0.36600
X2.62600 Y0.36600
X2.62600 Y0.36500
X2.62400 Y0.36500
X2.62400 Y0.36400
X2.62200 Y0.36400
X2.62200 Y0.36300
X2.61900 Y0.36300
X2.61900 Y0.36200
X2.61300 Y0.36200
X2.61300 Y0.36100
X2.58600 Y0.36100
X2.58600 Y0.36200
X2.58000 Y0.36200
X2.58000 Y0.36300
X2.57700 Y0.36300
X2.57700 Y0.36400
X2.57500 Y0.36400
X2.57500 Y0.36500
X2.57300 Y0.36500
X2.57300 Y0.36600
X2.57200 Y0.36600
X2.57200 Y0.36700
X2.57000 Y0.36700
X2.57000 Y0.36800
X2.56800 Y0.36800
X2.56800 Y0.37000
X2.56700 Y0.37000
X2.56700 Y0.37100
X2.56600 Y0.37100
X2.56600 Y0.37200
X2.56500 Y0.37200
X2.56500 Y0.37400
X2.56400 Y0.37400
X2.56400 Y0.37500
X2.56300 Y0.37500
X2.56300 Y0.37700
X2.56200 Y0.37700
X2.56200 Y0.37800
X2.56100 Y0.37800
X2.56100 Y0.38300
X2.56000 Y0.38300
X2.56000 Y0.38800
X2.55900 Y0.38800
X2.55900 Y0.41400
X2.55800 Y0.41400
X2.55800 Y0.41500
X2.55700 Y0.41500
X2.55700 Y0.41600
X2.55600 Y0.41600
X2.55600 Y0.41700
X2.55500 Y0.41700
X2.55500 Y0.41800
X2.55400 Y0.41800
X2.55400 Y0.41900
X2.55300 Y0.41900
X2.55300 Y0.42000
X2.55200 Y0.42000
X2.55200 Y0.42100
X2.55100 Y0.42100
X2.55100 Y0.42200
X2.55000 Y0.42200
X2.55000 Y0.42300
X2.54900 Y0.42300
X2.54900 Y0.42400
X2.54800 Y0.42400
X2.54800 Y0.42500
X2.54700 Y0.42500
X2.54700 Y0.42600
X2.54600 Y0.42600
X2.54600 Y0.42700
X2.54500 Y0.42700
X2.54500 Y0.42800
X2.54400 Y0.42800
X2.54400 Y0.42900
X2.54300 Y0.42900
X2.54300 Y0.43000
X2.54200 Y0.43000
X2.54200 Y0.43100
X2.54100 Y0.43100
X2.54100 Y0.43200
X2.54000 Y0.43200
X2.54000 Y0.43300
X2.53900 Y0.43300
X2.53900 Y0.43400
X2.53800 Y0.43400
X2.53800 Y0.43500
X2.53700 Y0.43500
X2.53700 Y0.43600
X2.53600 Y0.43600
X2.53600 Y0.43700
X2.53500 Y0.43700
X2.53500 Y0.43800
X2.53400 Y0.43800
X2.53400 Y0.43900
X2.53300 Y0.43900
X2.53300 Y0.44000
X2.53200 Y0.44000
X2.53200 Y0.44100
X2.53100 Y0.44100
X2.53100 Y0.44200
X2.53000 Y0.44200
X2.53000 Y0.44300
X2.52900 Y0.44300
X2.52900 Y0.44400
X2.52800 Y0.44400
X2.52800 Y0.44500
X2.52700 Y0.44500
X2.52700 Y0.44600
X2.52600 Y0.44600
X2.52600 Y0.44700
X2.52500 Y0.44700
X2.52500 Y0.44800
X2.52400 Y0.44800
X2.52400 Y0.44900
X2.52300 Y0.44900
X2.52300 Y0.45000
X2.52200 Y0.45000
X2.52200 Y0.45100
X2.52100 Y0.45100
X2.52100 Y0.45200
X2.52000 Y0.45200
X2.52000 Y0.45300
X2.51900 Y0.45300
X2.51900 Y0.45400
X2.51800 Y0.45400
X2.51800 Y0.45500
X2.51700 Y0.45500
X2.51700 Y0.45600
X2.51600 Y0.45600
X2.51600 Y0.45700
X2.51500 Y0.45700
X2.51500 Y0.45800
X2.51400 Y0.45800
X2.51400 Y0.45900
X2.51300 Y0.45900
X2.51300 Y0.46000
X2.51200 Y0.46000
X2.51200 Y0.46100
X2.51100 Y0.46100
X2.51100 Y0.46200
X2.51000 Y0.46200
X2.51000 Y0.46300
X2.50900 Y0.46300
X2.50900 Y0.46400
X2.50800 Y0.46400
X2.50800 Y0.46500
X2.50700 Y0.46500
X2.50700 Y0.46600
X2.50600 Y0.46600
X2.50600 Y0.46700
X2.50500 Y0.46700
X2.50500 Y0.46800
X2.50400 Y0.46800
X2.50400 Y0.46900
X2.50300 Y0.46900
X2.50300 Y0.47000
X2.50200 Y0.47000
X2.50200 Y0.47100
X2.50100 Y0.47100
X2.50100 Y0.47200
X2.50000 Y0.47200
X2.50000 Y0.47300
X2.49900 Y0.47300
X2.49900 Y0.47400
X2.49800 Y0.47400
X2.49800 Y0.47500
X2.49700 Y0.47500
X2.49700 Y0.47600
X2.49600 Y0.47600
X2.49600 Y0.47700
X2.49500 Y0.47700
X2.49500 Y0.47800
X2.49400 Y0.47800
X2.49400 Y0.47900
X2.49300 Y0.47900
X2.49300 Y0.48000
X2.49200 Y0.48000
X2.49200 Y0.48100
X2.49100 Y0.48100
X2.49100 Y0.48200
X2.49000 Y0.48200
X2.49000 Y0.48300
X2.48900 Y0.48300
X2.48900 Y0.48400
X2.48800 Y0.48400
X2.48800 Y0.48500
X2.48700 Y0.48500
X2.48700 Y0.48600
X2.48600 Y0.48600
X2.48600 Y0.48700
X2.48500 Y0.48700
X2.48500 Y0.48800
X2.48400 Y0.48800
X2.48400 Y0.48900
X2.48300 Y0.48900
X2.48300 Y0.49000
X2.48200 Y0.49000
X2.48200 Y0.49100
X2.48100 Y0.49100
X2.48100 Y0.49200
X2.48000 Y0.49200
X2.48000 Y0.49300
X2.47900 Y0.49300
X2.47900 Y0.49400
X2.47800 Y0.49400
X2.47800 Y0.49500
X2.47700 Y0.49500
X2.47700 Y0.49600
X2.47600 Y0.49600
X2.47600 Y0.49700
X2.47500 Y0.49700
X2.47500 Y0.49800
X2.47400 Y0.49800
X2.47400 Y0.49900
X2.47300 Y0.49900
X2.47300 Y0.50000
X2.47200 Y0.50000
X2.47200 Y0.50100
X2.47100 Y0.50100
X2.47100 Y0.50200
X2.47000 Y0.50200
X2.47000 Y0.50300
X2.46900 Y0.50300
X2.46900 Y0.50400
X2.46800 Y0.50400
X2.46800 Y0.50500
X2.46700 Y0.50500
X2.46700 Y0.50600
X2.46600 Y0.50600
X2.46600 Y0.50700
X2.46500 Y0.50700
X2.46500 Y0.50800
X2.46400 Y0.50800
X2.46400 Y0.50900
X2.46300 Y0.50900
X2.46300 Y0.51000
X2.46200 Y0.51000
X2.46200 Y0.51100
X2.38700 Y0.51100
X2.38700 Y0.51000
X2.38600 Y0.51000
X2.38600 Y0.50900
X2.38500 Y0.50900
X2.38500 Y0.50800
X2.38400 Y0.50800
X2.38400 Y0.50700
X2.38300 Y0.50700
X2.38300 Y0.50600
X2.38200 Y0.50600
X2.38200 Y0.50500
X2.38100 Y0.50500
X2.38100 Y0.50400
X2.38000 Y0.50400
X2.38000 Y0.50300
X2.37900 Y0.50300
X2.37900 Y0.50200
X2.37800 Y0.50200
X2.37800 Y0.50100
X2.37700 Y0.50100
X2.37700 Y0.50000
X2.37600 Y0.50000
X2.37600 Y0.49900
X2.37500 Y0.49900
X2.37500 Y0.49800
X2.37400 Y0.49800
X2.37400 Y0.49700
X2.37300 Y0.49700
X2.37300 Y0.49600
X2.37200 Y0.49600
X2.37200 Y0.49500
X2.37100 Y0.49500
X2.37100 Y0.49400
X2.37000 Y0.49400
X2.37000 Y0.49300
X2.36900 Y0.49300
X2.36900 Y0.49200
X2.36800 Y0.49200
X2.36800 Y0.49100
X2.36700 Y0.49100
X2.36700 Y0.49000
X2.36600 Y0.49000
X2.36600 Y0.48900
X2.36500 Y0.48900
X2.36500 Y0.48800
X2.36400 Y0.48800
X2.36400 Y0.48700
X2.36300 Y0.48700
X2.36300 Y0.48600
X2.36200 Y0.48600
X2.36200 Y0.48500
X2.36100 Y0.48500
X2.36100 Y0.48400
X2.36000 Y0.48400
X2.36000 Y0.48300
X2.35900 Y0.48300
X2.35900 Y0.48200
X2.35800 Y0.48200
X2.35800 Y0.48100
X2.35700 Y0.48100
X2.35700 Y0.48000
X2.35600 Y0.48000
X2.35600 Y0.47900
X2.35500 Y0.47900
X2.35500 Y0.47800
X2.35400 Y0.47800
X2.35400 Y0.47700
X2.35300 Y0.47700
X2.35300 Y0.47600
X2.35200 Y0.47600
X2.35200 Y0.47500
X2.35100 Y0.47500
X2.35100 Y0.47400
X2.35000 Y0.47400
X2.35000 Y0.47300
X2.34900 Y0.47300
X2.34900 Y0.47200
X2.34800 Y0.47200
X2.34800 Y0.47100
X2.34700 Y0.47100
X2.34700 Y0.47000
X2.34600 Y0.47000
X2.34600 Y0.46900
X2.34500 Y0.46900
X2.34500 Y0.46800
X2.34400 Y0.46800
X2.34400 Y0.46700
X2.34300 Y0.46700
X2.34300 Y0.46600
X2.34200 Y0.46600
X2.34200 Y0.46500
X2.34100 Y0.46500
X2.34100 Y0.46400
X2.34000 Y0.46400
X2.34000 Y0.46300
X2.33900 Y0.46300
X2.33900 Y0.46200
X2.33800 Y0.46200
X2.33800 Y0.46100
X2.33700 Y0.46100
X2.33700 Y0.46000
X2.33600 Y0.46000
X2.33600 Y0.45900
X2.33500 Y0.45900
X2.33500 Y0.45800
X2.33400 Y0.45800
X2.33400 Y0.45700
X2.33300 Y0.45700
X2.33300 Y0.45600
X2.33200 Y0.45600
X2.33200 Y0.45500
X2.33100 Y0.45500
X2.33100 Y0.45400
X2.33000 Y0.45400
X2.33000 Y0.45300
X2.32900 Y0.45300
X2.32900 Y0.45200
X2.32800 Y0.45200
X2.32800 Y0.45100
X2.32700 Y0.45100
X2.32700 Y0.45000
X2.32600 Y0.45000
X2.32600 Y0.44900
X2.32500 Y0.44900
X2.32500 Y0.44800
X2.32400 Y0.44800
X2.32400 Y0.44700
X2.32300 Y0.44700
X2.32300 Y0.44600
X2.32200 Y0.44600
X2.32200 Y0.44500
X2.32100 Y0.44500
X2.32100 Y0.44400
X2.32000 Y0.44400
X2.32000 Y0.44300
X2.31900 Y0.44300
X2.31900 Y0.44200
X2.31800 Y0.44200
X2.31800 Y0.44100
X2.31700 Y0.44100
X2.31700 Y0.44000
X2.31600 Y0.44000
X2.31600 Y0.43900
X2.31500 Y0.43900
X2.31500 Y0.43800
X2.31400 Y0.43800
X2.31400 Y0.43700
X2.31300 Y0.43700
X2.31300 Y0.43600
X2.31200 Y0.43600
X2.31200 Y0.43500
X2.31100 Y0.43500
X2.31100 Y0.43400
X2.31000 Y0.43400
X2.31000 Y0.43300
X2.30900 Y0.43300
X2.30900 Y0.43200
X2.30800 Y0.43200
X2.30800 Y0.43100
X2.30700 Y0.43100
X2.30700 Y0.43000
X2.30600 Y0.43000
X2.30600 Y0.42900
X2.30500 Y0.42900
X2.30500 Y0.42800
X2.30400 Y0.42800
X2.30400 Y0.42700
X2.30300 Y0.42700
X2.30300 Y0.42600
X2.30200 Y0.42600
X2.30200 Y0.42500
X2.30100 Y0.42500
X2.30100 Y0.42400
X2.30000 Y0.42400
X2.30000 Y0.42300
X2.29900 Y0.42300
X2.29900 Y0.42200
X2.29800 Y0.42200
X2.29800 Y0.42100
X2.29700 Y0.42100
X2.29700 Y0.42000
X2.29600 Y0.42000
X2.29600 Y0.41900
X2.29500 Y0.41900
X2.29500 Y0.41700
X2.29600 Y0.41700
X2.29600 Y0.38600
X2.29500 Y0.38600
X2.29500 Y0.38000
X2.29400 Y0.38000
X2.29400 Y0.37700
X2.29300 Y0.37700
X2.29300 Y0.37500
X2.29200 Y0.37500
X2.29200 Y0.37300
X2.29100 Y0.37300
X2.29100 Y0.37100
X2.29000 Y0.37100
X2.29000 Y0.36900
X2.28900 Y0.36900
X2.28900 Y0.36800
X2.28800 Y0.36800
X2.28800 Y0.36700
X2.28700 Y0.36700
X2.28700 Y0.36600
X2.28600 Y0.36600
X2.28600 Y0.36500
X2.28500 Y0.36500
X2.28500 Y0.36400
X2.28400 Y0.36400
X2.28400 Y0.36300
X2.28200 Y0.36300
X2.28200 Y0.36200
X2.28000 Y0.36200
X2.28000 Y0.36100
X2.27900 Y0.36100
X2.27900 Y0.36000
X2.27700 Y0.36000
X2.27700 Y0.35900
X2.27500 Y0.35900
X2.27500 Y0.35800
X2.27400 Y0.35800
X2.27400 Y0.35700
X2.26900 Y0.35700
X2.26900 Y0.35600
X2.26300 Y0.35600
X2.26300 Y0.35500
X2.23600 Y0.35500
X2.23600 Y0.35600
X2.23300 Y0.35600
X2.23300 Y0.35700
X2.23100 Y0.35700
X2.23100 Y0.35800
X2.22900 Y0.35800
X2.22900 Y0.35900
X2.22700 Y0.35900
X2.22700 Y0.36000
X2.22600 Y0.36000
X2.22600 Y0.36100
X2.22400 Y0.36100
X2.22400 Y0.36200
X2.22300 Y0.36200
X2.22300 Y0.36300
X2.22200 Y0.36300
X2.22200 Y0.36400
X2.22100 Y0.36400
X2.22100 Y0.36500
X2.22000 Y0.36500
X2.22000 Y0.36600
X2.21800 Y0.36600
X2.21800 Y0.36700
X2.21700 Y0.36700
X2.21700 Y0.36800
X2.21600 Y0.36800
X2.21600 Y0.36900
X2.21500 Y0.36900
X2.21500 Y0.37000
X2.21400 Y0.37000
X2.21400 Y0.37100
X2.21300 Y0.37100
X2.21300 Y0.37200
X2.21200 Y0.37200
X2.21200 Y0.37400
X2.21100 Y0.37400
X2.21100 Y0.37500
X2.21000 Y0.37500
X2.21000 Y0.37600
X2.20900 Y0.37600
X2.20900 Y0.37700
X2.20800 Y0.37700
X2.20800 Y0.37900
X2.20700 Y0.37900
X2.20700 Y0.38100
X2.20600 Y0.38100
X2.20600 Y0.38200
X2.20500 Y0.38200
X2.20500 Y0.38500
X2.20400 Y0.38500
X2.20400 Y0.38600
X2.20300 Y0.38600
X2.20300 Y0.41700
X2.20400 Y0.41700
X2.20400 Y0.42300
X2.20500 Y0.42300
X2.20500 Y0.42600
X2.20600 Y0.42600
X2.20600 Y0.42800
X2.20700 Y0.42800
X2.20700 Y0.43000
X2.20800 Y0.43000
X2.20800 Y0.43200
X2.20900 Y0.43200
X2.20900 Y0.43400
X2.21000 Y0.43400
X2.21000 Y0.43500
X2.21100 Y0.43500
X2.21100 Y0.43600
X2.21200 Y0.43600
X2.21200 Y0.43700
X2.21300 Y0.43700
X2.21300 Y0.43800
X2.21400 Y0.43800
X2.21400 Y0.43900
X2.21500 Y0.43900
X2.21500 Y0.44000
X2.21700 Y0.44000
X2.21700 Y0.44100
X2.21900 Y0.44100
X2.21900 Y0.44200
X2.22000 Y0.44200
X2.22000 Y0.44300
X2.22200 Y0.44300
X2.22200 Y0.44400
X2.22400 Y0.44400
X2.22400 Y0.44500
X2.22500 Y0.44500
X2.22500 Y0.44600
X2.23000 Y0.44600
X2.23000 Y0.44700
X2.23600 Y0.44700
X2.23600 Y0.44800
X2.26300 Y0.44800
X2.26300 Y0.44700
X2.26700 Y0.44700
X2.26700 Y0.44800
X2.26800 Y0.44800
X2.26800 Y0.44900
X2.26900 Y0.44900
X2.26900 Y0.45000
X2.27000 Y0.45000
X2.27000 Y0.45100
X2.27100 Y0.45100
X2.27100 Y0.45200
X2.27200 Y0.45200
X2.27200 Y0.45300
X2.27300 Y0.45300
X2.27300 Y0.45400
X2.27400 Y0.45400
X2.27400 Y0.45500
X2.27500 Y0.45500
X2.27500 Y0.45600
X2.27600 Y0.45600
X2.27600 Y0.45700
X2.27700 Y0.45700
X2.27700 Y0.45800
X2.27800 Y0.45800
X2.27800 Y0.45900
X2.27900 Y0.45900
X2.27900 Y0.46000
X2.28000 Y0.46000
X2.28000 Y0.46100
X2.28100 Y0.46100
X2.28100 Y0.46200
X2.28200 Y0.46200
X2.28200 Y0.46300
X2.28300 Y0.46300
X2.28300 Y0.46400
X2.28400 Y0.46400
X2.28400 Y0.46500
X2.28500 Y0.46500
X2.28500 Y0.46600
X2.28600 Y0.46600
X2.28600 Y0.46700
X2.28700 Y0.46700
X2.28700 Y0.46800
X2.28800 Y0.46800
X2.28800 Y0.46900
X2.28900 Y0.46900
X2.28900 Y0.47000
X2.29000 Y0.47000
X2.29000 Y0.47100
X2.29100 Y0.47100
X2.29100 Y0.47200
X2.29200 Y0.47200
X2.29200 Y0.47300
X2.29300 Y0.47300
X2.29300 Y0.47400
X2.29400 Y0.47400
X2.29400 Y0.47500
X2.29500 Y0.47500
X2.29500 Y0.47600
X2.29600 Y0.47600
X2.29600 Y0.47700
X2.29700 Y0.47700
X2.29700 Y0.47800
X2.29800 Y0.47800
X2.29800 Y0.47900
X2.29900 Y0.47900
X2.29900 Y0.48000
X2.30000 Y0.48000
X2.30000 Y0.48100
X2.30100 Y0.48100
X2.30100 Y0.48200
X2.30200 Y0.48200
X2.30200 Y0.48300
X2.30300 Y0.48300
X2.30300 Y0.48400
X2.30400 Y0.48400
X2.30400 Y0.48500
X2.30500 Y0.48500
X2.30500 Y0.48600
X2.30600 Y0.48600
X2.30600 Y0.48700
X2.30700 Y0.48700
X2.30700 Y0.48800
X2.30800 Y0.48800
X2.30800 Y0.48900
X2.30900 Y0.48900
X2.30900 Y0.49000
X2.31000 Y0.49000
X2.31000 Y0.49100
X2.31100 Y0.49100
X2.31100 Y0.49200
X2.31200 Y0.49200
X2.31200 Y0.49300
X2.31300 Y0.49300
X2.31300 Y0.49400
X2.31400 Y0.49400
X2.31400 Y0.49500
X2.31500 Y0.49500
X2.31500 Y0.49600
X2.31600 Y0.49600
X2.31600 Y0.49700
X2.31700 Y0.49700
X2.31700 Y0.49800
X2.31800 Y0.49800
X2.31800 Y0.49900
X2.31900 Y0.49900
X2.31900 Y0.50000
X2.32000 Y0.50000
X2.32000 Y0.50100
X2.32100 Y0.50100
X2.32100 Y0.50200
X2.32200 Y0.50200
X2.32200 Y0.50300
X2.32300 Y0.50300
X2.32300 Y0.50400
X2.32400 Y0.50400
X2.32400 Y0.50500
X2.32500 Y0.50500
X2.32500 Y0.50600
X2.32600 Y0.50600
X2.32600 Y0.50700
X2.32700 Y0.50700
X2.32700 Y0.50800
X2.32800 Y0.50800
X2.32800 Y0.50900
X2.32900 Y0.50900
X2.32900 Y0.51000
X2.33000 Y0.51000
X2.33000 Y0.51100
X2.33100 Y0.51100
X2.33100 Y0.51200
X2.33200 Y0.51200
X2.33200 Y0.51300
X2.33300 Y0.51300
X2.33300 Y0.51400
X2.33400 Y0.51400
X2.33400 Y0.51500
X2.33500 Y0.51500
X2.33500 Y0.51600
X2.33600 Y0.51600
X2.33600 Y0.51700
X2.33700 Y0.51700
X2.33700 Y0.51800
X2.33800 Y0.51800
X2.33800 Y0.51900
X2.33900 Y0.51900
X2.33900 Y0.52000
X2.34000 Y0.52000
X2.34000 Y0.52100
X2.34100 Y0.52100
X2.34100 Y0.52200
X2.34200 Y0.52200
X2.34200 Y0.52300
X2.34300 Y0.52300
X2.34300 Y0.52400
X2.34400 Y0.52400
X2.34400 Y0.52500
X2.34500 Y0.52500
X2.34500 Y0.52600
X2.34600 Y0.52600
X2.34600 Y0.52700
X2.34700 Y0.52700
X2.34700 Y0.52800
X2.34800 Y0.52800
X2.34800 Y0.52900
X2.34900 Y0.52900
X2.34900 Y0.53000
X2.35000 Y0.53000
X2.35000 Y0.53100
X2.35100 Y0.53100
X2.35100 Y0.53200
X2.35200 Y0.53200
X2.35200 Y0.53300
X2.35300 Y0.53300
X2.35300 Y0.53400
X2.35400 Y0.53400
X2.35400 Y0.53500
X2.35500 Y0.53500
X2.35500 Y0.53600
X2.35600 Y0.53600
X2.35600 Y0.53700
X2.35700 Y0.53700
X2.35700 Y0.53800
X2.35800 Y0.53800
X2.35800 Y0.53900
X2.35900 Y0.53900
X2.35900 Y0.54000
X2.36000 Y0.54000
X2.36000 Y0.54100
X2.36100 Y0.54100
X2.36100 Y0.54200
X2.36200 Y0.54200
X2.36200 Y0.54300
X2.36300 Y0.54300
X2.36300 Y0.54400
X2.36400 Y0.54400
X2.36400 Y0.54500
X2.36500 Y0.54500
X2.36500 Y0.54600
X2.36600 Y0.54600
X2.36600 Y0.54700
X2.36700 Y0.54700
X2.36700 Y0.54800
X2.36800 Y0.54800
X2.36800 Y0.54900
X2.36900 Y0.54900
X2.36900 Y0.55000
X2.37000 Y0.55000
X2.37000 Y0.55100
X2.37100 Y0.55100
X2.37100 Y0.55200
X2.37200 Y0.55200
X2.37200 Y0.55300
X2.37300 Y0.55300
X2.37300 Y0.55400
X2.37400 Y0.55400
X2.37400 Y0.55500
X2.37500 Y0.55500
X2.37500 Y0.55600
X2.37600 Y0.55600
X2.37600 Y0.55700
X2.37700 Y0.55700
X2.37700 Y0.55800
X2.37800 Y0.55800
X2.37800 Y0.55900
X2.37900 Y0.55900
X2.37900 Y0.56000
X2.38000 Y0.56000
X2.38000 Y0.56100
X2.38100 Y0.56100
X2.38100 Y0.56200
X2.38200 Y0.56200
X2.38200 Y0.56300
X2.38300 Y0.56300
X2.38300 Y0.56400
X2.38400 Y0.56400
X2.38400 Y0.59200
X2.46500 Y0.59200
X2.46500 Y0.58100
G04 P0 ( dwell for no time -- G64 should not smooth over this point )
G00 Z0.19685 ( retract )

G00 X1.13500 Y0.52600 ( rapid move to begin. )
G01 Z-0.01969 F1.96850 ( plunge. )
G04 P0 ( dwell for no time -- G64 should not smooth over this point )
X1.13500 Y0.52600
X1.13500 Y0.50400
X1.13600 Y0.50400
X1.13600 Y0.50300
X1.13700 Y0.50300
X1.13700 Y0.50200
X1.13800 Y0.50200
X1.13800 Y0.50100
X1.13900 Y0.50100
X1.13900 Y0.50000
X1.14000 Y0.50000
X1.14000 Y0.49900
X1.14100 Y0.49900
X1.14100 Y0.49800
X1.14200 Y0.49800
X1.14200 Y0.49700
X1.14300 Y0.49700
X1.14300 Y0.49600
X1.14400 Y0.49600
X1.14400 Y0.49500
X1.14500 Y0.49500
X1.14500 Y0.49400
X1.14600 Y0.49400
X1.14600 Y0.49300
X1.14700 Y0.49300
X1.14700 Y0.49200
X1.14800 Y0.49200
X1.14800 Y0.49100
X1.14900 Y0.49100
X1.14900 Y0.49000
X1.15000 Y0.49000
X1.15000 Y0.48900
X1.15100 Y0.48900
X1.15100 Y0.48800
X1.15200 Y0.48800
X1.15200 Y0.48700
X1.15300 Y0.48700
X1.15300 Y0.48600
X1.15400 Y0.48600
X1.15400 Y0.48500
X1.15500 Y0.48500
X1.15500 Y0.48400
X1.15600 Y0.48400
X1.15600 Y0.48300
X1.15700 Y0.48300
X1.15700 Y0.48200
X1.15800 Y0.48200
X1.15800 Y0.48100
X1.15900 Y0.48100
X1.15900 Y0.48000
X1.16000 Y0.48000
X1.16000 Y0.47900
X1.16100 Y0.47900
X1.16100 Y0.47800
X1.16200 Y0.47800
X1.16200 Y0.47700
X1.16300 Y0.47700
X1.16300 Y0.47600
X1.16400 Y0.47600
X1.16400 Y0.47500
X1.16500 Y0.47500
X1.16500 Y0.47400
X1.16600 Y0.47400
X1.16600 Y0.47300
X1.16700 Y0.47300
X1.16700 Y0.47200
X1.16800 Y0.47200
X1.16800 Y0.47100
X1.16900 Y0.47100
X1.16900 Y0.47000
X1.17000 Y0.47000
X1.17000 Y0.46900
X1.17100 Y0.46900
X1.17100 Y0.46800
X1.17200 Y0.46800
X1.17200 Y0.46700
X1.17300 Y0.46700
X1.17300 Y0.46600
X1.17400 Y0.46600
X1.17400 Y0.46500
X1.17500 Y0.46500
X1.17500 Y0.46400
X1.17600 Y0.46400
X1.17600 Y0.46300
X1.17700 Y0.46300
X1.17700 Y0.46200
X1.17800 Y0.46200
X1.17800 Y0.46100
X1.17900 Y0.46100
X1.17900 Y0.46000
X1.18000 Y0.46000
X1.18000 Y0.45900
X1.18100 Y0.45900
X1.18100 Y0.45800
X1.18200 Y0.45800
X1.18200 Y0.45700
X1.18300 Y0.45700
X1.18300 Y0.45600
X1.18400 Y0.45600
X1.18400 Y0.45500
X1.18500 Y0.45500
X1.18500 Y0.45400
X1.18600 Y0.45400
X1.18600 Y0.45300
X1.18700 Y0.45300
X1.18700 Y0.45200
X1.18800 Y0.45200
X1.18800 Y0.45100
X1.18900 Y0.45100
X1.18900 Y0.45000
X1.19000 Y0.45000
X1.19000 Y0.44900
X1.19100 Y0.44900
X1.19100 Y0.44800
X1.19200 Y0.44800
X1.19200 Y0.44700
X1.19300 Y0.44700
X1.19300 Y0.44600
X1.19400 Y0.44600
X1.19400 Y0.44500
X1.19500 Y0.44500
X1.19500 Y0.44400
X1.19600 Y0.44400
X1.19600 Y0.44300
X1.19700 Y0.44300
X1.19700 Y0.44200
X1.19800 Y0.44200
X1.19800 Y0.44100
X1.19900 Y0.44100
X1.19900 Y0.44000
X1.20000 Y0.44000
X1.20000 Y0.43900
X1.23700 Y0.43900
X1.23700 Y0.36300
X1.22300 Y0.36300
X1.22300 Y0.33300
X1.22400 Y0.33300
X1.22400 Y0.33200
X1.22600 Y0.33200
X1.22600 Y0.33100
X1.22700 Y0.33100
X1.22700 Y0.33000
X1.22800 Y0.33000
X1.22800 Y0.32900
X1.22900 Y0.32900
X1.22900 Y0.32800
X1.23000 Y0.32800
X1.23000 Y0.32600
X1.23100 Y0.32600
X1.23100 Y0.32500
X1.23200 Y0.32500
X1.23200 Y0.32300
X1.23300 Y0.32300
X1.23300 Y0.32000
X1.23400 Y0.32000
X1.23400 Y0.31500
X1.23500 Y0.31500
X1.23500 Y0.28800
X1.23400 Y0.28800
X1.23400 Y0.28300
X1.23300 Y0.28300
X1.23300 Y0.28000
X1.23200 Y0.28000
X1.23200 Y0.27800
X1.23100 Y0.27800
X1.23100 Y0.27700
X1.23000 Y0.27700
X1.23000 Y0.27500
X1.22900 Y0.27500
X1.22900 Y0.27400
X1.22800 Y0.27400
X1.22800 Y0.27300
X1.22700 Y0.27300
X1.22700 Y0.27200
X1.22600 Y0.27200
X1.22600 Y0.27100
X1.22400 Y0.27100
X1.22400 Y0.27000
X1.22200 Y0.27000
X1.22200 Y0.26900
X1.22100 Y0.26900
X1.22100 Y0.26800
X1.21900 Y0.26800
X1.21900 Y0.26700
X1.21300 Y0.26700
X1.21300 Y0.26600
X1.18600 Y0.26600
X1.18600 Y0.26700
X1.18000 Y0.26700
X1.18000 Y0.26800
X1.17800 Y0.26800
X1.17800 Y0.26900
X1.17700 Y0.26900
X1.17700 Y0.27000
X1.17500 Y0.27000
X1.17500 Y0.27100
X1.17300 Y0.27100
X1.17300 Y0.27200
X1.17200 Y0.27200
X1.17200 Y0.27300
X1.17100 Y0.27300
X1.17100 Y0.27400
X1.17000 Y0.27400
X1.17000 Y0.27500
X1.16900 Y0.27500
X1.16900 Y0.27700
X1.16800 Y0.27700
X1.16800 Y0.27800
X1.16700 Y0.27800
X1.16700 Y0.28000
X1.16600 Y0.28000
X1.16600 Y0.28300
X1.16500 Y0.28300
X1.16500 Y0.28800
X1.16400 Y0.28800
X1.16400 Y0.31500
X1.16500 Y0.31500
X1.16500 Y0.32000
X1.16600 Y0.32000
X1.16600 Y0.32300
X1.16700 Y0.32300
X1.16700 Y0.32500
X1.16800 Y0.32500
X1.16800 Y0.32600
X1.16900 Y0.32600
X1.16900 Y0.32800
X1.17000 Y0.32800
X1.17000 Y0.32900
X1.17100 Y0.32900
X1.17100 Y0.33000
X1.17200 Y0.33000
X1.17200 Y0.33100
X1.17300 Y0.33100
X1.17300 Y0.33200
X1.17500 Y0.33200
X1.17500 Y0.33300
X1.17700 Y0.33300
X1.17700 Y0.36300
X1.16100 Y0.36300
X1.16100 Y0.40200
X1.16000 Y0.40200
X1.16000 Y0.40300
X1.15900 Y0.40300
X1.15900 Y0.40400
X1.15800 Y0.40400
X1.15800 Y0.40500
X1.15700 Y0.40500
X1.15700 Y0.40600
X1.15600 Y0.40600
X1.15600 Y0.40700
X1.15500 Y0.40700
X1.15500 Y0.40800
X1.15400 Y0.40800
X1.15400 Y0.40900
X1.15300 Y0.40900
X1.15300 Y0.41000
X1.15200 Y0.41000
X1.15200 Y0.41100
X1.15100 Y0.41100
X1.15100 Y0.41200
X1.15000 Y0.41200
X1.15000 Y0.41300
X1.14900 Y0.41300
X1.14900 Y0.41400
X1.14800 Y0.41400
X1.14800 Y0.41500
X1.14700 Y0.41500
X1.14700 Y0.41600
X1.14600 Y0.41600
X1.14600 Y0.41700
X1.14500 Y0.41700
X1.14500 Y0.41800
X1.14400 Y0.41800
X1.14400 Y0.41900
X1.14300 Y0.41900
X1.14300 Y0.42000
X1.14200 Y0.42000
X1.14200 Y0.42100
X1.14100 Y0.42100
X1.14100 Y0.42200
X1.14000 Y0.42200
X1.14000 Y0.42300
X1.13900 Y0.42300
X1.13900 Y0.42400
X1.13800 Y0.42400
X1.13800 Y0.42500
X1.13700 Y0.42500
X1.13700 Y0.42600
X1.13600 Y0.42600
X1.13600 Y0.42700
X1.13500 Y0.42700
X1.13500 Y0.42800
X1.13400 Y0.42800
X1.13400 Y0.42900
X1.13300 Y0.42900
X1.13300 Y0.43000
X1.13200 Y0.43000
X1.13200 Y0.43100
X1.13100 Y0.43100
X1.13100 Y0.43200
X1.13000 Y0.43200
X1.13000 Y0.43300
X1.12900 Y0.43300
X1.12900 Y0.43400
X1.12800 Y0.43400
X1.12800 Y0.43500
X1.12700 Y0.43500
X1.12700 Y0.43600
X1.12600 Y0.43600
X1.12600 Y0.43700
X1.12500 Y0.43700
X1.12500 Y0.43800
X1.12400 Y0.43800
X1.12400 Y0.43900
X1.12300 Y0.43900
X1.12300 Y0.44000
X1.12200 Y0.44000
X1.12200 Y0.44100
X1.12100 Y0.44100
X1.12100 Y0.44200
X1.12000 Y0.44200
X1.12000 Y0.44300
X1.11900 Y0.44300
X1.11900 Y0.44400
X1.11800 Y0.44400
X1.11800 Y0.44500
X1.11700 Y0.44500
X1.11700 Y0.44600
X1.11600 Y0.44600
X1.11600 Y0.44700
X1.11500 Y0.44700
X1.11500 Y0.44800
X1.11400 Y0.44800
X1.11400 Y0.44900
X1.11300 Y0.44900
X1.11300 Y0.45000
X1.11200 Y0.45000
X1.11200 Y0.45100
X1.11100 Y0.45100
X1.11100 Y0.45200
X1.11000 Y0.45200
X1.11000 Y0.45300
X1.10900 Y0.45300
X1.10900 Y0.45400
X1.10800 Y0.45400
X1.10800 Y0.45500
X1.10700 Y0.45500
X1.10700 Y0.45600
X1.10600 Y0.45600
X1.10600 Y0.45700
X1.10500 Y0.45700
X1.10500 Y0.45800
X1.10400 Y0.45800
X1.10400 Y0.45900
X1.10300 Y0.45900
X1.10300 Y0.46000
X1.10200 Y0.46000
X1.10200 Y0.46100
X1.10100 Y0.46100
X1.10100 Y0.46200
X1.10000 Y0.46200
X1.10000 Y0.46300
X1.09900 Y0.46300
X1.09900 Y0.46400
X1.09800 Y0.46400
X1.09800 Y0.46500
X1.09700 Y0.46500
X1.09700 Y0.46600
X1.06400 Y0.46600
X1.06400 Y0.52700
X1.06500 Y0.52700
X1.06500 Y0.53000
X1.06600 Y0.53000
X1.06600 Y0.53300
X1.06700 Y0.53300
X1.06700 Y0.53400
X1.06800 Y0.53400
X1.06800 Y0.53500
X1.07100 Y0.53500
X1.07100 Y0.53600
X1.07400 Y0.53600
X1.07400 Y0.53700
X1.12600 Y0.53700
X1.12600 Y0.53600
X1.12900 Y0.53600
X1.12900 Y0.53500
X1.13200 Y0.53500
X1.13200 Y0.53400
X1.13300 Y0.53400
X1.13300 Y0.53100
X1.13400 Y0.53100
X1.13400 Y0.52800
X1.13500 Y0.52800
X1.13500 Y0.52600
G04 P0 ( dwell for no time -- G64 should not smooth over this point )
G00 Z0.19685 ( retract )

G00 X2.08300 Y0.48100 ( rapid move to begin. )
G01 Z-0.01969 F1.96850 ( plunge. )
G04 P0 ( dwell for no time -- G64 should not smooth over this point )
X2.08300 Y0.48100
X2.08400 Y0.48100
X2.08400 Y0.47900
X2.08500 Y0.47900
X2.08500 Y0.47800
X2.08600 Y0.47800
X2.08600 Y0.47600
X2.08700 Y0.47600
X2.08700 Y0.47500
X2.08800 Y0.47500
X2.08800 Y0.47000
X2.08900 Y0.47000
X2.08900 Y0.46500
X2.09000 Y0.46500
X2.09000 Y0.44900
X2.09100 Y0.44900
X2.09100 Y0.44800
X2.09200 Y0.44800
X2.09200 Y0.44700
X2.09300 Y0.44700
X2.09300 Y0.44600
X2.09400 Y0.44600
X2.09400 Y0.44500
X2.09500 Y0.44500
X2.09500 Y0.44400
X2.09600 Y0.44400
X2.09600 Y0.44300
X2.09700 Y0.44300
X2.09700 Y0.44200
X2.09800 Y0.44200
X2.09800 Y0.44100
X2.09900 Y0.44100
X2.09900 Y0.44000
X2.10000 Y0.44000
X2.10000 Y0.43900
X2.10100 Y0.43900
X2.10100 Y0.43800
X2.10200 Y0.43800
X2.10200 Y0.43700
X2.10300 Y0.43700
X2.10300 Y0.43600
X2.10400 Y0.43600
X2.10400 Y0.43500
X2.10500 Y0.43500
X2.10500 Y0.43400
X2.10600 Y0.43400
X2.10600 Y0.43300
X2.10700 Y0.43300
X2.10700 Y0.43200
X2.10800 Y0.43200
X2.10800 Y0.43100
X2.10900 Y0.43100
X2.10900 Y0.43000
X2.11000 Y0.43000
X2.11000 Y0.42900
X2.11100 Y0.42900
X2.11100 Y0.42800
X2.11200 Y0.42800
X2.11200 Y0.42700
X2.11300 Y0.42700
X2.11300 Y0.42600
X2.11400 Y0.42600
X2.11400 Y0.42500
X2.11500 Y0.42500
X2.11500 Y0.42400
X2.11600 Y0.42400
X2.11600 Y0.42300
X2.11700 Y0.42300
X2.11700 Y0.42200
X2.11800 Y0.42200
X2.11800 Y0.42100
X2.11900 Y0.42100
X2.11900 Y0.42000
X2.12000 Y0.42000
X2.12000 Y0.41900
X2.12100 Y0.41900
X2.12100 Y0.41700
X2.12200 Y0.41700
X2.12200 Y0.41400
X2.12300 Y0.41400
X2.12300 Y0.31600
X2.12400 Y0.31600
X2.12400 Y0.31500
X2.12500 Y0.31500
X2.12500 Y0.31400
X2.12600 Y0.31400
X2.12600 Y0.31300
X2.12700 Y0.31300
X2.12700 Y0.31200
X2.12800 Y0.31200
X2.12800 Y0.31100
X2.12900 Y0.31100
X2.12900 Y0.31000
X2.13000 Y0.31000
X2.13000 Y0.30900
X2.13100 Y0.30900
X2.13100 Y0.30800
X2.13200 Y0.30800
X2.13200 Y0.30700
X2.13300 Y0.30700
X2.13300 Y0.30600
X2.13400 Y0.30600
X2.13400 Y0.30500
X2.13500 Y0.30500
X2.13500 Y0.30400
X2.13600 Y0.30400
X2.13600 Y0.30300
X2.13700 Y0.30300
X2.13700 Y0.30200
X2.13800 Y0.30200
X2.13800 Y0.30100
X2.13900 Y0.30100
X2.13900 Y0.30000
X2.14000 Y0.30000
X2.14000 Y0.29900
X2.14100 Y0.29900
X2.14100 Y0.29800
X2.14200 Y0.29800
X2.14200 Y0.29700
X2.14300 Y0.29700
X2.14300 Y0.29600
X2.14400 Y0.29600
X2.14400 Y0.29500
X2.14500 Y0.29500
X2.14500 Y0.29400
X2.14600 Y0.29400
X2.14600 Y0.29300
X2.14700 Y0.29300
X2.14700 Y0.29200
X2.14800 Y0.29200
X2.14800 Y0.29100
X2.14900 Y0.29100
X2.14900 Y0.29000
X2.15000 Y0.29000
X2.15000 Y0.28900
X2.15100 Y0.28900
X2.15100 Y0.28800
X2.15200 Y0.28800
X2.15200 Y0.28700
X2.15300 Y0.28700
X2.15300 Y0.28600
X2.15400 Y0.28600
X2.15400 Y0.28500
X2.15500 Y0.28500
X2.15500 Y0.28400
X2.15600 Y0.28400
X2.15600 Y0.28300
X2.15700 Y0.28300
X2.15700 Y0.28200
X2.15800 Y0.28200
X2.15800 Y0.28100
X2.15900 Y0.28100
X2.15900 Y0.28000
X2.16000 Y0.28000
X2.16000 Y0.27900
X2.16100 Y0.27900
X2.16100 Y0.27800
X2.16200 Y0.27800
X2.16200 Y0.27700
X2.16300 Y0.27700
X2.16300 Y0.27600
X2.16400 Y0.27600
X2.16400 Y0.27500
X2.16500 Y0.27500
X2.16500 Y0.27400
X2.16600 Y0.27400
X2.16600 Y0.27300
X2.16700 Y0.27300
X2.16700 Y0.27200
X2.16800 Y0.27200
X2.16800 Y0.27100
X2.16900 Y0.27100
X2.16900 Y0.27000
X2.17000 Y0.27000
X2.17000 Y0.26900
X2.17100 Y0.26900
X2.17100 Y0.26800
X2.17200 Y0.26800
X2.17200 Y0.26700
X2.17300 Y0.26700
X2.17300 Y0.26600
X2.17400 Y0.26600
X2.17400 Y0.26500
X2.17500 Y0.26500
X2.17500 Y0.26400
X2.17600 Y0.26400
X2.17600 Y0.26300
X2.17700 Y0.26300
X2.17700 Y0.26200
X2.17800 Y0.26200
X2.17800 Y0.26100
X2.17900 Y0.26100
X2.17900 Y0.26000
X2.18000 Y0.26000
X2.18000 Y0.25900
X2.18100 Y0.25900
X2.18100 Y0.25800
X2.18200 Y0.25800
X2.18200 Y0.25700
X2.18300 Y0.25700
X2.18300 Y0.25600
X2.18400 Y0.25600
X2.18400 Y0.25500
X2.18500 Y0.25500
X2.18500 Y0.25400
X2.18600 Y0.25400
X2.18600 Y0.25300
X2.18700 Y0.25300
X2.18700 Y0.25200
X2.18800 Y0.25200
X2.18800 Y0.25100
X2.18900 Y0.25100
X2.18900 Y0.25000
X2.19000 Y0.25000
X2.19000 Y0.24900
X2.19100 Y0.24900
X2.19100 Y0.24800
X2.19200 Y0.24800
X2.19200 Y0.24700
X2.19300 Y0.24700
X2.19300 Y0.24600
X2.19400 Y0.24600
X2.19400 Y0.24500
X2.19500 Y0.24500
X2.19500 Y0.24400
X2.19600 Y0.24400
X2.19600 Y0.24300
X2.19700 Y0.24300
X2.19700 Y0.24200
X2.19800 Y0.24200
X2.19800 Y0.24100
X2.19900 Y0.24100
X2.19900 Y0.24000
X2.20000 Y0.24000
X2.20000 Y0.23900
X2.20100 Y0.23900
X2.20100 Y0.23800
X2.20200 Y0.23800
X2.20200 Y0.23700
X2.20300 Y0.23700
X2.20300 Y0.24800
X2.29600 Y0.24800
X2.29600 Y0.23600
X2.29700 Y0.23600
X2.29700 Y0.23700
X2.29800 Y0.23700
X2.29800 Y0.23800
X2.29900 Y0.23800
X2.29900 Y0.23900
X2.30000 Y0.23900
X2.30000 Y0.24000
X2.30100 Y0.24000
X2.30100 Y0.24100
X2.30200 Y0.24100
X2.30200 Y0.24200
X2.30300 Y0.24200
X2.30300 Y0.24300
X2.30400 Y0.24300
X2.30400 Y0.24400
X2.30500 Y0.24400
X2.30500 Y0.24500
X2.30600 Y0.24500
X2.30600 Y0.24600
X2.30700 Y0.24600
X2.30700 Y0.24700
X2.30800 Y0.24700
X2.30800 Y0.24800
X2.30900 Y0.24800
X2.30900 Y0.24900
X2.31000 Y0.24900
X2.31000 Y0.25000
X2.31100 Y0.25000
X2.31100 Y0.25100
X2.31200 Y0.25100
X2.31200 Y0.25200
X2.31300 Y0.25200
X2.31300 Y0.25300
X2.31400 Y0.25300
X2.31400 Y0.25400
X2.31500 Y0.25400
X2.31500 Y0.25500
X2.31600 Y0.25500
X2.31600 Y0.25600
X2.31700 Y0.25600
X2.31700 Y0.25700
X2.31800 Y0.25700
X2.31800 Y0.25800
X2.31900 Y0.25800
X2.31900 Y0.25900
X2.32000 Y0.25900
X2.32000 Y0.26000
X2.32100 Y0.26000
X2.32100 Y0.26100
X2.32200 Y0.26100
X2.32200 Y0.26200
X2.32300 Y0.26200
X2.32300 Y0.26300
X2.32400 Y0.26300
X2.32400 Y0.26400
X2.32500 Y0.26400
X2.32500 Y0.26500
X2.32600 Y0.26500
X2.32600 Y0.26600
X2.32700 Y0.26600
X2.32700 Y0.41400
X2.32800 Y0.41400
X2.32800 Y0.41700
X2.32900 Y0.41700
X2.32900 Y0.41900
X2.33000 Y0.41900
X2.33000 Y0.42000
X2.33100 Y0.42000
X2.33100 Y0.42100
X2.33200 Y0.42100
X2.33200 Y0.42200
X2.33300 Y0.42200
X2.33300 Y0.42300
X2.33400 Y0.42300
X2.33400 Y0.42400
X2.33500 Y0.42400
X2.33500 Y0.42500
X2.33600 Y0.42500
X2.33600 Y0.42600
X2.33700 Y0.42600
X2.33700 Y0.42700
X2.33800 Y0.42700
X2.33800 Y0.42800
X2.33900 Y0.42800
X2.33900 Y0.42900
X2.34000 Y0.42900
X2.34000 Y0.43000
X2.34100 Y0.43000
X2.34100 Y0.43100
X2.34200 Y0.43100
X2.34200 Y0.43200
X2.34300 Y0.43200
X2.34300 Y0.43300
X2.34400 Y0.43300
X2.34400 Y0.43400
X2.34500 Y0.43400
X2.34500 Y0.43500
X2.34600 Y0.43500
X2.34600 Y0.43600
X2.34700 Y0.43600
X2.34700 Y0.43700
X2.34800 Y0.43700
X2.34800 Y0.43800
X2.34900 Y0.43800
X2.34900 Y0.43900
X2.35000 Y0.43900
X2.35000 Y0.44000
X2.35100 Y0.44000
X2.35100 Y0.44100
X2.35200 Y0.44100
X2.35200 Y0.44200
X2.35300 Y0.44200
X2.35300 Y0.44300
X2.35400 Y0.44300
X2.35400 Y0.44400
X2.35500 Y0.44400
X2.35500 Y0.44500
X2.35600 Y0.44500
X2.35600 Y0.44600
X2.35700 Y0.44600
X2.35700 Y0.44700
X2.35800 Y0.44700
X2.35800 Y0.44800
X2.35900 Y0.44800
X2.35900 Y0.44900
X2.36000 Y0.44900
X2.36000 Y0.45000
X2.36100 Y0.45000
X2.36100 Y0.45100
X2.36200 Y0.45100
X2.36200 Y0.45200
X2.36300 Y0.45200
X2.36300 Y0.45300
X2.36400 Y0.45300
X2.36400 Y0.45400
X2.36500 Y0.45400
X2.36500 Y0.45500
X2.36600 Y0.45500
X2.36600 Y0.45600
X2.36700 Y0.45600
X2.36700 Y0.45700
X2.36800 Y0.45700
X2.36800 Y0.45800
X2.36900 Y0.45800
X2.36900 Y0.45900
X2.37000 Y0.45900
X2.37000 Y0.46000
X2.37100 Y0.46000
X2.37100 Y0.46100
X2.37200 Y0.46100
X2.37200 Y0.46200
X2.37300 Y0.46200
X2.37300 Y0.46300
X2.37400 Y0.46300
X2.37400 Y0.46400
X2.37500 Y0.46400
X2.37500 Y0.46500
X2.37600 Y0.46500
X2.37600 Y0.46600
X2.37700 Y0.46600
X2.37700 Y0.46700
X2.37800 Y0.46700
X2.37800 Y0.46800
X2.37900 Y0.46800
X2.37900 Y0.46900
X2.38000 Y0.46900
X2.38000 Y0.47000
X2.38100 Y0.47000
X2.38100 Y0.47100
X2.38200 Y0.47100
X2.38200 Y0.47200
X2.38400 Y0.47200
X2.38400 Y0.47300
X2.38600 Y0.47300
X2.38600 Y0.47500
X2.38700 Y0.47500
X2.38700 Y0.47600
X2.38800 Y0.47600
X2.38800 Y0.47800
X2.38900 Y0.47800
X2.38900 Y0.47900
X2.39000 Y0.47900
X2.39000 Y0.48100
X2.39100 Y0.48100
X2.39100 Y0.48200
X2.39200 Y0.48200
X2.39200 Y0.48300
X2.39300 Y0.48300
X2.39300 Y0.48500
X2.39500 Y0.48500
X2.39500 Y0.48600
X2.39700 Y0.48600
X2.39700 Y0.48700
X2.39900 Y0.48700
X2.39900 Y0.48800
X2.40000 Y0.48800
X2.40000 Y0.48900
X2.40200 Y0.48900
X2.40200 Y0.49000
X2.40500 Y0.49000
X2.40500 Y0.49100
X2.41100 Y0.49100
X2.41100 Y0.49200
X2.43800 Y0.49200
X2.43800 Y0.49100
X2.44400 Y0.49100
X2.44400 Y0.49000
X2.44700 Y0.49000
X2.44700 Y0.48900
X2.44900 Y0.48900
X2.44900 Y0.48800
X2.45000 Y0.48800
X2.45000 Y0.48700
X2.45200 Y0.48700
X2.45200 Y0.48600
X2.45400 Y0.48600
X2.45400 Y0.48500
X2.45600 Y0.48500
X2.45600 Y0.48300
X2.45700 Y0.48300
X2.45700 Y0.48200
X2.45800 Y0.48200
X2.45800 Y0.48100
X2.45900 Y0.48100
X2.45900 Y0.47900
X2.46000 Y0.47900
X2.46000 Y0.47800
X2.46100 Y0.47800
X2.46100 Y0.47600
X2.46200 Y0.47600
X2.46200 Y0.47500
X2.46300 Y0.47500
X2.46300 Y0.47300
X2.46600 Y0.47300
X2.46600 Y0.47200
X2.46800 Y0.47200
X2.46800 Y0.47100
X2.46900 Y0.47100
X2.46900 Y0.47000
X2.47000 Y0.47000
X2.47000 Y0.46900
X2.47100 Y0.46900
X2.47100 Y0.46800
X2.47200 Y0.46800
X2.47200 Y0.46700
X2.47300 Y0.46700
X2.47300 Y0.46600
X2.47400 Y0.46600
X2.47400 Y0.46500
X2.47500 Y0.46500
X2.47500 Y0.46400
X2.47600 Y0.46400
X2.47600 Y0.46300
X2.47700 Y0.46300
X2.47700 Y0.46200
X2.47800 Y0.46200
X2.47800 Y0.46100
X2.47900 Y0.46100
X2.47900 Y0.46000
X2.48000 Y0.46000
X2.48000 Y0.45900
X2.48100 Y0.45900
X2.48100 Y0.45800
X2.48200 Y0.45800
X2.48200 Y0.45700
X2.48300 Y0.45700
X2.48300 Y0.45600
X2.48400 Y0.45600
X2.48400 Y0.45500
X2.48500 Y0.45500
X2.48500 Y0.45400
X2.48600 Y0.45400
X2.48600 Y0.45300
X2.48700 Y0.45300
X2.48700 Y0.45200
X2.48800 Y0.45200
X2.48800 Y0.45100
X2.48900 Y0.45100
X2.48900 Y0.45000
X2.49000 Y0.45000
X2.49000 Y0.44900
X2.49100 Y0.44900
X2.49100 Y0.44800
X2.49200 Y0.44800
X2.49200 Y0.44700
X2.49300 Y0.44700
X2.49300 Y0.44600
X2.49400 Y0.44600
X2.49400 Y0.44500
X2.49500 Y0.44500
X2.49500 Y0.44400
X2.49600 Y0.44400
X2.49600 Y0.44300
X2.49700 Y0.44300
X2.49700 Y0.44200
X2.49800 Y0.44200
X2.49800 Y0.44100
X2.49900 Y0.44100
X2.49900 Y0.44000
X2.50000 Y0.44000
X2.50000 Y0.43900
X2.50100 Y0.43900
X2.50100 Y0.43800
X2.50200 Y0.43800
X2.50200 Y0.43700
X2.50300 Y0.43700
X2.50300 Y0.43600
X2.50400 Y0.43600
X2.50400 Y0.43500
X2.50500 Y0.43500
X2.50500 Y0.43400
X2.50600 Y0.43400
X2.50600 Y0.43300
X2.50700 Y0.43300
X2.50700 Y0.43200
X2.50800 Y0.43200
X2.50800 Y0.43100
X2.50900 Y0.43100
X2.50900 Y0.43000
X2.51000 Y0.43000
X2.51000 Y0.42900
X2.51100 Y0.42900
X2.51100 Y0.42800
X2.51200 Y0.42800
X2.51200 Y0.42700
X2.51300 Y0.42700
X2.51300 Y0.42600
X2.51400 Y0.42600
X2.51400 Y0.42500
X2.51500 Y0.42500
X2.51500 Y0.42400
X2.51600 Y0.42400
X2.51600 Y0.42300
X2.51700 Y0.42300
X2.51700 Y0.42200
X2.51800 Y0.42200
X2.51800 Y0.42100
X2.51900 Y0.42100
X2.51900 Y0.42000
X2.52000 Y0.42000
X2.52000 Y0.41900
X2.52100 Y0.41900
X2.52100 Y0.41700
X2.52200 Y0.41700
X2.52200 Y0.41400
X2.52300 Y0.41400
X2.52300 Y0.36600
X2.52400 Y0.36600
X2.52400 Y0.36500
X2.52500 Y0.36500
X2.52500 Y0.36400
X2.52600 Y0.36400
X2.52600 Y0.36300
X2.52700 Y0.36300
X2.52700 Y0.36200
X2.52800 Y0.36200
X2.52800 Y0.36100
X2.52900 Y0.36100
X2.52900 Y0.36000
X2.53000 Y0.36000
X2.53000 Y0.35900
X2.53100 Y0.35900
X2.53100 Y0.35800
X2.53200 Y0.35800
X2.53200 Y0.35700
X2.53300 Y0.35700
X2.53300 Y0.35600
X2.53400 Y0.35600
X2.53400 Y0.35500
X2.53500 Y0.35500
X2.53500 Y0.35400
X2.53600 Y0.35400
X2.53600 Y0.35300
X2.53700 Y0.35300
X2.53700 Y0.35200
X2.53800 Y0.35200
X2.53800 Y0.35100
X2.53900 Y0.35100
X2.53900 Y0.35000
X2.54000 Y0.35000
X2.54000 Y0.34900
X2.54100 Y0.34900
X2.54100 Y0.34800
X2.54200 Y0.34800
X2.54200 Y0.34700
X2.54300 Y0.34700
X2.54300 Y0.34600
X2.54400 Y0.34600
X2.54400 Y0.34500
X2.54500 Y0.34500
X2.54500 Y0.34400
X2.54600 Y0.34400
X2.54600 Y0.34300
X2.54700 Y0.34300
X2.54700 Y0.34200
X2.54800 Y0.34200
X2.54800 Y0.34100
X2.54900 Y0.34100
X2.54900 Y0.34000
X2.55000 Y0.34000
X2.55000 Y0.33900
X2.55100 Y0.33900
X2.55100 Y0.33800
X2.55200 Y0.33800
X2.55200 Y0.33700
X2.55300 Y0.33700
X2.55300 Y0.33600
X2.55400 Y0.33600
X2.55400 Y0.33500
X2.55500 Y0.33500
X2.55500 Y0.33400
