( pcb2gcode 1.1.4 )

G94     ( Inches per minute feed rate. )
G20     ( Units == INCHES.             )
G90     ( Absolute coordinates.        )
S10000  ( RPM spindle speed.           )
M3      ( Spindle on clockwise.        )

G64 P0.00500 ( set maximum deviation from commanded toolpath )

G04 P0 ( dwell for no time -- G64 should not smooth over this point )
G00 Z0.19685 ( retract )

G00 X2.80500 Y1.49000 ( rapid move to begin. )
G01 Z0.00000 F0.19685 ( plunge. )
G04 P0 ( dwell for no time -- G64 should not smooth over this point )
X2.80500 Y1.49000
X2.80500 Y0.09900
X2.80400 Y0.09900
X2.80400 Y0.09800
X2.80300 Y0.09800
X2.80300 Y0.09700
X2.80200 Y0.09700
X2.80200 Y0.09600
X0.09700 Y0.09600
X0.09700 Y0.09700
X0.09600 Y0.09700
X0.09600 Y0.09800
X0.09500 Y0.09800
X0.09500 Y0.09900
X0.09400 Y0.09900
X0.09400 Y1.50400
X0.09500 Y1.50400
X0.09500 Y1.50500
X0.09600 Y1.50500
X0.09600 Y1.50600
X0.09700 Y1.50600
X0.09700 Y1.50700
X2.80200 Y1.50700
X2.80200 Y1.50600
X2.80300 Y1.50600
X2.80300 Y1.50500
X2.80400 Y1.50500
X2.80400 Y1.50400
X2.80500 Y1.50400
X2.80500 Y1.49000

G04 P0 ( dwell for no time -- G64 should not smooth over this point )
G00 Z0.19685 ( retract )

M9 ( Coolant off. )
M2 ( Program end. )

